/* XPM */
static char *dummy[]={
"64 64 140 2",
"aj c #656565",
"ai c #686868",
"ah c #696969",
"ad c #6a6a6a",
"ae c #6b6b6b",
"ag c #6c6c6c",
"a. c #6d6d6d",
"aa c #6e6e6e",
"#5 c #6f6f6f",
"af c #707070",
"#4 c #717171",
"#8 c #727272",
"ac c #737373",
"#6 c #747474",
"#9 c #757575",
"#3 c #767676",
"#7 c #777777",
"ab c #787878",
"a# c #797979",
"#Y c #7a7a7a",
"#Z c #7b7b7b",
".j c #7c7c7c",
".i c #7d7d7d",
"#f c #7e7e7e",
".g c #7f7f7f",
".f c #808080",
".e c #818181",
".k c #828282",
".h c #838383",
"Qt c #848484",
".# c #858585",
".c c #868686",
".d c #878787",
".a c #888888",
".b c #898989",
".K c #8a8a8a",
".n c #8b8b8b",
".3 c #8c8c8c",
".P c #8d8d8d",
".t c #8e8e8e",
".l c #8f8f8f",
".w c #909090",
".m c #919191",
"#d c #929292",
"#e c #939393",
"#b c #949494",
"#l c #959595",
"#c c #969696",
".o c #979797",
".p c #989898",
"#w c #999999",
"#o c #9a9a9a",
"#k c #9b9b9b",
"#C c #9c9c9c",
"#j c #9d9d9d",
"#r c #9e9e9e",
"#n c #9f9f9f",
"#V c #b53333",
"#W c #b73434",
"#U c #b73535",
"#1 c #b73636",
"#0 c #b83535",
"#X c #b83636",
"#T c #ba3737",
"#E c #ba3838",
"#J c #bb3838",
"#Q c #bc3939",
"#2 c #bc3a3a",
"#K c #bd3a3a",
"#D c #be3a3a",
"#I c #be3b3b",
"#u c #bf3b3b",
"#R c #bf3c3c",
"#L c #c03c3c",
"#v c #c13c3c",
"#B c #c13d3d",
"## c #c23d3d",
"#. c #c23e3e",
"#N c #c33d3d",
"#A c #c33e3e",
".9 c #c33f3f",
"#F c #c43e3e",
".2 c #c43f3f",
"#M c #c44040",
"#y c #c53f3f",
".8 c #c54040",
".4 c #c64040",
".W c #c64141",
"#t c #c74141",
"#H c #c74242",
"#z c #c84141",
".1 c #c84242",
".S c #c84343",
"#q c #c94242",
".R c #c94343",
".T c #c94444",
".7 c #ca4343",
".U c #ca4444",
"#p c #cb4444",
".5 c #cb4545",
".6 c #cc4545",
".X c #cc4646",
".N c #cd4646",
"#S c #cd4747",
"#s c #ce4646",
".G c #ce4747",
".Q c #cf4747",
".L c #cf4848",
".Y c #d04848",
".B c #d04949",
"#P c #d14848",
".x c #d14949",
".A c #d14a4a",
"#x c #d24949",
".F c #d24a4a",
"#m c #d34a4a",
".E c #d34b4b",
".V c #d44b4b",
".u c #d44c4c",
".0 c #d54c4c",
".D c #d54d4d",
"#G c #d64c4c",
".C c #d64d4d",
"#g c #d74d4d",
".v c #d74e4e",
"#h c #d84e4e",
".I c #d84f4f",
".Z c #d94f4f",
".y c #d95050",
".r c #da5050",
"#O c #da5151",
".O c #db5050",
".q c #db5151",
"#a c #dc5151",
".H c #dc5252",
".M c #dd5252",
"#i c #dd5353",
".z c #de5353",
".J c #de5454",
".s c #df5454",
"Qt.#.#Qt.a.#.b.#.c.d.d.d.#.b.dQt.dQt.#.e.e.f.g.#.#.h.i.j.i.j.i.g.fQtQt.b.d.f.f.e.f.f.e.f.h.a.c.k.h.c.#.h.h.c.a.l.m.l.b.n.l.m.o.p",
".l.q.r.s.s.s.s.s.s.s.s.s.s.s.t.u.v.s.s.s.s.s.s.s.s.s.s.s.w.x.y.s.s.s.s.s.s.s.s.s.s.z.c.A.v.s.s.s.s.s.s.s.s.s.s.s.l.B.C.s.s.s.s.t",
".m.q.r.s.s.s.s.s.s.s.s.s.s.s.l.v.D.s.s.s.s.s.s.s.s.s.s.s.n.E.v.s.s.s.s.s.s.s.s.s.s.q.b.F.s.s.s.s.s.s.s.s.s.s.s.s.l.G.q.s.s.s.s.c",
".m.H.I.s.J.z.z.s.s.s.s.s.s.s.t.v.v.s.s.s.s.s.s.s.s.s.s.s.K.L.v.s.s.s.s.s.s.s.s.s.M.L.t.N.O.s.s.s.s.s.s.s.s.s.s.z.t.L.q.s.s.s.s.d",
".P.Q.R.S.T.R.N.U.G.G.V.v.B.W.w.L.X.Y.I.Z.D.Z.D.D.x.v.0.B.b.1.L.r.q.r.E.u.y.q.Z.v.v.U.c.2.Q.r.L.U.G.x.F.C.V.v.H.H.w.N.L.u.v.C.F.c",
".3.x.1.2.W.4.U.1.B.x.u.0.Q.1.P.L.5.6.x.F.V.E.L.6.7.E.F.W.w.8.5.L.L.9#..9.L.D.C.E.v.F.###.G.v.x.R.C.u.F.F.G.F.q#a.k.U.R#.#..2.R.m",
".K#b#c.n.a.d.a.3#b#d.w#e.p.w#b#e.p.l.t.w.t.t.w#d.l.P.b.a.t#e.P.n.KQt.P.t.b.#.P#e#c.m.m.3.b.b.d.c#e.m.t.b.f.g#f.g.f.f.k.d.3.l.n.n",
".t#g#h.s.z.s.s.t.q.M.J.s.s.s.s.s.s.s.s.s.s#b.z.q.I.H.M#i.s.s.s.s.s#i.H.K.M.H.z.s.s.s.s.s.s.s.s.s.s.m.z.Z.I.s.s.s.s.s.s.r.r.H.s.n",
"#b.x.F.s.s.s.s#j.Z.0.z.s.s.s.s.s.s.s.s.s.s#k.q.Z.Z.s.s.s.s.s.s.s.s.s.s#l.r.u.q.s.s.s.s.s.s.s.s.s.s.l.H#m.u.s.s.s.s.s.s.s.s.s.s.l",
"#c.x.v.s.s.z.z#n.r.r.z.s.s.s.s.s.q.r.q.q.s#o.r.I.y.s.s.s.s.s.s.s.s.s.s#n.I.V.r.s.s.s.s.s.s.r.Z.H.H.m.I.E.x.s.s.s.s.s.s.s.s.s.z.o",
"#d.N.C#g.F#p#q#r.u.I.H.H#i.z.z.r.U.8.8.2.Q#l#m.0#h.M.I.r.Z.R#q#s.7.N.Z#n.V.F.I.q.C.I.I.Z.r.F.6.u.0.p#q#t.2.C.Z.r.H.z.r#h.r.r.I#n",
".P.9.x.C.F###u#d.6.Q.v.0#h.r.q.A#v.W.2#u.S.m.R.Y.0.r.Y.L.E###..G.R.7.B#o.N.5.E.r.A.F.E.x.B.N.U.F.D#e.W.8#u.N.L.E.I.r.u.Y.0.D.F#d",
".a.n#l#o#w.3.t#b.w.P.P.m#b#w.p.m.m#k#c.l.w#e#d.p.o.3.b.l.l.b.d.3.w.p.m.K.P.b.n.P.l#e.w#e.o#w#o.w#c#l#d.l.m.w#c#o#c#d#e#e.m.t.t.t",
"#b.s.s.s.s.s.s.s.s.s.s.s.s.s.o.s.s.s.s.s.s.s.s#i.s.s.s.s#c.s.s.s.s.s.s.s.s.s.s.s.s.s.a.s.s.s.s.s.s.s.s.s.s.s.s.s#c.s.s.s.s.s.s#c",
"#j.s.s.s.s.s.s.s.s.s.s.s.s.s#w.s.s.s.s.s.s.s.s.s.s.s.s.s#r.s.s.s.s.s.s.s.s.s.s.s.s.s.l.s.s.s.s.s.s.s.s.s.s.s.s.s#n.s.s.s.s.s.s#n",
"#n.M.r.H.s.s.s.s.z.M.z.z.z.H#o.s.s.s.s.M.H.M.M.M.s.s.s.z#n.V.v.r.q.z#i.z.z.z.s.s.H.Z.o#h.r.z.s.s.s.s.M.M.z.z.s.s#d.s.M#h.0.H.s#o",
"#n#x.2.N.I#i.M.q.E#y.4#z#A.4#n.M.H.Z.F.8.7#y#t#q.Z.Z.q.u#r.1.N.x.u.V#g.y.C.C.C.0.8.2#c##.4.C.q.q.M.r#t.R.7.1.C.M.w.r.Q.2#.#p.V.3",
"#r.G#t.G.D.r.r.u.U#B#u#.#..2.p.q.Z.I.Q.8.1#u#B.2.x.Z.y.u#k.8.G.Y.A.Y.v.I.E.x.F.G.6.N.w###p.L.C.q#h.Z.9.W#B.U.G.x.l.G.2.9#A.L.N.a",
"#b#w#d.n.c.b.t#c.o#b.b.b.w.t.K.P.t#w#l.P.b.n.K.a.n.K.n#c#o#l.t.n.w.w.3.3.b.b.3#l#e.b.b.l.n.a.b.K.a.l#b.K.n.K#d.m.3.a.n.t#b#l.w.a",
"#e.z.H.s.s.s.s.t.H#a.z.s.s.s.s.s.s.s.s.s.s.d.v.I.s.s.s.s.s.s.s.s.s.s.s.n.H.r.s.s.s.s.s.s.s.s.s.s.s.w.C.F.s.s.s.s.s.s.s.s.s.s.s#c",
"#e.F.B.s.s.s.s.K#h.C#a.s.s.s.s.s.s.s.s.s.s.3.C.F.s.s.s.s.s.s.s.s.s.s.s.P.r.E.z.s.s.s.s.s.s.s.s.s.s.l.0.E.J.s.s.s.s.s.s.s.s.s.s#C",
"#l.v.E.s.s.s.s.d.0.A.H.s.z.M.q.v.I.s.s.s.z#e.0.E.z.s.s.s.s.s.s.s.s.s.s.d.q.V.H.s.s.s.s.s.s.s.s.s.s.3.C.V.J.s.s.s.s.s.r.v.I.q.y.t",
"#e.L.6#p.2.U#h.b#D#E.N.r.C.7.7.7.4.F.8.8.4#o.Y.X.r.q.Z.Z.r.Q###p#F#z.Y.3.v.x.0#a#m.U###A.C.Z.C.x.B.3.N.X.V#x#G.C.N.Y.E.N#q.1.x.b",
"#c.E.Y.2.U#H.CQt#I#J.1.v.0.6.1.6.x.F.F.5#H.w.V.N.C#h.E.r.Z.5.9#K#D#A.4.p.6.8.G.y.R#A#D#D.v.Z.A.L#t.K#L.1.N#u.8#h.Q.W.R.8.R#M.4.K",
".l#l#w#l.w.n.d.d.K.3.w.K.n.w#c.3.n.b.b.t.3.n.P.m.m.t.b.#.b.b.d.d.P#e#e#b#l.m#c.p#w#l#l#l.o#o#k#o.p#b#l#b.w#l#b.l.b.c.c.a.3.bQt.c",
".m.F.q.s.s.s.s.s.s.s.s.s.s.s#w.q.q.s.s.s.s.s.s.s.s.s.s.s#e.0.v.s.s.s.z#a.H.z.s.J.J.s#b.Z.Z.Z.s.s.s.s.s.s.s.s.s.s#l.M.z.s.s.s.s.3",
".m#H.E.s.s.s.s.s.s.s.s.s.s.s.p.F.L.s.s.s.s.s.s.s.s.s.s.s.P.R.x.s.s.s.s.s.s.s.s.s.s.s.b.v.v.q.s.s.s.s.s.s.s.s.s.s.m.A#h.s.s.s.s.o",
".a.R.C.s.s.s.s.s.s.s.s.s.s.s.m.L#p#g.q.O.y.z#i.M.r.z.s.s.d.1.C.s.s.s.s.s.s.s.s.s.s.s.b.C.V.q.z.H.q.r.q.z.M.r.I#i.l.x.C.s.s.s.s.p",
".b.9.8.Y#G#N#u.Y.r#g.4.G#a.J#e#.#u#A.V.N#v.Q#g.v.6.C.Z.q.a#L.7#h#i.Z.Y.x#p.r.Y.8#q.I.P.G.G.v.x#z#t#z.Q.v.0#p#q.Z.a.2.1.x.L.X.y.m",
".l.W.W.G.Y.9#K#p.0.C.1.S.C#i.o.8#u#M.F.6#.#H.v.u.6.F.v.r#e#K.N#h.r.x#A.R.1.Y#.#B#M#h.w.9.1.u#H#B#.#t.G.0.0#H.W.r.b.4.R.v.E.R.0.o",
".l#l.p.p#b.l.P#w.p#d.l.t#c#w#e.l.3#l.o#e.t.P.P#l#b.t.n.n#d#d.3.b.d.P.m.n.a#d.w.w.P.n.t.n.K.K.a#d#c#c.K.n.P.n.a.K.b.#.d#d#d.t.P#C",
"#k.u.J.s.s.s.s#j.5.C.s.s.s.s.s.s.s.s.s.s.s.l.x.B.s.s.s.s.s.s.s.s.s.s.s.c.G.G#a.s.s.s.s.s.s.s.s.s.s.m.I.I.z.s.s.s.s.s.s.s.s#i.s#l",
"#C.N.M.s.s.s.s#j#B.F.s.s.s.s.s.s.s.s.s.s.s#w.G.N.z.s.s.s.s.s.s.s.s.s.s.l#M.5.H.s.s.s.s.s.s.s.s.s.s#d.F#m#i.s.s.s.s.s.s.s.s.s.s#l",
".P.X.M.s.s.s.s#e#t#h.s.s.s.s.s.s.s.s.s.s.s.w.x.G.s.s.s.s.s.s.s.s.s.s.s.P.2#s#i.s.s.s.s.s.s.s.s.s.s.p.0.E.H.s.s.s.s.z.z.s.s.s.s#o",
".###.u.q.Z.5.F.c#t.E.0.C.E.V.y.y.u.F.E.r.q.c.Q.W.N.x.O.r.v.V.Y.L.Z.H.M.n.2.1.0.I.Z.F#g.Z.v.v.r#O#O#o.q#p.G#s#p.E.F#H.S.Z.D.N.x.p",
".3#L.N.I.u#H.6Qt.1.6.R.1#B.1.6.X.W##.4.A.v.#.Y#I#K#..Y.N#H#..2##.5.I.H.h.F.R.L.F#p##.E#g.u.x.G.v.r.P.H.1#H#H.G.B.E.8##.N.N.R.G.n",
".b.n.n.n.c.d.c.a#b#d#e.3.a.d.c.d.d.3#l#b.t.a.a.w.P.d.d.a.l#c#b.n.b.l.P.#.#.h.K.w.K.c.m.PQtQtQtQt.n.3.e.h.t.l.c.k.k.hQt.h.f.e.h.n",
".K.Y.r.s.s.s.s.s.s.s.s.s.s.s#c.u.7.H.s.s.s.s.s.s.s.z.z.s#b.Z.0.z.s.s.s.s.s.s.s.s.s.z#o.v.C.s.s.s.s.s.s.s.s.s.s.s.n.Z.s.s.s.s.s#l",
".n#H#P.s.s.s.s.s.s.s.s.s.s.s#l.7.W.r.s.s.s.s.s.s.s.s.s.s#w.Q#A.r.s.s.s.s.s.s.s.s.s.s#n.C.0.s.s.s.s.s.s.s.s.s.s.s#k.G.r.s.s.s.s#o",
"#l.R.R.s.s.s.s.s.s.s.s.s.s.s#k#q#u.E.s.s.s.s.s.s.s.s.s.s#C.6##.r.s.s.s.s.s.s.s.s.s.s#n.v.v.s.s.s.s.s.s.s.s.s.s.s#n.C#i.s.s.s.s#n",
"#c#A#A.F.A.u.r.z.s.s.s.s.z.H#k.B#..1.r.r.z.s.M#a.r.C.Z.M.p.N.8.C.x.u.r.Z.y.u.0.D.M.M#n.D.v.z.z.H.Z.D.v.r.r.F.r.s#n.L#O.s#i#i.s#k",
".p.6.1.N.1.W.L.E.X.G.u.v.Z.F#j#####I.0.x.C.Y.F.6.8#Q#B#g.p.E.8.E.R.G.v.C.r.L.8.6.C.C#C.L.W.E.r.y.L#t#H.0.Y#R#H.C#j.2#K#.#K.N.B#c",
"#d.m#c#c#d.m#e#c#b#b.t.l.P#e#c.w.w#e.p#l#b#e#d.p#k#k.o.p#k#C#C#C#o#C#j#j.p#l#l#w#w#l.o#k#C.o#c#w#c#o.o.o#C#o#l#e#c#o#k#l.P.3#e#b",
"#e.H.0.Z.Z.O.z.o.v#h.r.M.z.s.s.s.s#i#i.M.O.t.G.x.x.V.q.s.s.s.s.s.s.s.s#o.M.s.s.s.z.z.s.z.q#a.H.r.0.c.x.s.z.M.M#i.z#a.x.U#H.6.I.l",
"#b.x.x#a.s.s.s#l.s.s.s.s.s.s.s.s.s.s.s.s.s#e.z.s.s.s.s.s.s.s.s.s.s.s.s.t.u#i.s.s.s.s.s.s.s.s.s.s.s.n.H.q.z.s.s.s.s.s.s.s.z.z.s.d",
"#r.N.W.I.s.H.0#c.s.s.s.s.s.s.s.s.s.s.s.s.s#d.s.s.s.s.s.s.s.s.s.s.s.s.s#d.F.Y.s.s.s.s.s.s.s.s.s.s.s.n#h.v.M.z.s.s.s.s.s.s.s.s.s#l",
"#C.Y.1.C#h.x.R#c#G.G.x#h.y.I.I.v.q.H.H.H.z.w.z.z.r.0.B.Y.E.E.u.D.V.q.q.m.Z.v.s.s.s.s.s.s.s.s.s.s.s.3.C.I.v.V.Y.Z.s.s.s.J.s.s.s#c",
".P.v.X#t.G.S.6#d#p.W.5.V.C.Y.N.R.G#S.1.R.G.3.Z#i.H.D.F.C.F.v.B.x.u#O.r.#.Z#p.V.D.Z#h.y.r.I.C.v.z.s.t.0.C.C.Y.F.E.x.E.G.L.z.s.s.p",
".l.K.K.t#e.m.m.l#e.p.p.o#b.o#C#o#k.b.n.P.b.d.d.K#k#k#e.KQt.P.a.c.e.k.e.e.h.e.d.b.3.o#d.a.a.3#b.t.b.l#l#l.3.3#b#l#w#e#d.w.w#b.o#c",
".p.C#g.v.Z.H.s.s.s.s.s.s.s.s.w.r.v.z#i.M.M.s.s.s.s.s.s.s.g.q.Z.s.s.s.s.s.z#a.q.H.z.z.m.q.Z.O.q.z.s.s.z.s.s.s.s.Z.3#P#a.z.s.s.s#k",
"#w#S.8.E.s.s.s.s.s.s.s.s.s.s.P.0.x.s.s.s.s.s.s.s.s.s.s.sQt.v.G.s.s.s.s.s.s.s.s.s.s.s#e.u.0.s.s.s.s.s.s.s.s.s.s.TQt.6.s.s.s.s.s.o",
"#c#t#t.N.y#i.u.X#.#M.v.Z.z.s#c.x.N.s.s.s.s.s.s.s.s.s.s.s.t.Z.L.s.s.s.s.s.s.s.s.s.s.s#l.Q.G.s.s.s.s.s.s.s.s.s.s.C.h.7.H.s.s.s.s#d",
"#l.8#T.8.G.L.S#u#U#V#U#K.N.x#w.F.R.v.v.Z.M#i#O.q.r.M.z.q#e.r.F.s.s.s.s.s.s.s.s.s.s.s#d.x.X.r.I.0.C.z.J.s.J.J.H.D.a.S.Y.M.z.s.s.w",
"#b.1#B.2.L.0.R#y#u#W#X#K.F.Y#b.G.R.v.Y.Y.x.Y.Y.x.0.v.H.r#b.q.X.I.0.x.G.X.X.q.q.v.V.u.t.N.2.F.u.G.G.v.y.v.L.G.x.B.m.5.U.H.q.H.A.w",
".o#b#d.o.p#c.o#c.p#o#C#o.p#d.t.P.K.a.3.n.o#w.P.t.P.P.P#e#e#c#b#w#k.o#d#l#c.t.t.t.w.o#C#e.l#e#e.t.K.n#l.t#l.w.d.n.m.P.b.b.a.t.l#d",
"#c.s.s.s.s.s.s.P.z.s.s.s.s.s.s.s.s.s.s.s.s#k.x.I.s.s.s.s.s.z.H.O.r.H.M#w.q#i.z.z.H#i.s.s.z.s.s.s.s#l.X.M.z.z.z.s.s.y.I.y.q.V.N#k",
".l.s.s.s.s.s.z#b.G.Z.s.s.s.s.s.s.s.s.s.s.s#C.x.I.z.s.s.s.s.s.s.s.s.s.s#r.Z#i.s.s.s.s.s.s.s.s.s.s.s#o.W#a.s.s.s.s.s.s.s.s.s.s.s.t",
"#Y.Q.s.s.s.s.s#r#v.x.s.s.s.s.s.s.s.s.s.s.s#r#P#a.s.s.s.s.s.s.s.s.s.s.s.m#g.M.s.s.s.s.s.s.s.s.s.s.s.l#H#G.s.s.s.s.s.s.s.s.s.s.s#l",
"#Z.6.Y.E.Z.s.s#d#L.9.H.s.s.s.s.s.s.s.s.s.s#r.x.Z.q.v.0.v.y.z.H.r#O.q.s.f.C.H.s.s.s.s.s.z#i.M.M.H.C.e#0.E.B.E.E.L.u.v.C.E.L.Z.q.i",
".h##.R#p.R#B.x.h#I#1#2.U.R.L.0.C.8.W.6.N.U.l.A.Y.X.R.U.U.G.q.v.x.7.x.L#3.D.F.L.Y.E.r#h.F.G.F.v#h.Y#f#X.U.C.N.8.9#S.E.U.T.8.Z.r#4",
".w.#.i.j.k.e.f.f#5#6#7#8#9#Y#Y.j#7#4#8#8a.#9#Ya#.k.a.e#4#5aa#6#Z.ea##7ab#7.j.i.k.d.g.e.f.iab#Z#f#Zab#5#8#4ab.j.i.j.ja##6#6ac.ga#",
".f#Za.ad#5ac#6a.adae#8#9#9a#.jQt#f#6aaafaa#8aaaga.#8af#5#4#6#9#7.i#7.h.h.i#Z#f.h#Zaba#.j#3#3.j.ga##9#9#7#Y.i#8#3#3.j#3#4aa#8.j#f",
".i.k#9ae#9.ea#a#aaag#4.i#7#3#Y#9.j#f#Y#4acacaca.ae#5#5a.#5aa#4#9#4#4.i.a.d#Z#6afaa#5#9#8a.#8#Za##4aha.af#5acaea.#8#9.i#6aa#4Qt#Z",
".i#f.iai#3#3#9#9aeajag#7#9#9#6#4#8#6ab#4#6.iab#4#4acafafad#4#5#6#6#8a#.h.k#9aea.#6#4#6aaad#8#8#5aaahag#8#3abaa#5#6aaa.ahaia.#9#9"};
