/* XPM */
static char *dummy[]={
"64 64 306 2",
"cV c #656565",
"cU c #686868",
"cT c #696969",
"cP c #6a6a6a",
"cQ c #6b6b6b",
"cS c #6c6c6c",
"cK c #6d6d6d",
"cM c #6e6e6e",
"cF c #6f6f6f",
"cR c #707070",
"cE c #717171",
"cI c #727272",
"cO c #737373",
"cG c #747474",
"cJ c #757575",
"cD c #767676",
"cH c #777777",
"cN c #787878",
"cL c #797979",
"cx c #7a7a7a",
"cz c #7b7b7b",
".j c #7c7c7c",
".i c #7d7d7d",
"#f c #7e7e7e",
".g c #7f7f7f",
".f c #808080",
".e c #818181",
".k c #828282",
".h c #838383",
"Qt c #848484",
".# c #858585",
".c c #868686",
".d c #878787",
".a c #888888",
".b c #898989",
".K c #8a8a8a",
".n c #8b8b8b",
".3 c #8c8c8c",
".P c #8d8d8d",
".t c #8e8e8e",
".l c #8f8f8f",
".w c #909090",
".m c #919191",
"#d c #929292",
"#e c #939393",
"#b c #949494",
"#J c #955941",
"ay c #959595",
"#c c #969696",
"bL c #975c43",
".o c #979797",
".p c #989898",
"#X c #999999",
"ar c #9a9a9a",
"aG c #9b9b9b",
"aP c #9c9c9c",
"bM c #9d624a",
"ao c #9d9d9d",
"cm c #9e634b",
"#I c #9e634c",
"cj c #9e644c",
"b. c #9e9e9e",
"ac c #9f9f9f",
"#y c #a0654e",
"cl c #a26750",
"#H c #a2e2ea",
"#u c #a36951",
"be c #a36952",
"#K c #a3e2ea",
"bq c #a3e3ea",
"b0 c #a46b53",
"#1 c #a4e3eb",
"bK c #a56b53",
"c. c #a56b54",
"#w c #a56c54",
"a5 c #a5e3eb",
"aU c #a5e4eb",
"b2 c #a6e4eb",
"ba c #a6e4ec",
"bp c #a76d56",
"bQ c #a76e57",
"aw c #a7e4ec",
"#j c #a86f58",
"#L c #a8e5ec",
"bH c #a96f58",
"#G c #a97059",
"#2 c #a9e5ed",
"#q c #aa715a",
"aQ c #aae5ed",
"af c #aae6ed",
"bz c #abe6ed",
"bl c #abe6ee",
"#v c #ac735c",
"aS c #ac745d",
"aT c #ace6ee",
"a6 c #ace7ee",
"bE c #ad745d",
"bO c #ad755e",
"bb c #ade7ee",
"#i c #ae765f",
"b3 c #aee7ef",
"aO c #aee8ef",
"#p c #af765f",
"bw c #af7760",
"#M c #afe8ef",
"aJ c #b07861",
"co c #b07862",
"av c #b0e8ef",
"br c #b0e9f0",
"#x c #b17962",
"#Y c #b17a63",
"am c #b1e9f0",
"az c #b27a64",
"#3 c #b2e9f0",
"#0 c #b37b64",
"#z c #b37c65",
"aR c #b3eaf0",
"bA c #b3eaf1",
"by c #b47c66",
"bj c #b47d66",
"ag c #b4eaf1",
"cu c #b53333",
"#F c #b57e67",
"bJ c #b57e68",
"bk c #b5eaf1",
"aA c #b5ebf1",
"ck c #b67f68",
"ae c #b67f69",
"bY c #b6ebf1",
"ca c #b6ebf2",
"cv c #b73434",
"ct c #b73535",
"cB c #b73636",
"#A c #b78069",
"bI c #b7806a",
"cd c #b7ebf2",
"a7 c #b7ecf2",
"cA c #b83535",
"cw c #b83636",
"aX c #b8816b",
"bT c #b8826b",
"bc c #b8ecf2",
"aV c #b9826c",
"c# c #b9836c",
"aN c #b9ecf3",
"cs c #ba3737",
"bo c #ba3838",
"#C c #ba836d",
"cf c #ba846d",
"#N c #baedf3",
"bv c #bb3838",
"#r c #bb846e",
"bR c #bbedf3",
"bd c #bbedf4",
"cC c #bc3a3a",
"bx c #bc856f",
"ci c #bc866f",
"#s c #bc8670",
"aF c #bceef4",
"bZ c #bd3a3a",
"bG c #bd8670",
"#n c #bd8771",
"#4 c #bdeef4",
"bn c #be3a3a",
"bu c #be3b3b",
"#D c #be8872",
"aY c #beeff5",
"aq c #bf3b3b",
"cq c #bf3c3c",
"bg c #bf8973",
"#9 c #bfeff5",
"b7 c #c03c3c",
"aI c #c08a74",
"b1 c #c08a75",
"#o c #c08b75",
"aW c #c0f0f6",
"cy c #c13c3c",
"b# c #c13d3d",
"a4 c #c18b75",
"an c #c18b76",
"#t c #c18c76",
"at c #c1f0f6",
"## c #c23d3d",
"#. c #c23e3e",
"bF c #c28c76",
"aZ c #c28c77",
"b9 c #c28d77",
"bh c #c2f0f6",
"aK c #c2f1f6",
"bW c #c33d3d",
"a3 c #c33e3e",
".9 c #c33f3f",
"as c #c38e78",
"#B c #c38e79",
"b4 c #c3f1f6",
"aM c #c3f1f7",
".2 c #c43f3f",
"bB c #c44040",
"ad c #c48e79",
"bi c #c48f79",
"b8 c #c48f7a",
"bf c #c4f1f7",
"#O c #c4f2f7",
"a1 c #c53f3f",
".8 c #c54040",
"b5 c #c54141",
"bU c #c5907a",
"aH c #c5907b",
"bS c #c5f2f7",
".4 c #c64040",
".W c #c64141",
"bC c #c6917b",
"ax c #c6917c",
"#k c #c6927c",
"#5 c #c6f2f8",
"a9 c #c6f3f8",
"ap c #c74141",
"bt c #c74242",
"bP c #c7927c",
"bD c #c7927d",
"bm c #c7937d",
"al c #c7f3f8",
"a2 c #c84141",
".1 c #c84242",
".S c #c84343",
"ce c #c8937e",
"#m c #c8947e",
"cc c #c8947f",
"#8 c #c8f3f8",
"aa c #c94242",
".R c #c94343",
".T c #c94444",
"bN c #c9947f",
"cg c #c9957f",
"#Z c #c99580",
"ah c #c9f4f9",
".7 c #ca4343",
".U c #ca4444",
"cp c #ca9580",
"bX c #ca9680",
"#V c #caf4f9",
"a# c #cb4444",
".5 c #cb4545",
"cn c #cb9681",
"#E c #cb9782",
"aB c #cbf4f9",
"aL c #cbf5fa",
".6 c #cc4545",
".X c #cc4646",
"a. c #cc9882",
"b6 c #cc9883",
"#P c #ccf5fa",
".N c #cd4646",
"cr c #cd4747",
"#l c #cd9984",
"aE c #cdf6fa",
"a8 c #cdf6fb",
"bV c #ce4646",
".G c #ce4747",
"#6 c #cef6fb",
".Q c #cf4747",
".L c #cf4848",
"ai c #cff6fb",
"#U c #cff7fb",
".Y c #d04848",
".B c #d04949",
"au c #d0f7fb",
"aC c #d0f7fc",
"cb c #d14848",
".x c #d14949",
".A c #d14a4a",
"aD c #d1f7fc",
"#Q c #d1f8fc",
"a0 c #d24949",
".F c #d24a4a",
"#T c #d2f8fc",
"#W c #d34a4a",
".E c #d34b4b",
"ak c #d3f8fd",
".V c #d44b4b",
".u c #d44c4c",
"#R c #d4f9fd",
".0 c #d54c4c",
".D c #d54d4d",
"#S c #d5f9fd",
"#7 c #d5f9fe",
"bs c #d64c4c",
".C c #d64d4d",
"aj c #d6f9fe",
"#g c #d74d4d",
".v c #d74e4e",
"#h c #d84e4e",
".I c #d84f4f",
".Z c #d94f4f",
".y c #d95050",
".r c #da5050",
"ch c #da5151",
".O c #db5050",
".q c #db5151",
"#a c #dc5151",
".H c #dc5252",
".M c #dd5252",
"ab c #dd5353",
".z c #de5353",
".J c #de5454",
".s c #df5454",
"Qt.#.#Qt.a.#.b.#.c.d.d.d.#.b.dQt.dQt.#.e.e.f.g.#.#.h.i.j.i.j.i.g.fQtQt.b.d.f.f.e.f.f.e.f.h.a.c.k.h.c.#.h.h.c.a.l.m.l.b.n.l.m.o.p",
".l.q.r.s.s.s.s.s.s.s.s.s.s.s.t.u.v.s.s.s.s.s.s.s.s.s.s.s.w.x.y.s.s.s.s.s.s.s.s.s.s.z.c.A.v.s.s.s.s.s.s.s.s.s.s.s.l.B.C.s.s.s.s.t",
".m.q.r.s.s.s.s.s.s.s.s.s.s.s.l.v.D.s.s.s.s.s.s.s.s.s.s.s.n.E.v.s.s.s.s.s.s.s.s.s.s.q.b.F.s.s.s.s.s.s.s.s.s.s.s.s.l.G.q.s.s.s.s.c",
".m.H.I.s.J.z.z.s.s.s.s.s.s.s.t.v.v.s.s.s.s.s.s.s.s.s.s.s.K.L.v.s.s.s.s.s.s.s.s.s.M.L.t.N.O.s.s.s.s.s.s.s.s.s.s.z.t.L.q.s.s.s.s.d",
".P.Q.R.S.T.R.N.U.G.G.V.v.B.W.w.L.X.Y.I.Z.D.Z.D.D.x.v.0.B.b.1.L.r.q.r.E.u.y.q.Z.v.v.U.c.2.Q.r.L.U.G.x.F.C.V.v.H.H.w.N.L.u.v.C.F.c",
".3.x.1.2.W.4.U.1.B.x.u.0.Q.1.P.L.5.6.x.F.V.E.L.6.7.E.F.W.w.8.5.L.L.9#..9.L.D.C.E.v.F.###.G.v.x.R.C.u.F.F.G.F.q#a.k.U.R#.#..2.R.m",
".K#b#c.n.a.d.a.3#b#d.w#e.p.w#b#e.p.l.t.w.t.t.w#d.l.P.b.a.t#e.P.n.KQt.P.t.b.#.P#e#c.m.m.3.b.b.d.c#e.m.t.b.f.g#f.g.f.f.k.d.3.l.n.n",
".t#g#h.s.z.s.s.s.q.M.J.s.s.m#i#j#k#l#l#m#n#k#o#p#i#q#p#r#i#s#t#u#u#v#w#x#y#v#z#A#n#B#C#D#D#E#l#l#F#l.m.Z.I.s.s.s.s.s.s.r.r.H.s.n",
"#b.x.F.s.s.s.s.s.Z.0.z.s.s#d#G#H#H#H#H#H#H#H#H#H#H#H#H#H#H#H#H#I#J#H#H#K#L#M#N#O#P#Q#R#S#S#R#T#U#V#l.l#W.u.s.s.s.s.s.s.s.s.s.s.l",
"#c.x.v.s.s.z.z.s.r.r.z.s.s#X#Y#H#H#H#H#H#H#H#H#H#H#H#H#H#H#H#H#Z#0#H#1#2#3#4#5#6#T#R#7#7#S#T#6#8#9a..P.E.x.s.s.s.s.s.s.s.s.s.z.o",
"#d.N.C#g.Fa#aa.C.u.I.H.Habacad#H#H#H#H#H#H#H#H#H#H#H#H#H#H#H#H#lae#Kafag#9ahai#T#R#7aj#Sak#6al#4amanaoap.2.C.Z.r.H.z.r#h.r.r.Iac",
".P.9.x.C.F##aq.6.6.Q.v.0#haras#H#H#H#H#H#H#H#H#H#H#H#H#H#H#H#H#l#iafagat#Vauak#R#7#7#Rak#6al#4avawax#e.8aq.N.L.E.I.r.u.Y.0.D.F#d",
".a.nayar#X.3.t#b.w.P.P.m#b#X#D#H#H#H#H#H#H#H#H#H#H#H#H#H#H#H#H#lazaAataBaCak#S#7#7#RaDaE#5aF#Maw#H#E#d.l.m.w#car#c#d#e#e.m.t.t.t",
"#b.s.s.s.s.s.s.s.s.s.s.s.saGaH#H#H#H#H#H#H#H#H#H#H#H#H#H#H#K#LaIaJaKaLaC#R#S#7#SakaCaLaMaNaOaw#H#H#l#b.s.s.s.s.s.s.s.s.s.s.s.s#c",
"ao.s.s.s.s.s.s.s.s.s.s.s.saP#E#H#H#H#H#H#H#H#H#H#H#H#H#H#1aQaRaS#G#PaD#R#S#7#Sak#Uah#9aAaTaU#H#H#H#l.p.s.s.s.s.s.s.s.s.s.s.s.sac",
"ac.M.r.H.s.s.s.s.z.M.z.z.zaoaV#H#H#H#H#H#H#H#H#H#H#H#H#1aTaAaWaXax#T#R#R#S#Rakai#8aY#3#2#1#H#H#H#HaZ.m.M.z.z.s.s.s.s.M#h.0.H.sar",
"aca0.2.N.Iab.M.q.Ea1.4a2a3aca4#H#H#H#H#H#H#H#H#H#H#Ha5a6a7aMaL#l#l#R#S#RakaDa8a9aFavaw#K#H#H#H#H#H#v#b.R.7.1.C.M#a.r.Q.2#.a#.V.3",
"b..Gap.G.D.r.r.u.Ub#aq#.#.#X#l#H#H#H#H#H#H#H#H#H#HbabbbcaM#P#Q#l#l#7#SakaC#P#Obd#Maw#H#H#H#H#H#H#Hbe#X.Wb#.U.G.x.x.G.2.9a3.L.N.a",
"#b#X#d.n.c.b.t#c.o#b.b.b.w.ta.#H#H#H#H#H#H#H#H#K#Lav#Nbf#P#T#R#Cbg#7akau#Vbhbcbbba#H#H#H#H#H#H#H#H#G#b.K.n.K#d.m.3.a.n.t#bay.w.a",
"#e.z.H.s.s.s.s.s.H#a.z.s.s.3bi#H#H#H#H#H#H#H#1aQaR#4#5aEaD#R#Sbjbgakauah#9bkblaU#H#H#H#H#H#H#H#H#Hbi#b.F.s.s.s.s.s.s.s.s.s.s.s#c",
"#e.F.B.s.s.s.s.s#h.C#a.s.s.t#x#H#H#H#H#H#H#1aTaAaWah#6#T#R#R#Sasbmai#8aY#3#2#1#H#H#H#H#H#H#H#H#Haw#l#d.E.J.s.s.s.s.s.s.s.s.s.saP",
"ay.v.E.s.s.s.s.H.0.A.H.s.z.m#z#H#H#H#H#Ha5bba7aMaLaCak#R#R#Rak#l#l#5aFavaw#K#H#H#H#H#H#H#H#H#Haw#M#E.P.V.J.s.s.s.s.s.r.v.I.q.y.t",
"#e.L.6a#.2.U#h.6bnbo.N.r.CaGbp#H#H#H#K#L#M#N#O#P#Q#R#S#S#R#T#U#l#laNaOaw#H#H#H#H#H#H#H#H#Hbq#LbraF#l.n.X.Va0bs.C.N.Y.E.Naa.1.x.b",
"#c.E.Y.2.Ubt.C.Gbubv.1.v.0.mbw#H#H#1aQaR#4#5#6#T#R#7#7#S#T#6#8bxbyaTaU#H#H#H#H#H#H#H#H#Ha5bzbA#4#8#l.a.1.Naq.8#h.Q.W.R.8.RbB.4.K",
".lay#Xay.w.n.d.d.K.3.w.K.n.w#ZbCaIbgbDas#xaSbE#rbga4bFa4bGaI#x#rbH#CbIaebJbJbIbKbLbM#lbNbObObPbm#s#DaJ#b.way#b.l.b.c.c.a.3.bQt.c",
".m.F.q.s.s.s.s.s.s.s.s.s.s#cana5a6a7aMaLaCak#S#7#7#Rak#6al#4av#CbQ#H#H#H#H#H#H#H#H#HawavbRbS#PaCakbTaP.s.s.s.s.s.q.M.z.s.s.s.s.3",
".mbt.E.s.s.s.s.s.s.s.s.s.s#dbUbbbcaM#P#Q#R#7#7#7#RaDaE#5aF#Maw#la4#H#H#H#H#H#H#Hbq#2#3#4#8#6#T#R#S#x.m.s.s.s.s.s.G.A#h.s.s.s.s.o",
".a.R.C.s.s.s.s.s.s.s.s.s.s.3#o#Nbf#P#T#R#7#7#7akaCaLaMaNaOaw#HbUas#H#H#H#H#H#Ha5afag#9ah#Uak#S#7#S#i.3.z.M.r.IabbV.x.C.s.s.s.s.p",
".b.9.8.YbsbWaq.Y.r#g.4.G#a.w#E#5aEaD#R#S#7#Sakauah#9aAaTaU#H#HbX#o#H#H#H#H#Ha5aTbYat#VaCak#Saj#7#R#G.P.v.0a#aa.Z.N.2.1.x.L.X.y.m",
".l.W.W.G.Y.9bZa#.0.C.1.S.C.o#l#6#T#R#R#S#Rakai#8aY#3#2#1#H#H#HaI#s#H#H#H#Ha5bbbcaMaLaCak#Saj#7#R#Qb0.l.0.0bt.W.r.F.4.R.v.E.R.0.o",
".lay.p.p#b.l.P#X.p#d.l.t#c#X#lak#R#R#RakaDaE#5aFavaw#K#H#H#H#H#Ab1#H#H#Hb2b3#NbS#PaDak#S#7#S#RaD#P#w.K.n.P.n.a.K.b.#.d#d#d.t.PaP",
"aG.u.J.s.s.s.s.L.5.C.s.s.s#XaI#S#S#R#T#U#Vb4aNaOaw#H#H#H#H#H#Hbx#m#Hbq#Lavbd#5#6#T#R#S#S#Rak#U#VatbI.c.I.z.s.s.s.s.s.s.s.sab.say",
"aP.N.M.s.s.s.sb5b#.F.s.s.saP#n#7#S#T#6#8#9aAaTaU#H#H#H#H#H#H#H#F#la5bzbA#4al#6#T#R#7#S#R#T#6alaYaRb6.c#Wab.s.s.s.s.s.s.s.s.s.say",
".P.X.M.s.s.s.s.5ap#h.s.s.s#bbF#Rak#6al#4am#2#1#H#H#H#H#H#H#H#Hbw#lbbbcatahaiak#R#7#S#RaD#PbS#Nav#L#l.t.E.H.s.s.s.s.z.z.s.s.s.sar",
".###.u.q.Z.5.F.Lap.E.0.C.E.bbC#T#6al#4avaw#K#H#H#H#H#H#H#H#H#Hbp#lbRbS#PaCak#R#S#S#RaD#PaMbcbbaU#KbC#ea#.GbVa#.E.Fbt.S.Z.D.N.x.p",
".3b7.N.I.ubt.6.7.1.6.R.1b#.c#l#P#5aF#Maw#H#H#H#H#H#H#H#H#H#Haw#wb8al#6#T#R#S#S#RakaD#PaMa7a6#1#H#Hb9.h.1btbt.G.B.E.8##.N.N.R.G.n",
".b.n.n.n.c.d.c.a#b#d#e.3.a.dbXataNaOaw#H#H#H#H#H#H#H#H#Hbq#Lbrc.c#aiak#R#7#7#R#Tai#VatcaaT#1#H#H#Ha..e.h.t.l.c.k.k.hQt.h.f.e.h.n",
".K.Y.r.s.s.s.s.s.s.s.s.s.s.obUbAaTaU#H#H#H#H#H#H#H#H#Ha5bzbA#4bOb8ak#Saj#7#R#T#6alaYagbza5#H#H#H#H#l.l.s.s.s.s.s.r.Z.s.s.s.s.say",
".nbtcb.s.s.s.s.s.s.s.s.s.s#Xcc#L#1#H#H#H#H#H#H#H#H#HbabbbcatahbU#l#R#7#S#RaD#Pbf#Nav#L#1#H#H#H#H#H#lac.s.s.s.s.s.L.G.r.s.s.s.sar",
"ay.R.R.s.s.s.s.s.s.s.s.s.saP#l#H#H#H#H#H#H#H#H#H#HawavbRbS#PaCbg#E#S#R#RaD#PaKcdbbb2#K#H#H#H#H#H#Hbiac.s.s.s.s.s#a.Cab.s.s.s.sac",
"#ca3a3.F.A.u.r.z.s.s.s.s.zaPce#H#H#H#H#H#H#H#Hbq#2#3#4#8#6#T#Rcfcg#Rakau#VataAbz#1#H#H#H#H#H#H#H#HbEac.r.r.F.r.s.r.Lch.sabab.saG",
".p.6.1.N.1.W.L.E.X.G.u.v.ZaocicjbOckbgaXclbLcmaVcgbXbX#Ecnco#F#t#l#lcgbX#EcgaHcp#l#lcnb8a4aVb6ccb6bpao.0.Ycqbt.C.V.2bZ#.bZ.N.B#c",
"#d.m#c#c#d.m#e#c#b#b.t.l.P#e#c.w.w#e.pay#b#e#d.paGaG.o.paGaPaPaParaPaoao.payay#X#Xay.oaGaP.o#c#X#car.o.oaParay#e#caraGay.P.3#e#b",
"#e.H.0.Z.Z.O.z.o.v#h.r.M.z.s.s.s.sabab.M.O.t.G.x.x.V.q.s.s.s.s.s.s.s.sar.M.s.s.s.z.z.s.z.q#a.H.r.0.c.x.s.z.M.Mab.z#a.x.Ubt.6.I.l",
"#b.x.x#a.s.s.say.s.s.s.s.s.s.s.s.s.s.s.s.s#e.z.s.s.s.s.s.s.s.s.s.s.s.s.t.uab.s.s.s.s.s.s.s.s.s.s.s.n.H.q.z.s.s.s.s.s.s.s.z.z.s.d",
"b..N.W.I.s.H.0#c.s.s.s.s.s.s.s.s.s.s.s.s.s#d.s.s.s.s.s.s.s.s.s.s.s.s.s#d.F.Y.s.s.s.s.s.s.s.s.s.s.s.n#h.v.M.z.s.s.s.s.s.s.s.s.say",
"aP.Y.1.C#h.x.R#cbs.G.x#h.y.I.I.v.q.H.H.H.z.w.z.z.r.0.B.Y.E.E.u.D.V.q.q.m.Z.v.s.s.s.s.s.s.s.s.s.s.s.3.C.I.v.V.Y.Z.s.s.s.J.s.s.s#c",
".P.v.Xap.G.S.6#da#.W.5.V.C.Y.N.R.Gcr.1.R.G.3.Zab.H.D.F.C.F.v.B.x.uch.r.#.Za#.V.D.Z#h.y.r.I.C.v.z.s.t.0.C.C.Y.F.E.x.E.G.L.z.s.s.p",
".l.K.K.t#e.m.m.l#e.p.p.o#b.oaParaG.b.n.P.b.d.d.KaGaG#e.KQt.P.a.c.e.k.e.e.h.e.d.b.3.o#d.a.a.3#b.t.b.layay.3.3#bay#X#e#d.w.w#b.o#c",
".p.C#g.v.Z.H.s.s.s.s.s.s.s.s.w.r.v.zab.M.M.s.s.s.s.s.s.s.g.q.Z.s.s.s.s.s.z#a.q.H.z.z.m.q.Z.O.q.z.s.s.z.s.s.s.s.Z.3cb#a.z.s.s.saG",
"#Xcr.8.E.s.s.s.s.s.s.s.s.s.s.P.0.x.s.s.s.s.s.s.s.s.s.s.sQt.v.G.s.s.s.s.s.s.s.s.s.s.s#e.u.0.s.s.s.s.s.s.s.s.s.s.TQt.6.s.s.s.s.s.o",
"#capap.N.yab.u.X#.bB.v.Z.z.s#c.x.N.s.s.s.s.s.s.s.s.s.s.s.t.Z.L.s.s.s.s.s.s.s.s.s.s.say.Q.G.s.s.s.s.s.s.s.s.s.s.C.h.7.H.s.s.s.s#d",
"ay.8cs.8.G.L.SaqctcuctbZ.N.x#X.F.R.v.v.Z.Mabch.q.r.M.z.q#e.r.F.s.s.s.s.s.s.s.s.s.s.s#d.x.X.r.I.0.C.z.J.s.J.J.H.D.a.S.Y.M.z.s.s.w",
"#b.1b#.2.L.0.Ra1aqcvcwbZ.F.Y#b.G.R.v.Y.Y.x.Y.Y.x.0.v.H.r#b.q.X.I.0.x.G.X.X.q.q.v.V.u.t.N.2.F.u.G.G.v.y.v.L.G.x.B.m.5.U.H.q.H.A.w",
".o#b#d.o.p#c.o#c.paraPar.p#d.t.P.K.a.3.n.o#X.P.t.P.P.P#e#e#c#b#XaG.o#day#c.t.t.t.w.oaP#e.l#e#e.t.K.nay.tay.w.d.n.m.P.b.b.a.t.l#d",
"#c.s.s.s.s.s.s.P.z.s.s.s.s.s.s.s.s.s.s.s.saG.x.I.s.s.s.s.s.z.H.O.r.H.M#X.qab.z.z.Hab.s.s.z.s.s.s.say.X.M.z.z.z.s.s.y.I.y.q.V.NaG",
".l.s.s.s.s.s.z#b.G.Z.s.s.s.s.s.s.s.s.s.s.saP.x.I.z.s.s.s.s.s.s.s.s.s.sb..Zab.s.s.s.s.s.s.s.s.s.s.sar.W#a.s.s.s.s.s.s.s.s.s.s.s.t",
"cx.Q.s.s.s.s.sb.cy.x.s.s.s.s.s.s.s.s.s.s.sb.cb#a.s.s.s.s.s.s.s.s.s.s.s.m#g.M.s.s.s.s.s.s.s.s.s.s.s.lbtbs.s.s.s.s.s.s.s.s.s.s.say",
"cz.6.Y.E.Z.s.s#db7.9.H.s.s.s.s.s.s.s.s.s.sb..x.Z.q.v.0.v.y.z.H.rch.q.s.f.C.H.s.s.s.s.s.zab.M.M.H.C.ecA.E.B.E.E.L.u.v.C.E.L.Z.q.i",
".h##.Ra#.Rb#.x.hbucBcC.U.R.L.0.C.8.W.6.N.U.l.A.Y.X.R.U.U.G.q.v.x.7.x.LcD.D.F.L.Y.E.r#h.F.G.F.v#h.Y#fcw.U.C.N.8.9cr.E.U.T.8.Z.rcE",
".w.#.i.j.k.e.f.fcFcGcHcIcJcxcx.jcHcEcIcIcKcJcxcL.k.a.ecEcFcMcGcz.ecLcHcNcH.j.i.k.d.g.e.f.icNcz#fczcNcFcIcEcN.j.i.j.jcLcGcGcO.gcL",
".fczcKcPcFcOcGcKcPcQcIcJcJcL.jQt#fcGcMcRcMcIcMcScKcIcRcFcEcGcJcH.icH.h.h.icz#f.hczcNcL.jcDcD.j.gcLcJcJcHcx.icIcDcD.jcDcEcMcI.j#f",
".i.kcJcQcJ.ecLcLcMcScE.icHcDcxcJ.j#fcxcEcOcOcOcKcQcFcFcKcFcMcEcJcEcE.i.a.dczcGcRcMcFcJcIcKcIczcLcEcTcKcRcFcOcQcKcIcJ.icGcMcEQtcz",
".i#f.icUcDcDcJcJcQcVcScHcJcJcGcEcIcGcNcEcG.icNcEcEcOcRcRcPcEcFcGcGcIcL.h.kcJcQcKcGcEcGcMcPcIcIcFcMcTcScIcDcNcMcFcGcMcKcTcUcKcJcJ"};
