/* XPM */
static char *dummy[]={
"64 64 649 2",
"ig c #656565",
"if c #686868",
"ie c #696969",
"ia c #6a6a6a",
"ib c #6b6b6b",
"id c #6c6c6c",
"h7 c #6d6d6d",
"h9 c #6e6e6e",
"h2 c #6f6f6f",
"ic c #707070",
"h1 c #717171",
"h5 c #727272",
"i# c #737373",
"h3 c #747474",
"h6 c #757575",
"h0 c #767676",
"h4 c #777777",
"i. c #787878",
"h8 c #797979",
"hU c #7a7a7a",
"hW c #7b7b7b",
".j c #7c7c7c",
".i c #7d7d7d",
"#m c #7e7e7e",
".g c #7f7f7f",
".f c #808080",
".e c #818181",
".k c #828282",
"hu c #838282",
".h c #838383",
"Qt c #848484",
".# c #858585",
"aU c #864a31",
"hD c #868585",
".c c #868686",
"ax c #874a31",
"av c #874a32",
"aw c #874b32",
".d c #878787",
"aT c #884b32",
"bk c #884b33",
"eT c #884c33",
"bj c #884c34",
"fy c #884d34",
".a c #888888",
"bl c #894c33",
"bi c #894c34",
"e7 c #894d34",
"aS c #894d35",
".b c #898989",
"bG c #8a4d34",
".K c #8a8a8a",
"aR c #8b4e35",
"au c #8b4e36",
".n c #8b8b8b",
"bh c #8c4f37",
"f6 c #8c5037",
".3 c #8c8c8c",
"eS c #8d4f37",
".P c #8d8d8d",
"fP c #8e5138",
".t c #8e8e8e",
"fQ c #8f5239",
".l c #8f8f8f",
"aa c #90543c",
"e6 c #90543d",
"ab c #90553c",
"az c #90553d",
"#e c #90908f",
".w c #909090",
"aW c #91543c",
"cE c #91543d",
"dD c #91553c",
"a# c #91553d",
"#T c #91563d",
".m c #919191",
"de c #92553c",
"dC c #92563d",
"#P c #92563e",
"aV c #92573e",
"cX c #92573f",
"fU c #928078",
"#d c #929292",
"df c #93563d",
"a8 c #93563e",
"a7 c #93573e",
"#S c #93573f",
"dh c #935740",
"a. c #93583f",
"ay c #935840",
"#f c #939393",
"c1 c #94573e",
"gk c #94573f",
"a6 c #94583f",
"#V c #945840",
"#W c #945841",
"bx c #945940",
"#U c #945941",
"fJ c #945c45",
"fT c #948179",
"#b c #949494",
"dW c #955840",
"e9 c #955841",
"aK c #955940",
"#Q c #955941",
"di c #955a41",
"fv c #955a42",
"fK c #955c43",
"fL c #955c44",
"fI c #955e46",
"hE c #956049",
"fW c #957061",
"c0 c #957c73",
"hC c #957e75",
"#O c #959595",
"gi c #96573f",
"gj c #965840",
"aJ c #965941",
"af c #965a41",
"#R c #965a42",
"#j c #965b42",
"#k c #965b43",
"by c #965c44",
"f0 c #965d45",
"fX c #966a57",
"gC c #968279",
"bm c #969493",
"#c c #969696",
"hx c #975942",
"fM c #975a42",
"aG c #975b42",
"#z c #975b43",
"fO c #975b44",
"aH c #975c43",
"ag c #975c44",
"#l c #975c45",
"hF c #975d45",
"do c #975e45",
"fV c #97796e",
".o c #979797",
"gh c #98563f",
"dV c #985b42",
"ex c #985c43",
"#B c #985c44",
"an c #985c45",
"a5 c #985d44",
"aI c #985d45",
"cd c #985e45",
"bY c #985e46",
"fw c #985e47",
"fH c #986048",
"c9 c #986550",
".p c #989898",
"hy c #995c43",
"am c #995d44",
"ah c #995d45",
"#3 c #995d46",
"ar c #995e45",
"bZ c #995e46",
"ec c #995e47",
"aF c #995f46",
"cZ c #995f48",
"fk c #996048",
"bX c #996049",
"ch c #99624b",
"c8 c #99634c",
"d. c #99644f",
"dO c #99786a",
"eC c #998e89",
"bI c #998f8b",
"eD c #99918e",
"aY c #999999",
"gg c #9a5640",
"gJ c #9a5740",
"#Y c #9a5c45",
"et c #9a5d45",
"dv c #9a5e45",
"#1 c #9a5e46",
"dH c #9a5e47",
"ai c #9a5f46",
"#A c #9a5f47",
"cc c #9a5f48",
"cy c #9a6047",
"a4 c #9a6048",
"bW c #9a6148",
"bz c #9a614a",
"cg c #9a644d",
"dp c #9a6650",
"fG c #9a6751",
"eB c #9a847b",
"bn c #9a9998",
"aX c #9a9a9a",
"he c #9b5b44",
"gl c #9b5e45",
"gm c #9b5e46",
"aE c #9b5f46",
"#4 c #9b5f47",
"as c #9b5f48",
"al c #9b6047",
"ak c #9b6048",
"cQ c #9b6049",
"ew c #9b6148",
"aj c #9b6149",
"ff c #9b614a",
"bV c #9b624b",
"ci c #9b634b",
"fp c #9b634c",
"dt c #9b644e",
"fY c #9b6b58",
"ge c #9b6e5c",
"fN c #9b7b6d",
"eq c #9b8c86",
"eE c #9b9694",
"eG c #9b9897",
"eF c #9b9998",
"f1 c #9b9b9b",
"hw c #9c5d46",
"du c #9c5e47",
"d# c #9c5f47",
"#2 c #9c6048",
"cj c #9c6049",
"cJ c #9c6148",
"#Z c #9c6149",
"aB c #9c614a",
"#F c #9c6249",
"bA c #9c624a",
"e8 c #9c624b",
"ce c #9c634a",
"cx c #9c634b",
"fi c #9c644c",
"bU c #9c654c",
"bT c #9c6750",
"eO c #9c6853",
"es c #9c6955",
"dq c #9c7765",
"dz c #9c9c9c",
"gV c #9d5a44",
"gK c #9d6048",
"cl c #9d6149",
"bB c #9d614a",
"aq c #9d6249",
"#D c #9d624a",
"cO c #9d624b",
"#E c #9d634a",
"aC c #9d634b",
"b1 c #9d634c",
"fj c #9d644c",
"cf c #9d664f",
"fZ c #9d6650",
"dI c #9d6e59",
"cu c #9d6f5a",
"dr c #9d725f",
"gr c #9d7667",
"#C c #9d9d9d",
"gI c #9e5640",
"hf c #9e5742",
"da c #9e6049",
"fl c #9e6249",
"cK c #9e624a",
"d1 c #9e624b",
"#5 c #9e634a",
"ao c #9e634b",
"ba c #9e634c",
"b2 c #9e644b",
"#0 c #9e644c",
"eb c #9e644d",
"c4 c #9e6650",
"cw c #9e6750",
"cW c #9e6751",
"fF c #9e705a",
"ds c #9e705b",
"eH c #9e8a82",
"f2 c #9e9997",
"ae c #9e9e9e",
"db c #9f624a",
"at c #9f624b",
"#7 c #9f634b",
"aD c #9f634c",
"cA c #9f644b",
"ap c #9f644c",
"a9 c #9f644d",
"#M c #9f654c",
"#H c #9f654d",
"b0 c #9f654e",
"bw c #9f664e",
"bv c #9f664f",
"dn c #9f806f",
"#8 c #9f9e9d",
"#s c #9f9f9f",
"e# c #a0624b",
"#G c #a0644c",
"cz c #a0654d",
"a0 c #a0654e",
"ck c #a0664d",
"bF c #a0664e",
"bQ c #a0664f",
"d3 c #a06a53",
"dj c #a06c56",
"cv c #a06d57",
"eJ c #a07664",
"e1 c #a07e70",
"d0 c #a09286",
"dJ c #a0a29a",
"gH c #a15642",
"gf c #a15a45",
"dT c #a15e48",
"dX c #a1654d",
"fu c #a1664d",
"#K c #a1664e",
"b# c #a1664f",
"b4 c #a1674e",
"aN c #a1674f",
"d2 c #a16751",
"c5 c #a16951",
"bR c #a16952",
"bS c #a16b56",
"hc c #a16c56",
"fE c #a16c57",
"ft c #a16d55",
"ez c #a16f5a",
"ct c #a17763",
"dk c #a17966",
"d5 c #a17e6f",
"eI c #a18072",
"er c #a18073",
"eA c #a18372",
"eg c #a19386",
"dm c #a1a29a",
"ef c #a1aaa4",
"dK c #a1b3af",
"g4 c #a2614b",
"gT c #a2634c",
"b6 c #a2654e",
"hd c #a2664e",
"ea c #a2664f",
"cI c #a2674e",
"aZ c #a2674f",
"dw c #a26750",
"b3 c #a2684f",
"#J c #a26850",
"#L c #a26951",
"ey c #a26952",
"eK c #a2715c",
"cs c #a27c69",
"eh c #a28070",
"cq c #a28b7c",
"dl c #a29084",
"hz c #a29999",
"ee c #a2d2d6",
"ed c #a2d4d9",
"b9 c #a2e2ea",
"eV c #a36750",
"cH c #a36850",
"cL c #a36851",
"#t c #a36951",
"#i c #a36952",
"cD c #a36953",
"cN c #a36a52",
"cS c #a36b54",
"fq c #a36d57",
"dL c #a3c5c5",
"dS c #a45c47",
"hv c #a45f4a",
"gy c #a4664f",
"bp c #a46751",
"#I c #a46951",
"#g c #a46a52",
"a1 c #a46a53",
"ev c #a46b52",
"#r c #a46b53",
"bP c #a46b54",
"cV c #a46c55",
"bu c #a46c56",
"ek c #a46d56",
"eL c #a46e58",
"ej c #a4715b",
"fD c #a48372",
"cr c #a48574",
"fC c #a4a29a",
"gz c #a55c48",
"fa c #a5664f",
"dE c #a56a52",
"fm c #a56a53",
"bE c #a56b53",
"bC c #a56b54",
"b. c #a56c54",
"el c #a56c55",
"c6 c #a56f58",
"ei c #a57863",
"dZ c #a58676",
"dB c #a66a53",
"gU c #a66b53",
"cM c #a66b55",
"aL c #a66c54",
"f. c #a66c55",
"bo c #a66d55",
"bq c #a66f59",
"ca c #a6725c",
"c. c #a67b68",
"d4 c #a69183",
"dN c #a6aca6",
"dM c #a6bcba",
"gG c #a75543",
"hA c #a75846",
"en c #a76752",
"#p c #a76851",
"#q c #a76953",
"go c #a76c55",
"eU c #a76d55",
"b5 c #a76d56",
"#h c #a76e56",
"aO c #a76e57",
"fr c #a7735e",
"fs c #a77560",
"fB c #a7978a",
"gW c #a85444",
"g3 c #a85946",
"dR c #a85b49",
"gS c #a8634e",
"c3 c #a86e56",
"dg c #a86e57",
"bb c #a86f57",
"bg c #a86f58",
"cR c #a87159",
"cb c #a8725b",
"dY c #a87a65",
"em c #a96d56",
"f5 c #a96e56",
"cG c #a96f57",
"be c #a96f58",
"bf c #a97058",
"a2 c #a97059",
"bM c #a9705a",
"dG c #a9715a",
"eM c #a9725b",
"hg c #aa5443",
"fh c #aa7058",
"eu c #aa7059",
"dx c #aa705a",
"#6 c #aa7159",
"a3 c #aa715a",
"f# c #aa725a",
"fS c #aa7966",
"fe c #ab5949",
"dQ c #ab5b4a",
"eo c #ab604d",
"dc c #ab6f59",
"#v c #ab725b",
"c7 c #ab735d",
"bt c #ab755f",
"fg c #ac715a",
"aP c #ac735c",
"cY c #ac735d",
"bd c #ac745d",
"fz c #ac7964",
"g2 c #ad5646",
"c2 c #ad725d",
"cU c #ad745c",
"#u c #ad745d",
"bN c #ad745e",
"dy c #ad755d",
"bO c #ad755e",
"fA c #ad8572",
"cT c #ae755d",
"aQ c #ae755e",
"dA c #ae765f",
"f4 c #ae7660",
"c# c #ae806c",
"gF c #af5646",
"hb c #af6351",
"f7 c #af765f",
"aM c #af7760",
"br c #af7b65",
"bc c #b07760",
"dF c #b07862",
"dP c #b15c4d",
"cF c #b17963",
"dd c #b17a63",
"bs c #b17d67",
"gE c #b24f43",
"hB c #b25648",
"gA c #b25a4b",
"eN c #b27a64",
"bD c #b27b64",
"g7 c #b36051",
"fR c #b37c67",
"gn c #b44d44",
"hh c #b45346",
"hl c #b4594b",
"hq c #b46253",
"hQ c #b53333",
"gX c #b55849",
"gR c #b56655",
"gx c #b57a65",
"g1 c #b65548",
"gP c #b66454",
"hS c #b73434",
"hP c #b73535",
"hY c #b73636",
"g# c #b75a4c",
"gd c #b76152",
"f8 c #b77c67",
"hX c #b83535",
"hT c #b83636",
"ha c #b85c4e",
"eR c #b86a5a",
"fx c #b9423e",
"fo c #b94942",
"hO c #ba3737",
"gD c #ba4a44",
"d6 c #bb5e51",
"f9 c #bb7a66",
"hL c #bc3939",
"hZ c #bc3a3a",
"dU c #bc4641",
"d7 c #bc564c",
"gw c #bc7f69",
"ht c #bd3a3a",
"hk c #bd554a",
"gc c #bd5d50",
"g. c #bd695a",
"hs c #be3b3b",
"gt c #be4c45",
"hi c #be5148",
"gY c #be564b",
"gB c #be5c4f",
"e5 c #be5d50",
"gN c #be6d5e",
"aA c #bf3b3b",
"e. c #bf564c",
"gv c #bf7866",
"hn c #c03c3c",
"hV c #c13c3c",
"hM c #c13d3d",
"cB c #c13f3e",
"e0 c #c16054",
"## c #c23d3d",
"#. c #c23e3e",
"cP c #c23f3e",
"hJ c #c33e3e",
".9 c #c33f3f",
"gM c #c34744",
"g6 c #c35850",
"gu c #c36b5d",
".2 c #c43f3f",
"ep c #c44040",
"hp c #c44744",
"g0 c #c4554c",
"gO c #c45b51",
"hR c #c53f3f",
".8 c #c54040",
"hr c #c54241",
"d9 c #c5524b",
"gb c #c5594f",
".4 c #c64040",
".W c #c64141",
"d8 c #c6544d",
"gq c #c65e54",
"cC c #c74141",
"e2 c #c74242",
"hj c #c7514b",
"gp c #c75e55",
"gQ c #c76157",
".1 c #c84242",
".S c #c84343",
"g5 c #c8534e",
"ad c #c94242",
".R c #c94343",
".T c #c94444",
"gZ c #c9554d",
"f3 c #c96157",
".7 c #ca4343",
".U c #ca4444",
"e4 c #ca6d61",
"ac c #cb4444",
".5 c #cb4545",
"ho c #cb4645",
".6 c #cc4545",
".X c #cc4646",
"gs c #cc4746",
"eQ c #cc6c61",
".N c #cd4646",
"hN c #cd4747",
"h# c #cd534e",
"ga c #cd5650",
"hm c #ce4646",
".G c #ce4747",
"h. c #ce4848",
".Q c #cf4747",
".L c #cf4848",
"g9 c #cf4948",
".Y c #d04848",
".B c #d04949",
"fb c #d05953",
"hI c #d14848",
".x c #d14949",
".A c #d14a4a",
"eW c #d15954",
"eZ c #d15a54",
"cn c #d24949",
".F c #d24a4a",
"g8 c #d24b4b",
"cm c #d24e4c",
"bH c #d25954",
"gL c #d34a4a",
".E c #d34b4b",
"#X c #d34c4c",
"hH c #d35753",
".V c #d44b4b",
".u c #d44c4c",
".0 c #d54c4c",
".D c #d54d4d",
"eX c #d55854",
"fn c #d64c4c",
".C c #d64d4d",
"cp c #d65351",
"#n c #d74d4d",
".v c #d74e4e",
"#9 c #d7504f",
"#o c #d84e4e",
".I c #d84f4f",
"fd c #d85653",
".Z c #d94f4f",
".y c #d95050",
"#x c #d95151",
"co c #d95352",
"eY c #d95654",
".r c #da5050",
"hK c #da5151",
"eP c #da6761",
".O c #db5050",
".q c #db5151",
"b8 c #db5252",
"hG c #db5554",
"#a c #dc5151",
".H c #dc5252",
"#w c #dc5353",
"fc c #dc5554",
"e3 c #dc5e5b",
".M c #dd5252",
"#y c #dd5353",
"#N c #dd5454",
"b7 c #dd5655",
"bJ c #dd5c5a",
".z c #de5353",
".J c #de5454",
"bL c #de5554",
"bK c #de5857",
".s c #df5454",
"Qt.#.#Qt.a.#.b.#.c.d.d.d.#.b.dQt.dQt.#.e.e.f.g.#.#.h.i.j.i.j.i.g.fQtQt.b.d.f.f.e.f.f.e.f.h.a.c.k.h.c.#.h.h.c.a.l.m.l.b.n.l.m.o.p",
".l.q.r.s.s.s.s.s.s.s.s.s.s.s.t.u.v.s.s.s.s.s.s.s.s.s.s.s.w.x.y.s.s.s.s.s.s.s.s.s.s.z.c.A.v.s.s.s.s.s.s.s.s.s.s.s.l.B.C.s.s.s.s.t",
".m.q.r.s.s.s.s.s.s.s.s.s.s.s.l.v.D.s.s.s.s.s.s.s.s.s.s.s.n.E.v.s.s.s.s.s.s.s.s.s.s.q.b.F.s.s.s.s.s.s.s.s.s.s.s.s.l.G.q.s.s.s.s.c",
".m.H.I.s.J.z.z.s.s.s.s.s.s.s.t.v.v.s.s.s.s.s.s.s.s.s.s.s.K.L.v.s.s.s.s.s.s.s.s.s.M.L.t.N.O.s.s.s.s.s.s.s.s.s.s.z.t.L.q.s.s.s.s.d",
".P.Q.R.S.T.R.N.U.G.G.V.v.B.W.w.L.X.Y.I.Z.D.Z.D.D.x.v.0.B.b.1.L.r.q.r.E.u.y.q.Z.v.v.U.c.2.Q.r.L.U.G.x.F.C.V.v.H.H.w.N.L.u.v.C.F.c",
".3.x.1.2.W.4.U.1.B.x.u.0.Q.1.P.L.5.6.x.F.V.E.L.6.7.E.F.W.w.8.5.L.L.9#..9.L.D.C.E.v.F.###.G.v.x.R.C.u.F.F.G.F.q#a.k.U.R#.#..2.R.m",
".K#b#c.n.a.d.a.3#b#d#e#f.p#g#h#i.p.l.t.w.t.t.w#d.l.P.b.a.t#f.P.n.KQt.P.t.b.#.P#f#c.m.m.3.b.b.d.c#j#k#l.b.f.g#m.g.f.f.k.d.3.l.n.n",
".t#n#o.s.z.s.s.t.q.M.J.s#p#q#r#s#t#u#v#i.s#b#w#x.I.H.M#y.s.s.s.s.s#y.H.K.M.H.z.s.s.s.s.s.s.s#z#j#A#s#B.Z.I.s.s.s.s.s.s.r.r.H.s.n",
"#b.x.F.s.s.s.s#C.Z.0.z.s#D#E#F#G#H#I#i#J#K#L#M.Z.Z.s.s.s.s#N.s.s.s.s.s#O.r.u.q.s.s.s.s.s#P#Q#R#S#T#U#V#W#X.s.s.s.s.s.s.s.s.s.s.l",
"#c.x.v.s.s.z.z#s.r.r.z#Y#Z#0#1#2#3#4#Z#H#K#1#3#5#6#7#B#B.s.s.s.s.s.s.s#8#9.V.r.s.s.s#T#Ta.a##T#Paaab#Q#R.x.s.s.s.s.s.s.s.s.s.z.o",
"#d.N.C#n.Facadae.u.I.Hafagahaiajakalam#R#Banaoapaq#Z#saf#Rar#Aasat#0.Z#s.V.F.I.qauavavawax#T#Pay#V#Sa#azaa.C.Z.r.H.z.r#o.r.r.I#s",
".P.9.x.C.F##aA#d.6.Qar#saBaCaDaE#AaFaG#R#RaHaIaJaJaKaK#3#ZaLaMaN#5#0#iaOaPaQ#i#t#taRaSaTaxaUav#PaVazab#TaW.N.L.E.I.r.u.Y.0.D.F#d",
".a.n#OaXaY.3.t#b.wahai#ZaZa0a1a2a3a0am#laIa4a5a6a7a8#Raka9aNb.#Eb#aCbabbbcbdbebfbfbgbeaN#Dbhbiaxbjbkblawavaxbmbn#c#d#f#f.m.t.t.t",
"#b.s.s.s.s.s.s.s.s.s.s.sbobpbqbrbsbtbubvbwaC#AaI#jbxbybzaCaCaobA#4bB#J#EaNbC#vbDaP#s#hbE#ga0#AaibF#gb.bGbkawavbHbIbJbKbL.s.s.s#c",
"#C.s.s.s.s.s.s.s.s.s.s.s.s.sbMbNbObPbQbRbSbTbUbVbWbXbYbZb0b1baaCb2ap#Kb3b4bQ#HapaoaqbBapb5aLaN#5#0a1#6beaoakak#1#0b6bf#ub7.s.s#s",
"#s.M.r.H.s.s.s.s.zb8.z.z.z.HaXb9c.c#cacba2bQ#DcccdcecfcgchcibaaNbC#haN#0aoal#Zcjaoaoaoak#2ao#J#gaNaoapckclakclcjcjak#saNcm.H.saX",
"#scn.2.N.I#wcocp.Eb.#L#HaN#H#sb9b9b9b9cqcrcsctcucvcwcxcy#BalaobEb5aNaN#t#Kaoal#4aFah#Aaob#czapapap#JcAap#Dalaram#3#3#4#DcBac.V.3",
"ae.GcC.G.D.r.r.u#Z#Aao#s#HapcDbCbCb9b9b9b9b9b9b9b9b9cE#V#B#Z#haQcFcGcHcIb##F#2cJ#DaCcK#A#1#1ai#4#3#AaCcLcMb.cN#4#A#4cOakcP.L.N.a",
"#baY#d.n.c.b.t#ccQaH#Rai#E#icRcSbQcTcUb5cVcWb9b9aa#PaI#3#Qa.cXa0#vcYcUa2#g#7aEbZcjbA#2#ZaBcQbZbZamarcZcy#0#gbCcLaobB#7c0#b#O.w.a",
"#f.z.H.s.s.s.s#Aas#Ra6c1af#Zaoaq#Kc2cU#uc3c4cJaCaIakbZ#B#R#P#T#Qbxb#c5c6c7a2#0bVc8c9d.ci#Zakaiai#AcQd##1dadbdcddb5#tcz.s.s.s.s#c",
"#f.F.B.s.s.saBap#DaiaK#Sdedf#QaK#Zcj#ZaocHa9clbFdgb5aO#Q#kakbZaydhdi#Uag#Adjdkdldmdnaoahdodpdqdrdsdtdu#2dvakdwdxdyaQ#I.s.s.s.sdz",
"#O.v.E.s.s#raPdAdB#2#4#2#SdCdDa8aG#zb5dEaocl#I#tapba#t#v#udFdGaI#A#K#IdH#j#4cKaD#g#i#KdIdJdKdLdMdNdOdPdQdRdSdT#1#4#ZcJ.v.I.q.y.t",
"#f.L.6acdUaC#saPbCaqaZcOahdV#SaKc1dWakbFbE#ta1apcJ#s#0dXczaL#uaMbddYdZd0d1cjak#4aD#ib.#g#td2d3ctd4d5d6d7d8d9e.akaF#1.E.Nad.1.x.b",
"#c.E.Y.2be#Ke##Aar#1bB#2eaapak#4diah#B#3cOap#Kapao#Aaral#5bEcL#K#Deb#LbF#takaIecedeeefegeheiejekelbgaPdgemeneocz#saC.R.8.Rep.4.K",
".l#OaY#Oeqeres#Zdv#Bet#Aclczeu#ievak#A#D#Dal#4cJ#ZcJewalex#B#FalbZ#1#BbZ#4b2b#eyezeAeBeCeDeEeFeGeHeIeJeKeLeMeN#ubCeO.c.a.3.bQt.c",
".m.F.q.sbKePeQeReSaveT#F#Z#2a9#KbebgeUeVdXakaIaralcl#2bWbZaKafaG#z#BahcKb.czaCaobAba#JaPb5aL#teWeXeYbL.J.J.JeZe0e1.M.z.s.s.s.s.3",
".me2.Ee3e4e5e6ay#1bGe7e7aN#2#3aiczbC#JaZaZdwcKalaiaje8baecaGe9af#Ral#tf.bFcja0czaBcJao#ha3f#bPf.cLfa#Jfbfc.s.s.s.m.A#o.s.s.s.s.o",
".a.R.Cfdfe#V#5#sagex#zblbGawbkffbZbZ#Ea9aN#IfgfhaZ#0fidoaJ#Randv#zara9fjfka4fl#Z#Da9a9apaNaNfm#Jcz#J#saZaZ.r.I#y.l.x.C.s.s.s.s.p",
".b.9.8.Yfnfobx#1#A#AaD#ZavavaTeTawfp#Eb##ifqfrfsfta1fuam#ja5ai#AagambWfvdi#zanbYfwaFexamcl#i#4#4#D#5#KbF.0acad.Z.a.2.1.x.L.X.y.m",
".l.W.W.G.Y.9fx#B#zag#U#Tdi#kcOaTaxaxfyfzfAfBfCfDfm#KebfEfFfGfH#Aa5aKaGaJfIfJfKfLaG#R#kaIaHfMexaiaibZdHao.0e2.W.r.b.4.R.v.E.R.0.o",
".l#O.p.p#b.l.PfN#Udi#V#UfOaIaga5aIbiaRfPfQ#vdgdgfRfSfTfUfVfWfXfYeOfZfpa5dWa7dhfvf0bYaKc1#QaHambZanakczaL.P.n.a.K.b.#.d#d#d.t.Pdz",
"f1.u.J.s.s.s.sf2#Zdi#U#R#k#Bara0dwf3f4f5aRe7f6bOf7#uf8f9g.g#e.gagbgcgdgegfggghgigjgkbxdi#j#jglgm#4#A#A.I.z.s.s.s.s.s.s.s.s#y.s#O",
"dz.N.M.s.s.s.s#CgndH#B#Agoba#2gpgqcj#ZaI#RgrgsgtgugvgwgxbecHczgygzgAgBgCgDgEgFgGgHgIgJ#R#BbZ#2gK#ZcKclgL#y.s.s.s.s.s.s.s.s.s.s#O",
".P.X.M.s.s.s.s#fgMgNbeaZaMgpgO#zfv#kaHgP.J.w.x.G.s.sbLbLgQgRgSgTgUaLczbAgVgWgXgYgZg0g1g2g3#zaIg4aoaZaZ.E.H.s.s.s.s.z.z.s.s.s.saX",
".###.u.q.Z.5.F.ccCg5g6aD#Z#saHasaIg7g8.r.q.c.Q.W.N.x.O.r.v.Vg9h.h#hahbhchdak#B#Bhehfhghhhihjhkhl#DaZ.qac.Ghmac.E.Fe2.S.Z.D.N.x.p",
".3hn.N.I.ue2.6Qt.1hohp#W#QfOahhqhr##.4.A.v.#.Yhsht#..Y.Ne2#..2##.5.I.Hhu.A.R.LhvhwhxagexhyhzhAhB#BbB.H.1e2e2.G.B.E.8##.N.N.R.G.n",
".b.n.n.n.c.d.c.a#b#dhCc9bv#BhD.d.d.3#O#b.t.a.a.w.P.d.d.a.l#c#b.n.b.l.P.#.#.h.K.w.K.c.m.PhEhFah#3ak.3.e.h.t.l.c.k.k.hQt.h.f.e.h.n",
".K.Y.r.s.s.s.s.s.s.shGhH.s.s#c.u.7.H.s.s.s.s.s.s.s.z.z.s#b.Z.0.z.s.s.s.s.s.s.s.s.s.zaXb9b9b9b9b9b9b9b9b9b9b9b9b9.n.Z.s.s.s.s.s#O",
".ne2hI.s.s.s.s.s.s.s.s.s.s.s#O.7.W.r.s.s.s.s.s.s.s.s.s.saY.QhJ.r.s.s.s.s.s.s.s.s.s.s#sb9b9b9b9b9b9b9b9b9b9b9b9b9f1.G.r.s.s.s.saX",
"#O.R.R.s.s.s.s.s.s.s.s.s.s.sf1adaA.E.s.s.s.s.s.s.s.s.s.sdz.6##.r.s.s.s.s.s.s.s.s.s.s#sb9b9b9b9b9b9b9b9b9b9b9b9b9#s.C#y.s.s.s.s#s",
"#chJhJ.F.A.u.r.z.s.s.s.s.z.Hf1.B#..1.r.r.z.s.M#a.r.C.Z.M.p.N.8.C.x.u.r.Z.y.u.0.D.M.M#sb9b9b9b9b9b9b9b9b9b9b9b9b9#s.LhK.s#y#y.sf1",
".p.6.1.N.1.W.L.E.X.G.u.v.Z.F#C####hs.0.x.C.Y.F.6.8hLhM#n.p.E.8.E.R.G.v.C.r.L.8.6.C.Cdzb9b9b9b9b9b9b9b9b9b9b9b9b9#C.2ht#.ht.N.B#c",
"#d.m#c#c#d.m#f#c#b#b.t.l.P#f#c.w.w#f.p#O#b#f#d.pf1f1.o.pf1dzdzdzaXdz#C#C.p#O#OaYaY#O.of1dz.o#caY#caX.o.odzaX#O#f#caXf1#O.P.3#f#b",
"#f.H.0.Z.Z.O.z.ob9b9b9b9b9b9b9b9b9b9b9b9b9.t.G.x.x.V.q.s.s.s.s.s.s.s.saX.M.s.s.s.z.z.s.z.q#a.H.r.0.c.x.s.z.M.M#y.z#a.x.Ue2.6.I.l",
"#b.x.x#a.s.s.s#Ob9b9b9b9b9b9b9b9b9b9b9b9b9#f.z.s.s.s.s.s.s.s.s.s.s.s.s.t.u#y.s.s.s.s.s.s.s.s.s.s.s.n.H.q.z.s.s.s.s.s.s.s.z.z.s.d",
"ae.N.W.I.s.H.0#cb9b9b9b9b9b9b9b9b9b9b9b9b9#d.s.s.s.s.s.s.s.s.s.s.s.s.s#d.F.Y.s.s.s.s.s.s.s.s.s.s.s.n#o.v.M.z.s.s.s.s.s.s.s.s.s#O",
"dz.Y.1.C#o.x.R#cb9b9b9b9b9b9b9b9b9b9b9b9b9.w.z.z.r.0.B.Y.E.E.u.D.V.q.q.m.Z.v.s.s.s.s.s.s.s.s.s.s.s.3.C.I.v.V.Y.Z.s.s.s.J.s.s.s#c",
".P.v.XcC.G.S.6#db9b9b9b9b9b9b9b9b9b9b9b9b9.3.Z#y.H.D.F.C.F.v.B.x.uhK.r.#.Zac.V.D.Z#o.y.r.I.C.v.z.s.t.0.C.C.Y.F.E.x.E.G.L.z.s.s.p",
".l.K.K.t#f.m.m.l#f.p.p.o#b.odzb9b9b9b9b9b9.d.d.Kf1f1#f.KQt.P.a.c.e.k.e.e.h.e.d.b.3.o#d.a.a.3#b.t.b.l#O#O.3.3#b#OaY#f#d.w.w#b.o#c",
".p.C#n.v.Z.H.s.s.s.s.s.s.s.s.wb9b9b9b9b9b9b9b9b9b9b9b9b9.g.q.Z.s.s.s.s.s.z#a.q.H.z.z.m.q.Z.O.qb9b9b9b9b9b9b9b9b9.3hI#a.z.s.s.sf1",
"aYhN.8.E.s.s.s.s.s.s.s.s.s.s.Pb9b9b9b9b9b9b9b9b9b9b9b9b9Qt.v.G.s.s.s.s.s.s.s.s.s.s.s#f.u.0.s.sb9b9b9b9b9b9b9b9b9Qt.6.s.s.s.s.s.o",
"#ccCcC.N.y#y.u.X#.ep.v.Z.z.s#cb9b9b9b9b9b9b9b9b9b9b9b9b9.t.Z.L.s.s.s.s.s.s.s.s.s.s.s#O.Q.G.s.s.sb9b9b9b9b9b9b9b9.h.7.H.s.s.s.s#d",
"#O.8hO.8.G.L.SaAhPhQhPht.N.xaYb9b9b9b9b9b9b9b9b9b9b9b9b9#f.r.F.s.s.s.s.s.s.s.s.s.s.s#d.x.X.r.I.0.C.z.J.sb9b9b9b9.a.S.Y.M.z.s.s.w",
"#b.1hM.2.L.0.RhRaAhShTht.F.Y#bb9b9b9b9b9b9b9b9b9b9b9b9b9#b.q.X.I.0.x.G.X.X.q.q.v.V.u.t.N.2.F.u.G.G.v.y.v.Lb9b9b9.m.5.U.H.q.H.A.w",
".o#b#d.o.p#c.o#c.paXdzaX.p#d.t.P.K.a.3.n.oaY.P.t.P.P.P#f#f#c#baYf1.o#d#O#c.t.t.t.w.odz#f.l#f#f.t.K.n#O.t#O.w.d.n.m.P.b.b.a.t.l#d",
"#c.s.s.s.s.s.s.P.z.s.s.s.s.s.s.s.s.s.s.s.sf1.x.I.s.s.s.s.s.z.H.O.r.H.MaY.q#y.z.z.H#y.s.s.z.s.s.s.s#O.X.M.z.z.z.s.s.y.I.y.q.V.Nf1",
".l.s.s.s.s.s.z#b.G.Z.s.s.s.s.s.s.s.s.s.s.sdz.x.I.z.s.s.s.s.s.s.s.s.s.sae.Z#y.s.s.s.s.s.s.s.s.s.s.saX.W#a.s.s.s.s.s.s.s.s.s.s.s.t",
"hU.Q.s.s.s.s.saehV.x.s.s.s.s.s.s.s.s.s.s.saehI#a.s.s.s.s.s.s.s.s.s.s.s.m#n.M.s.s.s.s.s.s.s.s.s.s.s.le2fn.s.s.s.s.s.s.s.s.s.s.s#O",
"hW.6.Y.E.Z.s.s#dhn.9.H.s.s.s.s.s.s.s.s.s.sae.x.Z.q.v.0.v.y.z.H.rhK.q.s.f.C.H.s.s.s.s.s.z#y.M.M.H.C.ehX.E.B.E.E.L.u.v.C.E.L.Z.q.i",
".h##.Rac.RhM.x.hhshYhZ.U.R.L.0.C.8.W.6.N.U.l.A.Y.X.R.U.U.G.q.v.x.7.x.Lh0.D.F.L.Y.E.r#o.F.G.F.v#o.Y#mhT.U.C.N.8.9hN.E.U.T.8.Z.rh1",
".w.#.i.j.k.e.f.fh2h3h4h5h6hUhU.jh4h1h5h5h7h6hUh8.k.a.eh1h2h9h3hW.eh8h4i.h4.j.i.k.d.g.e.f.ii.hW#mhWi.h2h5h1i..j.i.j.jh8h3h3i#.gh8",
".fhWh7iah2i#h3h7iaibh5h6h6h8.jQt#mh3h9ich9h5h9idh7h5ich2h1h3h6h4.ih4.h.h.ihW#m.hhWi.h8.jh0h0.j.gh8h6h6h4hU.ih5h0h0.jh0h1h9h5.j#m",
".i.kh6ibh6.eh8h8h9idh1.ih4h0hUh6.j#mhUh1i#i#i#h7ibh2h2h7h2h9h1h6h1h1.i.a.dhWh3ich9h2h6h5h7h5hWh8h1ieh7ich2i#ibh7h5h6.ih3h9h1QthW",
".i#m.iifh0h0h6h6ibigidh4h6h6h3h1h5h3i.h1h3.ii.h1h1i#iciciah1h2h3h3h5h8.h.kh6ibh7h3h1h3h9iah5h5h2h9ieidh5h0i.h9h2h3h9h7ieifh7h6h6"};
