/* XPM */
static char *dummy[]={
"64 64 616 2",
"#v c #020202",
"#u c #040404",
"#F c #050202",
"aF c #060606",
"aR c #070303",
"bP c #080303",
"aE c #080808",
"#d c #090303",
"ad c #0a0404",
"aG c #0a0a0a",
"#S c #0b0404",
"#w c #0b0b0b",
"#T c #0c0505",
"df c #0c0c0c",
"aI c #0d0d0d",
"aq c #0e0505",
"ef c #0e0e0e",
"au c #0f0505",
"#9 c #0f0606",
"aH c #0f0f0f",
"ak c #100505",
"#R c #100606",
"gZ c #101010",
"be c #110606",
"dS c #110707",
"fF c #111111",
"ah c #120606",
"ae c #120707",
"aL c #121212",
"#E c #130707",
"c8 c #131313",
"by c #140707",
"b. c #140808",
"f5 c #141414",
"#6 c #150808",
"hj c #151515",
"fk c #160707",
"#7 c #160808",
"c6 c #161616",
"#c c #170808",
"f8 c #170909",
"gY c #171717",
"av c #180808",
"a9 c #180909",
"eh c #181818",
"e4 c #190808",
"#8 c #190909",
"bC c #190a0a",
"db c #191919",
"eM c #1a0808",
"cN c #1a0909",
"b# c #1a0a0a",
"dg c #1a1a1a",
"#e c #1b0909",
"#G c #1b0a0a",
"fB c #1b1b1b",
"hc c #1c0a0a",
"a8 c #1c0b0b",
"do c #1c1c1c",
"hg c #1d0a0a",
"#Q c #1d0b0b",
"#t c #1d1d1d",
"ck c #1e0a0a",
"bp c #1e0b0b",
"g4 c #1e1e1e",
"cn c #1f0a0a",
"ac c #1f0b0b",
"ex c #200a0a",
"al c #200b0b",
"bG c #200c0c",
"aD c #202020",
"at c #210c0c",
"bI c #210d0d",
"dc c #212121",
"dP c #220c0c",
"#U c #220d0d",
"dl c #222222",
"fl c #230b0b",
"dt c #230d0d",
"dh c #232323",
"ew c #240c0c",
"eg c #240d0d",
"fE c #240e0e",
"dj c #242424",
"co c #250d0d",
"aQ c #250e0e",
"g1 c #252525",
"ay c #260d0d",
"bd c #260e0e",
"cd c #262626",
"eL c #270e0e",
"gV c #280d0d",
"gp c #280e0e",
"d0 c #280f0f",
"aJ c #282828",
"aj c #290d0d",
"bo c #290f0f",
"ax c #2a0d0d",
"eb c #2a0f0f",
"dZ c #2a1010",
"aM c #2a2a2a",
"dN c #2b0f0f",
"c5 c #2b2b2b",
"b0 c #2c0e0e",
"#1 c #2c1010",
"dV c #2c2c2c",
"bi c #2d1111",
"dp c #2d2d2d",
"ai c #2e0f0f",
"cz c #2e1010",
"dL c #2e1111",
"g0 c #2e2e2e",
"eN c #2f0f0f",
"gG c #2f1010",
"aZ c #2f1212",
"dd c #2f2f2f",
"eK c #301010",
"ar c #301111",
"cb c #301212",
"fy c #303030",
"cV c #311111",
"bl c #311212",
"eo c #313131",
"eD c #321313",
"ei c #331313",
"c1 c #341111",
"gv c #341313",
"g# c #341414",
"ba c #343434",
"f1 c #351414",
"gq c #371111",
"bL c #371414",
"dq c #373737",
"bR c #391515",
"gJ c #3a1313",
"aU c #3a1616",
"b9 c #3b1313",
"cJ c #3b1414",
"cF c #3b1515",
"gi c #3b1616",
"gK c #3c1515",
"bg c #3c1717",
"c9 c #3c3c3c",
"b8 c #3d1414",
"aS c #3d1717",
"aK c #3d3d3d",
"cC c #3e1313",
"hf c #3e1515",
"hr c #3e1616",
"dv c #3e1717",
"dm c #3e3e3e",
"gS c #3f1414",
"c0 c #3f1515",
"eC c #3f1616",
"b5 c #3f1717",
"#5 c #3f1818",
".3 c #401717",
"bx c #401818",
"bk c #404040",
"fm c #411616",
"fG c #411818",
"fv c #414141",
"et c #421414",
"ep c #421717",
"#2 c #421919",
"di c #424242",
"bK c #431818",
"aY c #431919",
"cS c #441717",
"bU c #441919",
"#D c #441a1a",
"cq c #451a1a",
"cl c #454545",
"cp c #461a1a",
"cH c #471a1a",
"d1 c #471b1b",
"gm c #481919",
"gu c #481a1a",
"bV c #481b1b",
"bS c #484848",
"eB c #491818",
"ea c #491b1b",
"fK c #491c1c",
"fL c #4a1c1c",
"dD c #4a4a4a",
"ap c #4c1a1a",
"dW c #4c1b1b",
"ha c #4c1d1d",
"cw c #4d1818",
"a0 c #4d1d1d",
"eZ c #4d4d4d",
"hv c #4e1d1d",
"go c #4f1919",
"e5 c #4f1b1b",
"bh c #4f1e1e",
"gw c #4f4f4f",
"aw c #501a1a",
"fI c #501e1e",
"fx c #505050",
"fJ c #511f1f",
"ee c #521f1f",
"bJ c #525252",
"c# c #531e1e",
"bD c #531f1f",
"bq c #542020",
"de c #545454",
"eJ c #551b1b",
"ch c #551e1e",
"e3 c #561d1d",
"dI c #562020",
"ca c #572020",
"fO c #572121",
"cT c #575757",
"cR c #581e1e",
"cG c #582020",
"bO c #582121",
"#x c #595959",
"cE c #5a1d1d",
"hm c #5a2222",
"fu c #5a5a5a",
"bQ c #5b2222",
"cZ c #5c2121",
"bM c #5c2222",
"fR c #5c2323",
".4 c #5d2222",
"c7 c #5d5d5d",
"cW c #5e2121",
"#0 c #5e2323",
"aO c #5e5e5e",
"cv c #5f2323",
"fw c #5f5f5f",
"c. c #602020",
"d# c #606060",
"as c #612323",
"cr c #612424",
"a7 c #612525",
"fC c #616161",
"cK c #622222",
"eE c #622424",
"gH c #626262",
"gr c #632222",
"a4 c #632525",
"g3 c #636363",
"ej c #642626",
"c2 c #652020",
"ag c #652626",
"g2 c #656565",
"gA c #662424",
"aV c #662727",
"a2 c #666666",
"#H c #676767",
"#s c #686868",
"es c #692626",
"bA c #692727",
"bn c #692828",
"az c #696969",
"f6 c #6a2525",
"dG c #6a2828",
"eS c #6a6a6a",
"cO c #6b2525",
"ce c #6b2626",
"a5 c #6b2828",
"a. c #6b6b6b",
"gz c #6c2727",
"#V c #6c6c6c",
"fV c #6d2929",
"d3 c #6d6d6d",
"gt c #6e2525",
"bu c #6e6e6e",
"dU c #6f2a2a",
"ft c #6f6f6f",
"fn c #702222",
"bF c #702929",
"g7 c #702a2a",
"hL c #707070",
"fU c #712a2a",
"dn c #717171",
"hu c #722b2b",
"dk c #727272",
"gM c #732626",
"fA c #737373",
"#b c #742727",
"#P c #742c2c",
"hJ c #747474",
".2 c #752b2b",
"hK c #757575",
"cL c #762a2a",
"fg c #767676",
"bB c #772c2c",
"fD c #772d2d",
"fz c #777777",
"a3 c #782d2d",
"aN c #787878",
"f9 c #792828",
"dH c #792d2d",
"d. c #797979",
"hh c #7a2727",
"eA c #7a2828",
"eO c #7a2c2c",
"da c #7a7a7a",
"dr c #7b7b7b",
"b6 c #7c2828",
"gO c #7c2a2a",
"dX c #7c2c2c",
"dE c #7c2e2e",
".j c #7c7c7c",
"gy c #7d2d2d",
".i c #7d7d7d",
"#y c #7e7e7e",
"fj c #7f2c2c",
"cY c #7f2e2e",
"hs c #7f2f2f",
"d8 c #7f3030",
".g c #7f7f7f",
".f c #808080",
"e0 c #812828",
"gh c #813030",
"dJ c #813131",
".e c #818181",
"d2 c #823131",
".k c #828282",
"ga c #833131",
".h c #838383",
"gR c #843030",
"Qt c #848484",
"gU c #852b2b",
"ey c #852f2f",
"a1 c #853232",
".# c #858585",
"bz c #863232",
".c c #868686",
"gP c #873030",
"dY c #873333",
".d c #878787",
"cB c #882d2d",
"ho c #883131",
"bt c #883333",
".a c #888888",
"dR c #893434",
".b c #898989",
"#f c #8a3131",
".N c #8a8a8a",
".n c #8b8b8b",
"ev c #8c2f2f",
"#. c #8c8c8c",
"dM c #8d3333",
"dw c #8d3535",
".S c #8d8d8d",
"ab c #8e3333",
".t c #8e8e8e",
"gC c #8f3131",
"aT c #8f3636",
".l c #8f8f8f",
".w c #909090",
"f. c #913333",
"cI c #913434",
"dO c #913737",
".m c #919191",
"gI c #922d2d",
"gW c #923030",
"ge c #923333",
"#q c #929292",
"cA c #933030",
"d9 c #933838",
"#r c #939393",
"b1 c #943030",
"h. c #943838",
"#o c #949494",
"cc c #953535",
"dQ c #953636",
"bf c #953838",
"#W c #959595",
"fo c #963131",
"#L c #963838",
"hw c #963939",
"#p c #969696",
"eI c #972f2f",
"cj c #973636",
"g8 c #973838",
".o c #979797",
"eu c #982e2e",
"ec c #983636",
"hb c #983737",
".p c #989898",
"gL c #993131",
"fi c #993232",
"b7 c #993333",
"gj c #993a3a",
"aC c #999999",
"cm c #9a3030",
"ff c #9a3232",
"eT c #9a3434",
"cy c #9a3939",
"f0 c #9a3a3a",
"aB c #9a9a9a",
"fp c #9b3333",
"bc c #9b3a3a",
"g5 c #9b9b9b",
"eU c #9c3636",
"hk c #9c3b3b",
"e. c #9c9c9c",
"bZ c #9d3a3a",
"aP c #9d3b3b",
"#J c #9d9d9d",
"fe c #9e3232",
"fh c #9e3636",
"dA c #9e3c3c",
"ct c #9e9e9e",
"f# c #9f3636",
"f2 c #9f3c3c",
"#Y c #9f9f9f",
"cD c #a03333",
"gF c #a03535",
"dB c #a03c3c",
"eH c #a13737",
"bT c #a13a3a",
"fQ c #a13d3d",
"eR c #a23939",
"eF c #a23b3b",
"gT c #a33636",
"fb c #a33b3b",
"d5 c #a43a3a",
"dz c #a43e3e",
"eP c #a53c3c",
"bs c #a53e3e",
"eQ c #a63c3c",
"ek c #a63f3f",
"h# c #a73e3e",
"aX c #a73f3f",
"eG c #a83d3d",
"cQ c #a93a3a",
"ci c #a93d3d",
"d4 c #a93e3e",
"bH c #a93f3f",
"bb c #a94040",
"fa c #aa3d3d",
"gQ c #aa3e3e",
"dT c #aa4040",
"cx c #ab3535",
"fq c #ab3939",
"bj c #ab4040",
"#M c #ab4141",
"cM c #ac3c3c",
"gn c #ad3737",
"hx c #ad3c3c",
"#3 c #ad4141",
"fX c #ad4242",
"fd c #ae3535",
"fZ c #b04040",
"d6 c #b04242",
"e1 c #b13535",
"a6 c #b14343",
"bN c #b24242",
"eq c #b24343",
"b2 c #b33939",
"fP c #b34141",
"fH c #b34242",
"f4 c #b34444",
"cU c #b43939",
"eV c #b44040",
"#4 c #b44444",
"hC c #b53333",
"ez c #b53b3b",
"el c #b54444",
"gl c #b63b3b",
"cX c #b64242",
"#C c #b64545",
"hE c #b73434",
"hB c #b73535",
"hI c #b73636",
"he c #b73c3c",
"e7 c #b74040",
"fM c #b74545",
"hH c #b83535",
"hF c #b83636",
"c3 c #b83e3e",
"#K c #b84242",
"dK c #b84545",
"gc c #b94646",
"hA c #ba3737",
"en c #ba4646",
"cs c #bb3d3d",
"hp c #bc3939",
"fc c #bc3a3a",
"b3 c #bc3d3d",
"e8 c #bc4040",
"e6 c #bc4242",
"bm c #bc4747",
"gE c #bd3a3a",
"fr c #bd3d3d",
"gB c #bd3f3f",
"gN c #bd4444",
"dy c #bd4747",
"hi c #be3b3b",
"g9 c #be4343",
"ao c #bf3b3b",
"hq c #bf3c3c",
"gf c #bf4444",
"dx c #bf4545",
".5 c #bf4646",
"gx c #c03c3c",
"er c #c04141",
"d7 c #c04848",
"hG c #c13c3c",
"gX c #c13d3d",
"e9 c #c14040",
"hn c #c14545",
"#m c #c23d3d",
"#l c #c23e3e",
"gg c #c24747",
"gk c #c33d3d",
"c4 c #c33e3e",
"#k c #c33f3f",
".9 c #c43f3f",
"fs c #c44040",
"f7 c #c44444",
"dF c #c44a4a",
"hD c #c53f3f",
"#i c #c54040",
"eY c #c54141",
"g. c #c54545",
"bE c #c54949",
"fT c #c54a4a",
"## c #c64040",
".Z c #c64141",
"g6 c #c64747",
"fY c #c64848",
"af c #c64a4a",
"an c #c74141",
"f3 c #c74242",
"#a c #c74444",
"e2 c #c74747",
"ed c #c74a4a",
".L c #c74b4b",
"gD c #c84141",
".7 c #c84242",
".V c #c84343",
"b4 c #c84a4a",
"aa c #c94242",
".U c #c94343",
".W c #c94444",
"eW c #c94646",
"du c #c94c4c",
"#h c #ca4343",
".X c #ca4444",
".1 c #ca4646",
"gs c #ca4848",
"bw c #ca4c4c",
"a# c #cb4444",
"#j c #cb4545",
"cf c #cb4949",
"fS c #cb4c4c",
"#g c #cc4545",
".0 c #cc4646",
"cg c #cc4848",
"cu c #cc4b4b",
"ds c #cc4d4d",
".Q c #cd4646",
"hz c #cd4747",
"cP c #cd4848",
"hy c #cd4a4a",
"fW c #cd4c4c",
"e# c #cd4d4d",
"am c #ce4646",
".G c #ce4747",
"br c #ce4d4d",
"dC c #ce4e4e",
".T c #cf4747",
".O c #cf4848",
"#Z c #cf4c4c",
"bW c #cf4d4d",
"fN c #cf4e4e",
"aA c #d04848",
".B c #d04949",
"gb c #d04e4e",
"hl c #d14848",
".x c #d14949",
".A c #d14a4a",
".M c #d14f4f",
"bX c #d24949",
".F c #d24a4a",
"#X c #d34a4a",
".E c #d34b4b",
"aW c #d34f4f",
".Y c #d44b4b",
".u c #d44c4c",
".6 c #d54c4c",
".D c #d54d4d",
"em c #d55050",
"eX c #d64c4c",
".C c #d64d4d",
"#O c #d65151",
"#z c #d74d4d",
".v c #d74e4e",
"ht c #d75050",
"gd c #d75151",
"#A c #d84e4e",
".I c #d84f4f",
"#N c #d85151",
"#B c #d85252",
".8 c #d94f4f",
".y c #d95050",
".r c #da5050",
"hd c #da5151",
"bv c #da5252",
".R c #db5050",
".q c #db5151",
"bY c #db5252",
"#n c #dc5151",
".H c #dc5252",
".K c #dc5353",
".P c #dd5252",
"#I c #dd5353",
".z c #de5353",
".J c #de5454",
".s c #df5454",
"Qt.#.#Qt.a.#.b.#.c.d.d.d.#.b.dQt.dQt.#.e.e.f.g.#.#.h.i.j.i.j.i.g.fQtQt.b.d.f.f.e.f.f.e.f.h.a.c.k.h.c.#.h.h.c.a.l.m.l.b.n.l.m.o.p",
".l.q.r.s.s.s.s.s.s.s.s.s.s.s.t.u.v.s.s.s.s.s.s.s.s.s.s.s.w.x.y.s.s.s.s.s.s.s.s.s.s.z.c.A.v.s.s.s.s.s.s.s.s.s.s.s.l.B.C.s.s.s.s.t",
".m.q.r.s.s.s.s.s.s.s.s.s.s.s.l.v.D.s.s.s.s.s.s.s.s.s.s.s.n.E.v.s.s.s.s.s.s.s.s.s.s.q.b.F.s.s.s.s.s.s.s.s.s.s.s.s.l.G.q.s.s.s.s.c",
".m.H.I.s.J.z.z.s.s.s.s.s.s.s.t.v.v.s.K.L.M.s.s.s.s.s.s.s.N.O.v.s.s.s.s.s.s.s.s.s.P.O.t.Q.R.s.s.s.s.s.s.s.s.s.s.z.t.O.q.s.s.s.s.d",
".S.T.U.V.W.U.Q.X.G.G.Y.v.B.Z.w.O.0.1.2.3.4.5.D.D.x.v.6.B.b.7.O.r.q.r.E.u.y.q.8.v.v.X.c.9.T.r.O.X.G.x.F.C.Y.v.H.H.w.Q.O.u.v.C.F.c",
"#..x.7.9.Z##.X.7.B.x.u.6.T.7.S.O#a#b#c#d#e#f.O#g#h.E.F.Z.w#i#j.O.O#k#l#k.O.D.C.E.v.F.##m.G.v.x.U.C.u.F.F.G.F.q#n.k.X.U#l#l.9.U.m",
".N#o#p.n.a.d.a#.#o#q.w#r.p.w#o.m#s#t#u#v#w#x.w#q.l.S.b.a.t#r.S.n.NQt.S.t.b.#.S#r#p.m.m#..b.b.d.c#r.m.t.b.f.g#y.g.f.f.k.d#..l.n.n",
".t#z#A.s.z.s.s.t.q.H#B.K.s.s.J#C#D#E#F#F#G#H.z.q.I.H.P#I.s.s.s.s.s#I.H.N.P.H.z.s.s.s.s.s.s.s.s.s.s.m.z.8.I.s.s.s.s.s.s.r.r.H.s.n",
"#o.x.F.s.s.s.s#J.I#K#L#M#N.s#O#P#Q#R#S#T#U#V.q.8.8.s.s.s.s.s.s.s.s.s.s#W.r.u.q.s.s.s.s.s.s.s.s.s.s.l.H#X.u.s.s.s.s.s.s.s.s.s.s.l",
"#p.x.v.s.s.z.z#Y#Z#0#1#2#3.J#4#5#6#7#8#9#Ua..r.I.y.s.s.s.s.s.s.s.s.s.s#Y.I.Y.r.s.s.s.s.s.s.r.8.H.H.m.I.E.x.s.s.s.s.s.s.s.s.s.z.o",
"#q.Q.C#z.Fa#aa#Jabacadae#0afag#Gahaiajakal#s#X.6#A.P.I.r.8.Uaaam#h.Q.8#Y.Y.F.I.q.C.I.I.8.r.F#g.u.6.paaan.9.C.8.r.H.z.r#A.r.r.I#Y",
".S#k.x.C.F#mao.aapaq#F#Sarasatauavawaxahayaz.UaA.6.IaA.O.E#m#l.G.U#h.BaB.Q#j.E.r.A.F.E.x.B.Q.X.F.D#r.Z#iao.Q.O.E.I.r.uaA.6.D.F#q",
".a.n#WaBaC#..t.kaDaE#uaFaGaH#waIaJaKaLaIaMaN#q#p.faO.f.l.l.b.d#..w.p.m.N.S.b.n.S.l#r.w#r.oaCaB.w#p#W#q.l.m.w#paB#p#q#r#r.m.t.t.t",
"#o.s.s.s.s.s#IaPaQ#9#R#9aRadaHaSaTaU#9#6aVaWaXaYaZa0a1aWa2a3a4a5a6.s.s.J#I#I.s.s.s.s.a.s.s.s.s.s.s.s.s.s.s.s.s.s#p.s.s.s.s.s.s#p",
"#J.s.s.s.s.s.Ma7a8a9aSaZb.b#babbbcbdbeaQbfbba0#2bgbhbibjbkbl#G#EaUbmbnbob#bpbqbrbsbtbubvbv.s.s.s.s.s.s.s.s.s.s.s#Y.s.s.s.s.s.s#Y",
"#Y.P.r.H.s.sbwbxbyatbzbcbAbB.h.Ma7a8bCbDbEbFbGbH.s#PbIbsbJbKbobLbMbNbO#Q#TbPaQaXbQbRbSbTbUaUbVbVbVagbW.P.z.z.s.s#q.s.P#A.6.H.saB",
"#YbX.9.Q.IbYbZbi#7b0b1#kb2b3#Yb4b5byalb6b7b8b9c.c#cacbcccdau#ccecfcgch#Qaq#1cicjaickclcmcncocpaScqcrcs.U#h.7.C.P.w.r.T.9#la#.Y#.",
"ct.Gan.G.Dcucv#Gavcwcx#l#l.9.ocy#1#6czcAcBcCcDcEcFcGcHcIaJavcJcKcLcMbl#RcNcOcPcQcRcScTcUcVcWcXbVcYcZc0c1c2c3.G.x.l.G.9#kc4.O.Q.a",
"#oaC#q.n.c.ic5aIc6c7.b.b.w.t.eaKaLc8c9#yd.d#Qt.#.adad#a2aJdbaDdcdddec8dfdgdhc7#ydidjdddkdldmdndodpdldlaHdqdr#q.m#..a.n.t#o#W.w.a",
"#r.z.H.s.sdsbx#wdtcy.z.s.s.sdudv#6#Udw.s#I.jdx#Z.Kdy#3#3dzaPdAdB#3dCbtdDdEcYdFbraTdGdHbwdIdJdKdLbocldMdNdO.s.s.s.s.s.s.s.s.s.s#p",
"#r.F.B.s.sdsbx#wdPdQ#n.s.s.KdR#UdScbdBdTdUdVdWdXdYcqdZd0d0d0d0bid1d2dTd3d4d5d6ds.s.s.s#IdTd7#Nd8a0dp#1dPd9.s.s.s.s.s.s.s.s.s.se.",
"#W.v.E.s.se#eaaHebec.H.s.zedcpah#Eeebba4bdefcNegd0d0d0d0d0d0d0d0d0d0d0ehd0bdeiejek#Mdzelem.s.s.seneo#1epeq.s.s.s.s.s.r.v.I.q.y.t",
"#r.O#ga#.9eresdceteu.Q.r.uevewakexeyezeAeBdpeCcVeDeEeFeGd4eHeIeveJeKaydbeLaybdd0ayaleMeNeOePeQeReReSeTeUeVeWeX.C.QaA.E.Qaa.7.x.b",
"#p.EaA.9.XeYeQeZe0e1.7.ve2e3e4#ce5e6e7e8e9.kf.f#fafb.E.r.8#j#kfcfdfefffgfhfifjaYaycnfke4coeLaycoewdbflajfmfnfoeGeHfpfqfr.Ufs##.N",
".l#WaC#W.w.n.h.j.h#..w.bftdjaHdbfuQtfvfw.hfxfyaNa.dcdD.#d3bkfz.gfA.m#r.nda.l#o.efzfAd#dmdjdododofBfBfBfBdgfBfBdgdbfBddfC.b.bQt.c",
".m.F.q.s.s.s.s.s.s.s.s#OfDfEfFfGfHbrfIfJbQfKfLfMfN#0bRfOdpcFfPfQfRfSfTfUfVfWemfX#O.s#rfYfZeG#3#3#3#3#3f0a7f1d0d0fBbia0f2bY.s.s#.",
".mf3.E.s.s.s.s.s.s.s.Jf4aU#7f5f6f7.sbfa9f8agbm.s.sbca9bIfyf9g.d2g#dygabifVgba6bqgc.s.b.v.v.q.s.s.s.s.s#Idsel#3#3dnd5#Kem.s.s.s.o",
".a.U.C.s.s.s.s.s.s.sgdfDa8#Rdogea#gfbD#RcNga#I.PggfR#EbIa2.7.CgheDeqdUgieq.sgjblek.s.b.C.Y.q.z.H.q.r.q.z.P.r.I#I.l.x.C.s.s.s.s.p",
".b#k#iaAeXgkaoaA.r#zglgmby#7dqgncxgogpcSgqgrgsdxgtgugvbGgwgx#hgyaZgzcSgAgB.rgCajfo.I.S.G.G.v.xgDangD.T.v.6a#aa.8.a.9.7.x.O.0.y.m",
".l.Z.Z.GaA#kgEa#.6.DgFgG#6aQgH#igIgJgKf#gLgMfbgNgOgPgQbUa.gE.QgRd0eLgSgT.7aAgUgVgW#A.w#k.7.uf3gX#lan.G.6.6f3.Z.r.b##.U.v.E.U.6.o",
".l#W.p.p#o.l.SaC.p.SgwgYgZg0aN.l#..a.N#r.t.f.d#W#o.t.aft.n#q#.d3g1gYg2.n.a#qg3g4az.n.t.n.N.N.a#q#p#p.N.n.S.n.a.N.b.#.d#q#q.t.Se.",
"g5.u.J.s.s.s.s#J#jg6fIa9#QfUaW.s.s.s.s.s.s.l.x.B.s.s.s.s.s.s.s.Kdzg7gb.c.G.Gg8dLek.s.s.s.s.s.s.s.s.m.I.I.z.s.s.s.s.s.s.s.s#I.s#W",
"e..Q.P.s.s.s.s#JgXg9dvb.#Uh..s.s.s.s.s.s.saC.G.Q.z.s.s.s.s.s.s.s.Kgb.s.lfs#jh#haeq.s.s.s.s.s.s.s.s#q.F#X#I.s.s.s.s.s.s.s.s.s.s#W",
".S.0.P.s.s.s.s#r#ihbbi#7eDek.s.s.s.s.s.s.s.w.x.G.s.s.s.s.s.s.s.s.s.s.s.S.9am#I.L.s.s.s.s.s.s.s.s.s.p.6.E.H.s.s.s.s.z.z.s.s.s.saB",
".##m.u.q.8#j.F.ccscZhccNchg9.y.y.u.F.E.r.q.c.T.Z.Q.x.R.r.v.YaA.O.8.H.P.n.9.7.6.I.8.F#z.8.v.v.rhdhdaB.qa#.Gama#.E.Ff3.V.8.D.Q.x.p",
"#.gx.Q.I.uf3#gQthehfbehghh.7#g.0.Z#m##.A.v.#aAhigE#laA.Qf3#l.9#m#j.I.H.h.F.U.O.Fa##m.E#z.u.x.G.v.r.S.H.7f3f3.G.B.E#i#m.Q.Q.U.G.n",
".b.n.n.n.c.d.c.a.daMdfhjfw.d.c.d.d#.#W#o.t.a.a.w.S.d.d.a.l#p#o.n.b.l.S.#.#.h.N.w.N.c.m.SQtQtQtQt.n#..e.h.t.l.c.k.k.hQt.h.f.e.h.n",
".NaA.r.s.s.s.s.sdsbxdS#Uhk.s#p.u#h.H.s.s.s.s.s.s.s.z.z.s#o.8.6.z.s.s.s.s.s.s.s.s.s.zaB.v.C.s.s.s.s.s.s.s.s.s.s.s.n.8.s.s.s.s.s#W",
".nf3hl.s.s.s.s.sbwbg#EfEhk.s#W#h.Z.r.s.s.s.s.s.s.s.s.s.saC.Tc4.r.s.s.s.s.s.s.s.s.s.s#Y.C.6.s.s.s.s.s.s.s.s.s.s.sg5.G.r.s.s.s.saB",
"#W.U.U.s.s.s.s#IaPbi#7eDek.sg5aaao.E.s.s.s.s.s.s.s.s.s.se.#g#m.r.s.s.s.s.s.s.s.s.s.s#Y.v.v.s.s.s.s.s.s.s.s.s.s.s#Y.C#I.s.s.s.s#Y",
"#pc4c4.F.A.u.rgba7#Q#Ghmaf.Hg5.B#l.7.r.r.z.s.P#n.r.C.8.P.p.Q#i.C.x.u.r.8.y.u.6.D.P.P#Y.D.v.z.z.H.8.D.v.r.r.F.r.s#Y.Ohd.s#I#I.sg5",
".p#g.7.Q.7.Z.Ohnhfahacho.8.F#J#m#mhi.6.x.CaA.F#g#ihpgX#z.p.E#i.E.U.G.v.C.r.O#i#g.C.Ce..O.Z.E.r.y.Oanf3.6aAhqf3.C#J.9gE#lgE.Q.B#p",
"#q.m#p#p#q.m#r.baMdfhjgH.S#r#p.w.w#r.p#W#o#r#q.pg5g5.o.pg5e.e.e.aBe.#J#J.p#W#WaCaC#W.og5e..o#paC#paB.o.oe.aB#W#r#paBg5#W.S#.#r#o",
"#r.H.6.8.8.R.z.Nhr#R#Ghsht.s.s.s.s#I#I.P.R.t.G.x.x.Y.q.s.s.s.s.s.s.s.saB.P.s.s.s.z.z.s.z.q#n.H.r.6.c.x.s.z.P.P#I.z#n.x.Xf3#g.I.l",
"#o.x.x#n.s.s.s.bfIbCbGhuds.s.s.s.s.s.s.s.s#r.z.s.s.s.s.s.s.s.s.s.s.s.s.t.u#I.s.s.s.s.s.s.s.s.s.s.s.n.H.q.z.s.s.s.s.s.s.s.z.z.s.d",
"ct.Q.Z.I.s.H.6#qdwfKhvhwaW.s.s.s.s.s.s.s.s#q.s.s.s.s.s.s.s.s.s.s.s.s.s#q.FaA.s.s.s.s.s.s.s.s.s.s.s.n#A.v.P.z.s.s.s.s.s.s.s.s.s#W",
"e.aA.7.C#A.x.U#pgscQhxhy.y.I.I.v.q.H.H.H.z.w.z.z.r.6.BaA.E.E.u.D.Y.q.q.m.8.v.s.s.s.s.s.s.s.s.s.s.s#..C.I.v.YaA.8.s.s.s.J.s.s.s#p",
".S.v.0an.G.V#g#qa#.Z#j.Y.CaA.Q.U.Ghz.7.U.G#..8#I.H.D.F.C.F.v.B.x.uhd.r.#.8a#.Y.D.8#A.y.r.I.C.v.z.s.t.6.C.CaA.F.E.x.E.G.O.z.s.s.p",
".l.N.N.t#r.m.m.l#r.p.p.o#o.oe.aBg5.b.n.S.b.d.d.Ng5g5#r.NQt.S.a.c.e.k.e.e.h.e.d.b#..o#q.a.a#.#o.t.b.l#W#W#.#.#o#WaC#r#q.w.w#o.o#p",
".p.C#z.v.8.H.s.s.s.s.s.s.s.s.w.r.v.z#I.P.P.s.s.s.s.s.s.s.g.q.8.s.s.s.s.s.z#n.q.H.z.z.m.q.8.R.q.z.s.s.z.s.s.s.s.8#.hl#n.z.s.s.sg5",
"aChz#i.E.s.s.s.s.s.s.s.s.s.s.S.6.x.s.s.s.s.s.s.s.s.s.s.sQt.v.G.s.s.s.s.s.s.s.s.s.s.s#r.u.6.s.s.s.s.s.s.s.s.s.s.WQt#g.s.s.s.s.s.o",
"#panan.Q.y#I.u.0#lfs.v.8.z.s#p.x.Q.s.s.s.s.s.s.s.s.s.s.s.t.8.O.s.s.s.s.s.s.s.s.s.s.s#W.T.G.s.s.s.s.s.s.s.s.s.s.C.h#h.H.s.s.s.s#q",
"#W#ihA#i.G.O.VaohBhChBgE.Q.xaC.F.U.v.v.8.P#Ihd.q.r.P.z.q#r.r.F.s.s.s.s.s.s.s.s.s.s.s#q.x.0.r.I.6.C.z.J.s.J.J.H.D.a.VaA.P.z.s.s.w",
"#o.7gX.9.O.6.UhDaohEhFgE.FaA#o.G.U.vaAaA.xaAaA.x.6.v.H.r#o.q.0.I.6.x.G.0.0.q.q.v.Y.u.t.Q.9.F.u.G.G.v.y.v.O.G.x.B.m#j.X.H.q.H.A.w",
".o#o#q.o.p#p.o#p.paBe.aB.p#q.t.S.N.a#..n.oaC.S.t.S.S.S#r#r#p#oaCg5.o#q#W#p.t.t.t.w.oe.#r.l#r#r.t.N.n#W.t#W.w.d.n.m.S.b.b.a.t.l#q",
"#p.s.s.s.s.s.s.S.z.s.s.s.s.s.s.s.s.s.s.s.sg5.x.I.s.s.s.s.s.z.H.R.r.H.PaC.q#I.z.z.H#I.s.s.z.s.s.s.s#W.0.P.z.z.z.s.s.y.I.y.q.Y.Qg5",
".l.s.s.s.s.s.z#o.G.8.s.s.s.s.s.s.s.s.s.s.se..x.I.z.s.s.s.s.s.s.s.s.s.sct.8#I.s.s.s.s.s.s.s.s.s.s.saB.Z#n.s.s.s.s.s.s.s.s.s.s.s.t",
"da.T.s.s.s.s.scthG.x.s.s.s.s.s.s.s.s.s.s.scthl#n.s.s.s.s.s.s.s.s.s.s.s.m#z.P.s.s.s.s.s.s.s.s.s.s.s.lf3eX.s.s.s.s.s.s.s.s.s.s.s#W",
"dr#gaA.E.8.s.s#qgx#k.H.s.s.s.s.s.s.s.s.s.sct.x.8.q.v.6.v.y.z.H.rhd.q.s.f.C.H.s.s.s.s.s.z#I.P.P.H.C.ehH.E.B.E.E.O.u.v.C.E.O.8.q.i",
".h#m.Ua#.UgX.x.hhihIfc.X.U.O.6.C#i.Z#g.Q.X.l.AaA.0.U.X.X.G.q.v.x#h.x.Ofg.D.F.OaA.E.r#A.F.G.F.v#AaA#yhF.X.C.Q#i#khz.E.X.W#i.8.rdn",
".w.#.i.j.k.e.f.ffthJfzdkhKdada.jfzdndkdkd3hKdad..k.a.ednftbuhJdr.ed.fzaNfz.j.i.k.d.g.e.f.iaNdr#ydraNftdkdnaN.j.i.j.jd.hJhJfA.gd.",
".fdrd3eSftfAhJd3eSa.dkhKhKd..jQt#yhJbuhLbudkbu#Vd3dkhLftdnhJhKfz.ifz.h.h.idr#y.hdraNd..jfgfg.j.gd.hKhKfzda.idkfgfg.jfgdnbudk.j#y",
".i.khKa.hK.ed.d.bu#Vdn.ifzfgdahK.j#ydadnfAfAfAd3a.ftftd3ftbudnhKdndn.i.a.ddrhJhLbufthKdkd3dkdrd.dnazd3hLftfAa.d3dkhK.ihJbudnQtdr",
".i#y.i#sfgfghKhKa.g2#VfzhKhKhJdndkhJaNdnhJ.iaNdndnfAhLhLeSdnfthJhJdkd..h.khKa.d3hJdnhJbueSdkdkftbuaz#VdkfgaNbufthJbud3az#sd3hKhK"};
