/* XPM */
static char *dummy[]={
"64 64 1487 2",
"dZ c #000000",
"jj c #000101",
"mo c #010101",
"kj c #010201",
"d0 c #020403",
"hj c #020503",
"k1 c #030503",
"iF c #030704",
"eh c #060a07",
"i0 c #070d08",
"p. c #071009",
"eC c #0b140d",
"kF c #0d180f",
"l5 c #0e1910",
"jY c #0f1d12",
"i1 c #102014",
"iE c #112115",
"pF c #113318",
"eZ c #132116",
"p# c #13331a",
"nr c #142718",
"oA c #15341c",
"qi c #15401e",
"n1 c #16341d",
"qh c #16401f",
"ns c #17351e",
"qg c #174020",
"qf c #184021",
"mX c #193520",
"qe c #194121",
"qd c #194122",
"ki c #1a3321",
"mp c #1a3621",
"qc c #1a4122",
"pV c #1a4222",
"pW c #1b4223",
"j0 c #1c3722",
"gK c #1c3723",
"gq c #1d3723",
"fm c #1d3724",
"pX c #1d4224",
"ll c #1e3723",
"kG c #1e3724",
"ig c #1e4025",
"pY c #1e4225",
"fI c #1f3824",
"d3 c #1f3825",
"qj c #1f632d",
"ej c #203825",
"hk c #23442b",
"qb c #23582f",
"fj c #24412b",
"g1 c #25482e",
"jZ c #264a2f",
"lH c #27472e",
"gI c #295033",
"oz c #295834",
"uk c #29ca4a",
"uj c #29cb49",
"tV c #29cb4a",
"tU c #29cc49",
"tt c #29cc4a",
"jk c #2a5234",
"ul c #2aca4d",
"tT c #2acc4a",
"ts c #2acd49",
"sV c #2ace49",
"iH c #2b5536",
"tr c #2bcd4a",
"sU c #2bce4a",
"q5 c #2bd04b",
"fH c #2c5536",
"go c #2c5637",
"tW c #2ccb52",
"tS c #2ccd4b",
"tq c #2cce4c",
"q6 c #2cce4e",
"qn c #2cd04b",
"hz c #2d5838",
"t7 c #2dcb4b",
"t8 c #2dcb4c",
"tu c #2dcb50",
"sT c #2dd04c",
"pK c #2dd04e",
"oI c #2dd04f",
"hU c #2e5537",
"fl c #2e5638",
"fF c #2e5a39",
"ui c #2ecc4c",
"tp c #2ecf4d",
"rK c #2ecf4e",
"qo c #2ecf54",
"rJ c #2ed04d",
"sk c #2ed04e",
"q4 c #2ed14e",
"f2 c #2f5c3a",
"oW c #2f673c",
"sl c #2fd04d",
"sj c #2fd04e",
"o. c #2fd055",
"n9 c #2fd24e",
"pq c #30673c",
"ol c #30673d",
"um c #30cb59",
"pL c #30ce58",
"to c #30d04f",
"oH c #30d24f",
"pJ c #30d250",
"pe c #30d350",
"nB c #30d352",
"hA c #315639",
"d2 c #31563a",
"tX c #31cc5c",
"pf c #31cf59",
"tn c #31d050",
"sS c #31d150",
"rI c #31d250",
"m5 c #31d451",
"nj c #326940",
"tP c #32ce50",
"tO c #32ce51",
"si c #32d251",
"q3 c #32d252",
"qu c #32d451",
"nA c #32d552",
"nP c #336940",
"mO c #336a40",
"tQ c #33ce51",
"tK c #33cf52",
"hp c #33da58",
"ha c #33da59",
"hS c #346641",
"t6 c #34cc50",
"ue c #34cd51",
"sW c #34cf53",
"oJ c #34cf60",
"sR c #34d253",
"rH c #34d353",
"qt c #34d358",
"qm c #34d453",
"n8 c #34d553",
"oG c #34d554",
"pR c #34d655",
"hI c #34d95a",
"jJ c #34da54",
"uE c #35cb5d",
"uA c #35cc51",
"uf c #35ce51",
"q7 c #35ce63",
"sm c #35d055",
"m6 c #35d15d",
"sh c #35d254",
"qv c #35d554",
"jK c #35d55e",
"my c #35d754",
"jr c #35db55",
"mm c #366a43",
"kZ c #366b43",
"kD c #366b44",
"t9 c #36ce52",
"tk c #36d055",
"sQ c #36d255",
"js c #36d560",
"h5 c #36d95e",
"j9 c #36da57",
"hx c #376b44",
"uh c #37ce53",
"qp c #37ce66",
"u# c #37cf53",
"ua c #37cf54",
"tJ c #37d055",
"tj c #37d056",
"tl c #37d155",
"q2 c #37d456",
"j# c #37d661",
"m4 c #37d856",
"ip c #37d861",
"j. c #37db56",
"gT c #37db60",
"iO c #37dc57",
"io c #37dd57",
"uw c #38cd53",
"ud c #38ce54",
"pM c #38ce6a",
"tR c #38d054",
"nC c #38d064",
"ti c #38d157",
"sP c #38d257",
"sg c #38d357",
"rg c #38d455",
"k. c #38d463",
"ql c #38d557",
"mz c #38d55c",
"lR c #38d561",
"iP c #38d763",
"pk c #38d95a",
"h4 c #38de57",
"lG c #396c45",
"hT c #397047",
"uO c #39cc54",
"uP c #39cc55",
"uD c #39cc5c",
"ux c #39cd53",
"t4 c #39cd54",
"tC c #39cf53",
"tF c #39d055",
"tL c #39d156",
"th c #39d158",
"rf c #39d357",
"pQ c #39d55e",
"nz c #39d858",
"l1 c #3a6c45",
"pE c #3a8b4d",
"uN c #3acc55",
"uQ c #3acc56",
"un c #3acc6a",
"uy c #3acd54",
"uz c #3ace54",
"t5 c #3ace55",
"tD c #3acf54",
"s6 c #3acf56",
"st c #3ad156",
"tN c #3ad157",
"tf c #3ad259",
"rh c #3ad557",
"pI c #3ad659",
"pd c #3ad759",
"n7 c #3ad859",
"pl c #3ada5a",
"hH c #3adf59",
"ho c #3ae05b",
"uS c #3bcc56",
"uR c #3bcc57",
"uv c #3bce57",
"ug c #3bcf55",
"tE c #3bcf56",
"o# c #3bcf70",
"s7 c #3bd056",
"ss c #3bd057",
"su c #3bd256",
"te c #3bd259",
"tg c #3bd25a",
"sO c #3bd35a",
"sf c #3bd45a",
"q1 c #3bd55a",
"oF c #3bd85a",
"pS c #3bd85b",
"uB c #3ccd58",
"uC c #3ccd5b",
"pg c #3cce73",
"u. c #3ccf56",
"tB c #3ccf58",
"ub c #3cd057",
"s8 c #3cd157",
"rT c #3cd356",
"hJ c #3cd470",
"rG c #3cd55b",
"nG c #3cd967",
"mx c #3cda5b",
"j8 c #3cde5b",
"uM c #3dcd5a",
"tY c #3dcd70",
"rL c #3dd065",
"tm c #3dd259",
"sv c #3dd358",
"se c #3dd55c",
"qk c #3dd65c",
"qw c #3dd75a",
"lv c #3dd862",
"na c #3dde63",
"h# c #3de05e",
"uF c #3ecc6c",
"uu c #3ecd5b",
"t3 c #3ece5c",
"uc c #3ed058",
"s5 c #3ed05b",
"tG c #3ed159",
"s9 c #3ed258",
"rS c #3ed25a",
"sM c #3ed35c",
"rU c #3ed458",
"sN c #3ed45c",
"m3 c #3edb5d",
"jI c #3ede5d",
"nH c #3ede61",
"uT c #3fcc5d",
"sw c #3fd35a",
"sL c #3fd35d",
"md c #3fd46a",
"n# c #3fd970",
"lQ c #3fda5e",
"mb c #3fdb5d",
"kq c #3fdd5d",
"oR c #3fdd5e",
"mW c #40754c",
"pZ c #408a4f",
"ut c #40cd5e",
"us c #40ce5f",
"tv c #40cf6a",
"tI c #40d25a",
"t. c #40d35a",
"sK c #40d45f",
"h6 c #40d478",
"rV c #40d55b",
"sd c #40d55f",
"rF c #40d65e",
"q0 c #40d75f",
"pH c #40d85f",
"mc c #40d95f",
"ny c #40db5f",
"pm c #40dc5f",
"mD c #40dd6b",
"jq c #40e05f",
"i9 c #40e060",
"jC c #418051",
"s4 c #41cf5f",
"tH c #41d25b",
"t# c #41d35c",
"sx c #41d45c",
"sJ c #41d55f",
"pc c #41d960",
"gd c #41e162",
"mE c #41e263",
"tA c #42cf61",
"lS c #42d27b",
"sI c #42d560",
"nF c #42d57a",
"oE c #42da60",
"fQ c #42e067",
"iN c #42e161",
"nb c #42e162",
"uL c #43cd63",
"q8 c #43cf80",
"tM c #43d35d",
"ta c #43d45d",
"td c #43d45f",
"sc c #43d561",
"sH c #43d562",
"rE c #43d762",
"ri c #43d85d",
"qZ c #43d862",
"gf c #43d976",
"n6 c #43db62",
"kr c #43db63",
"kO c #43dd60",
"ma c #43dd61",
"h3 c #43e162",
"mg c #43e16a",
"m7 c #44d17b",
"jt c #44d181",
"iq c #44d380",
"tb c #44d45f",
"sy c #44d55e",
"sG c #44d562",
"rW c #44d65e",
"pT c #44db62",
"fR c #44dc73",
"oS c #44de63",
"ge c #44df6b",
"kp c #44e064",
"gS c #44e263",
"u4 c #45cd65",
"ja c #45d284",
"sb c #45d663",
"pG c #45d963",
"mf c #45da7b",
"pn c #45dc64",
"mw c #45de64",
"sr c #46d166",
"lw c #46d478",
"sz c #46d560",
"sa c #46d664",
"rX c #46d760",
"rD c #46d764",
"ob c #46d778",
"mC c #46d880",
"pj c #46db68",
"lu c #46dd62",
"oQ c #46de65",
"kN c #46e164",
"j7 c #46e165",
"ur c #47ce68",
"t2 c #47cf68",
"sn c #47d26c",
"iQ c #47d385",
"tc c #47d561",
"qs c #47d56f",
"rj c #47d862",
"qY c #47d865",
"pb c #47db66",
"gA c #47dd71",
"hG c #47e365",
"hn c #47e465",
"h. c #47e466",
"mh c #47e567",
"u5 c #48ce6a",
"s3 c #48d06b",
"rR c #48d36a",
"re c #48d46c",
"sA c #48d662",
"s# c #48d766",
"oc c #48dc6d",
"l# c #48dd66",
"m2 c #48de66",
"lT c #48de7a",
"lU c #48e56c",
"lk c #498758",
"uK c #49cf6b",
"tz c #49d06b",
"rY c #49d863",
"rC c #49d867",
"qx c #49db64",
"oD c #49db68",
"n5 c #49dd68",
"nx c #49de68",
"gz c #49e26a",
"mF c #49e568",
"hy c #4a905b",
"ih c #4a925c",
"u3 c #4ace6c",
"sB c #4ad765",
"rB c #4ad868",
"qX c #4ad968",
"l. c #4ae066",
"lz c #4ae178",
"jH c #4ae369",
"eL c #4ae36c",
"u6 c #4bcf6f",
"nD c #4bd089",
"sX c #4bd371",
"rZ c #4bd865",
"s. c #4bd869",
"rk c #4bda65",
"od c #4be069",
"fP c #4be46a",
"gy c #4be568",
"v. c #4cce71",
"u9 c #4ccf71",
"me c #4cd18a",
"mA c #4cd57a",
"sF c #4cd767",
"rA c #4cd96b",
"po c #4cdd6a",
"lP c #4ce068",
"m# c #4ce06b",
"nI c #4ce369",
"jp c #4ce46b",
"e8 c #4ce46c",
"eo c #4ce56b",
"uJ c #4dd071",
"ty c #4dd075",
"sC c #4dd866",
"r8 c #4dd96a",
"qW c #4dda6b",
"pa c #4ddc6b",
"fa c #4ddd80",
"of c #4de26a",
"gc c #4de56b",
"i8 c #4de56c",
"u7 c #4ecf72",
"sD c #4ed868",
"r0 c #4ed968",
"r9 c #4ed96b",
"rz c #4ed96c",
"ly c #4ed98d",
"rl c #4eda68",
"fu c #4edb83",
"oP c #4edd6f",
"lc c #4edd88",
"oT c #4ee06c",
"oe c #4ee26a",
"ep c #4ee371",
"h2 c #4ee56d",
"lV c #4ee86d",
"u8 c #4fcf73",
"uo c #4fd086",
"ry c #4fd96d",
"qV c #4fdb6d",
"kP c #4fdb71",
"oC c #4fdd6d",
"fv c #4fde81",
"mv c #4fe16e",
"og c #4fe26d",
"d7 c #4fe46d",
"in c #4fe56e",
"gR c #4fe66b",
"u2 c #50d075",
"uq c #50d076",
"sE c #50d86a",
"r1 c #50d96b",
"qy c #50dc6a",
"ld c #50e579",
"kb c #50e777",
"mi c #50e86f",
"jN c #50e974",
"uU c #51d076",
"rM c #51d287",
"ks c #51d97c",
"gg c #51d990",
"rm c #51db6b",
"rx c #51db6f",
"gB c #51db8c",
"fS c #51df81",
"m1 c #51e16f",
"gh c #51e17f",
"kM c #51e46e",
"ko c #51e46f",
"nc c #51e66e",
"eK c #51e66f",
"uG c #52d086",
"uI c #52d178",
"r2 c #52da6d",
"r7 c #52da6e",
"qU c #52db6f",
"rw c #52db70",
"qT c #52db71",
"pU c #52de6d",
"n4 c #52de6f",
"nw c #52df70",
"lt c #52e26c",
"fb c #52e477",
"fs c #52e573",
"kw c #52e57e",
"fr c #52e670",
"lA c #52e873",
"t1 c #53d179",
"kU c #53e185",
"ft c #53e27a",
"lO c #53e36f",
"jM c #53e482",
"j6 c #53e572",
"mG c #53e771",
"jw c #53e77d",
"v# c #54d07b",
"pP c #54d97b",
"la c #54da7b",
"qS c #54db72",
"qz c #54dd6e",
"oh c #54e372",
"gC c #54e37f",
"e9 c #54e478",
"eR c #54e47a",
"fw c #54e57a",
"e7 c #54e773",
"tx c #55d183",
"f# c #55d895",
"r3 c #55db6e",
"rn c #55dc6e",
"oB c #55df73",
"oU c #55e073",
"d6 c #55e773",
"jc c #55e87b",
"kx c #55eb78",
"ji c #56a86a",
"jD c #56a96b",
"r4 c #56db70",
"ro c #56dc71",
"qR c #56dc74",
"n3 c #56e074",
"m. c #56e374",
"dH c #56e575",
"jG c #56e675",
"hF c #56e772",
"gx c #56e871",
"kV c #56e97a",
"uH c #57d180",
"qQ c #57dd75",
"qA c #57de71",
"k9 c #57e471",
"nJ c #57e672",
"fT c #57e67b",
"en c #57e775",
"fO c #57e874",
"kc c #57ec77",
"jx c #57ec78",
"n0 c #58b16d",
"sq c #58d481",
"r5 c #58db71",
"pi c #58db7f",
"rp c #58dc71",
"r6 c #58dc72",
"rv c #58dc75",
"qP c #58dd75",
"nv c #58e177",
"mu c #58e276",
"ka c #58e28b",
"d8 c #58e37c",
"jo c #58e777",
"gi c #58e77b",
"mj c #58e877",
"lW c #58ea77",
"u1 c #59d281",
"qa c #59dc76",
"qI c #59dd75",
"qO c #59de77",
"m0 c #59e277",
"dg c #59e47c",
"cP c #59e67b",
"gb c #59e775",
"fq c #59e777",
"#f c #59e978",
"#g c #59ea76",
"s2 c #5ad384",
"rq c #5add75",
"qH c #5add76",
"qB c #5ade74",
"eM c #5ae281",
"oi c #5ae377",
"cp c #5ae779",
"dG c #5ae874",
"df c #5ae877",
"i7 c #5ae878",
"gQ c #5ae974",
"g9 c #5ae975",
"pp c #5be176",
"lN c #5be476",
"eJ c #5be879",
"jO c #5bed79",
"o9 c #5cd178",
"cR c #5cdb95",
"oO c #5cdc85",
"qC c #5cde76",
"p3 c #5cde79",
"q# c #5cde7a",
"p2 c #5cdf79",
"n2 c #5ce17a",
"cQ c #5ce285",
"ls c #5ce576",
"cO c #5ce977",
"#G c #5ceb78",
"lB c #5cec79",
"up c #5dd38a",
"rQ c #5dd687",
"rr c #5dde76",
"rs c #5dde77",
"q. c #5ddf7b",
"bL c #5de67f",
"nK c #5de777",
"fN c #5de87a",
"b5 c #5de87b",
"iM c #5de97b",
"#F c #5de97d",
"fc c #5dea7c",
"ky c #5ded7c",
"ve c #5ed288",
"p9 c #5ee07c",
"nu c #5ee37c",
"b6 c #5ee581",
"kL c #5ee77a",
"nd c #5ee879",
"kn c #5ee87b",
"ga c #5ee87c",
"bK c #5ee97b",
"gD c #5ee97d",
"fx c #5eea7c",
"iT c #5eeb80",
"jy c #5eed7c",
"dl c #5fd1ba",
"vf c #5fd28a",
"t0 c #5fd48b",
"qD c #5fdf79",
"p8 c #5fe07c",
"mt c #5fe47d",
"cq c #5fe484",
"l9 c #5fe57d",
"ev c #5fe588",
"j5 c #5fe87d",
"e6 c #5fe97d",
".W c #5fe982",
"lC c #5fec7e",
"le c #5fed7d",
"eQ c #60d1ba",
"cW c #60d1bb",
"u0 c #60d38c",
"ru c #60de79",
"qF c #60de7a",
"qE c #60df7a",
"qG c #60df7b",
"p4 c #60e07d",
"pD c #60e17e",
"lM c #60e67d",
"em c #60e87e",
"de c #60e97a",
"h1 c #60e97c",
"co c #60ea7b",
"lX c #60ea7e",
"#h c #60eb7c",
"kT c #61d1bb",
"hb c #61d2bc",
"rd c #61d78d",
"rt c #61de7a",
"qJ c #61df7b",
"qN c #61e07c",
"p1 c #61e07d",
"kv c #61e09a",
"pC c #61e17f",
"dI c #61e389",
"bl c #61e684",
"ne c #61e87c",
"#3 c #61e982",
"bN c #61ea7f",
"fU c #61ea80",
"#4 c #61eb7d",
"eS c #61eb7e",
"#H c #61ec7c",
"iu c #61ec7f",
"kd c #61ed80",
"iG c #62bf79",
"eP c #62d2bc",
"pt c #62e17f",
"pB c #62e280",
"f. c #62e28d",
"nt c #62e480",
"k8 c #62e87d",
"dF c #62ea7d",
"bq c #62ea80",
"h9 c #62eb81",
"hL c #62eb83",
"jd c #62ee7f",
"dk c #63d2bd",
"vg c #63d490",
"p6 c #63e17f",
"oV c #63e47e",
"mZ c #63e482",
"oj c #63e57e",
".n c #63e783",
"fp c #63e980",
"eI c #63e981",
"a4 c #63e982",
"ew c #63ea83",
"b4 c #63eb7f",
"d1 c #64b076",
"nE c #64d2bd",
"dm c #64d2be",
"ps c #64e280",
"jF c #64e981",
"ai c #64e985",
".X c #64e986",
"gw c #64ea7d",
"mH c #64ea7f",
".G c #64ea80",
"gj c #64ea82",
"bO c #64eb7e",
"jP c #64ee83",
"mn c #65b376",
"lx c #65d3bf",
"vd c #65d493",
"kQ c #65da92",
"pA c #65e382",
"eq c #65e390",
"ms c #65e683",
".o c #65e785",
".m c #65e787",
"bp c #65e789",
".F c #65e982",
"aG c #65e986",
"br c #65eb7f",
"a5 c #65eb81",
"aj c #65eb82",
"cN c #65ec7f",
"#5 c #65ec80",
"#i c #65ec81",
"iZ c #66c77e",
"gU c #66d3bf",
"uV c #66d596",
"sY c #66d795",
"so c #66d895",
"qr c #66d994",
"dh c #66e195",
"oX c #66e383",
"o8 c #66e484",
"nL c #66e781",
"l8 c #66e784",
"a0 c #66e78b",
".p c #66e886",
"jn c #66ea83",
"gP c #66eb7f",
"aH c #66eb83",
"fd c #66ec84",
"jz c #66ed84",
"q9 c #67d3c0",
"uZ c #67d495",
"vh c #67d496",
"cr c #67e096",
"qK c #67e181",
"bM c #67e392",
"oY c #67e484",
".l c #67e68c",
"#E c #67e68e",
"hr c #67e88a",
"km c #67e984",
".E c #67e987",
"d5 c #67ea84",
"g8 c #67eb81",
".H c #67eb82",
"bk c #67eb85",
"lD c #67ec85",
"#I c #67ed82",
"hs c #67ed83",
"lf c #67ef82",
"iU c #67f082",
"jb c #68d3c0",
"r# c #68d3c1",
"p0 c #68e181",
"b7 c #68e295",
"pr c #68e383",
"oZ c #68e484",
"pz c #68e485",
"mY c #68e686",
"lL c #68e885",
".q c #68e887",
".r c #68e888",
"b9 c #68e989",
"gX c #68e98a",
"#b c #68ea86",
"#c c #68ea88",
".Y c #68ea89",
"hm c #68eb82",
".I c #68eb84",
"fy c #68eb86",
"hM c #68ee82",
"iv c #68f083",
"je c #68f085",
"ir c #69d4c1",
"pO c #69db98",
"qM c #69e282",
"om c #69e587",
".a c #69e592",
"nO c #69e685",
"aF c #69e790",
"ah c #69e791",
"lr c #69e881",
".s c #69e88b",
"#B c #69e98a",
"eb c #69e98e",
"e5 c #69ea85",
".Z c #69ea8a",
"mI c #69eb84",
"i6 c #69eb85",
"cz c #69eb88",
"ak c #69ec83",
"ex c #69ed84",
"i. c #69ee83",
"kz c #69ee87",
"eu c #6ad4c2",
"qL c #6ae282",
"bm c #6ae394",
"mr c #6ae788",
"#d c #6ae78e",
"#2 c #6ae792",
"eH c #6aea88",
".J c #6aeb85",
".1 c #6aeb86",
"j4 c #6aeb88",
".0 c #6aeb89",
"dd c #6aec83",
".K c #6aec84",
"#A c #6aec86",
"fV c #6aec88",
"cn c #6aed83",
"eT c #6aed85",
"#j c #6aed86",
"k0 c #6bbf7f",
"uW c #6bd4c2",
"kt c #6bd4c3",
"vi c #6bd59d",
"lb c #6bda9f",
"p5 c #6be385",
".# c #6be495",
"ea c #6be49b",
"o7 c #6be588",
"ok c #6be685",
"nM c #6be885",
".D c #6be88f",
"#Y c #6be98b",
"nf c #6bea85",
"kK c #6bea86",
"g6 c #6bea88",
"aC c #6bea8c",
"gv c #6beb85",
"h0 c #6beb87",
"#X c #6beb88",
".L c #6bec85",
"ec c #6bec89",
"#6 c #6bed85",
"lg c #6bee87",
"jf c #6bee88",
"jQ c #6bee89",
"dM c #6cd4c3",
"cV c #6cd4c4",
"vc c #6cd59c",
"p7 c #6ce386",
".b c #6ce495",
"on c #6ce689",
"#C c #6ce693",
"aD c #6ce694",
"nN c #6ce887",
"l7 c #6ce889",
".T c #6ce98e",
"hE c #6cea88",
"hD c #6cea89",
"im c #6ceb88",
"iK c #6ceb89",
"aZ c #6ceb8a",
".2 c #6cec86",
".N c #6cec87",
"aI c #6ced85",
"c. c #6ced86",
"#a c #6ced87",
"#J c #6cee86",
"kW c #6cf087",
"it c #6dd5c4",
"uY c #6dd69f",
"pu c #6de487",
".c c #6de596",
"gW c #6de59a",
".V c #6de694",
"nR c #6de78a",
"nQ c #6de78b",
"#Z c #6de793",
"hd c #6de795",
".t c #6de890",
".U c #6de891",
".S c #6dea8c",
"gO c #6deb87",
"il c #6deb89",
"hZ c #6deb8a",
"dE c #6dec87",
"iL c #6dec89",
".O c #6dec8a",
"lY c #6dec8b",
"bP c #6ded86",
".M c #6ded88",
"c1 c #6ded8a",
"jA c #6dee8a",
"ei c #6ec181",
"tw c #6ed5c5",
"ph c #6edc9f",
".k c #6ee598",
".C c #6ee796",
"ni c #6ee88b",
"k7 c #6eea87",
"mJ c #6eea89",
"g7 c #6eeb88",
"g# c #6eeb89",
".P c #6eeb8b",
".Q c #6eeb8c",
".R c #6eeb8d",
"bs c #6eed87",
"#z c #6eed88",
"gk c #6eed8c",
"#W c #6eee88",
"h7 c #6fd5c6",
"vj c #6fd6a1",
"eN c #6fe1a2",
"d9 c #6fe29f",
"a1 c #6fe49c",
".d c #6fe599",
"o0 c #6fe68a",
"oo c #6fe78a",
"mq c #6fe88c",
"mM c #6fe98c",
"mN c #6fe98d",
"nk c #6fe98e",
"g5 c #6fea8c",
"hl c #6feb89",
"e4 c #6feb8b",
"el c #6feb8c",
"jm c #6fec8b",
"d4 c #6fec8c",
"dp c #6fec8f",
".3 c #6fed88",
"#k c #6fee88",
"jg c #6fee8c",
"is c #70d5c6",
"kE c #70d789",
"vk c #70d7a3",
"iD c #70dc8b",
".e c #70e59a",
"pw c #70e68a",
".A c #70e69c",
"o6 c #70e78c",
".B c #70e79b",
"ow c #70e88c",
"nS c #70e88d",
".u c #70e896",
"lq c #70ea8a",
"lZ c #70ea8d",
"ik c #70ea8e",
"c0 c #70ea95",
"gN c #70eb8b",
"hY c #70eb8e",
"dR c #70eb92",
"al c #70ee89",
"gE c #70ee8a",
"ed c #70ee8b",
"dS c #70ee8c",
"he c #70ef89",
"ht c #70ef8a",
"iV c #70f18a",
"ra c #71d5c7",
"ju c #71d6c7",
"i2 c #71de8d",
"py c #71e68a",
"af c #71e69c",
".v c #71e798",
"nZ c #71e98d",
"eG c #71eb8e",
"i5 c #71eb8f",
".4 c #71ec89",
"fo c #71ec8c",
"lE c #71ec8f",
"## c #71ed8a",
"ey c #71ee8c",
"jR c #71ee8f",
"#K c #71ef8a",
"lh c #71ef8e",
"hN c #71f08b",
"i# c #71f18b",
"et c #72d6c7",
"iR c #72d6c8",
".f c #72e59e",
"pv c #72e68b",
"cy c #72e89b",
"nT c #72e98e",
"g4 c #72ea8f",
"mP c #72ea90",
"e3 c #72eb8f",
"ae c #72eb90",
"j3 c #72ec8e",
"jE c #72ec90",
".5 c #72ed8b",
"eU c #72ed8d",
"fe c #72ed8e",
"#l c #72ee8b",
"#y c #72ee8c",
"dq c #72ee8d",
"iX c #72ee8f",
"#7 c #72ef8c",
"iw c #72f18c",
"vm c #73d6c8",
"dN c #73d6c9",
"px c #73e68c",
"o5 c #73e78e",
".w c #73e79d",
"oy c #73e88e",
"nY c #73e98f",
"ml c #73ea8f",
"mQ c #73ea90",
"nl c #73ea91",
"ng c #73eb8c",
"mK c #73eb8e",
"hC c #73eb90",
"hX c #73eb91",
"ij c #73eb92",
"gu c #73ec8d",
"i4 c #73ec91",
"jh c #73ed91",
"#. c #73ee8c",
"hf c #73ee8f",
"iW c #73f08e",
"hK c #74d6c9",
"aE c #74e4a5",
"#0 c #74e5a0",
"#D c #74e5a2",
"b8 c #74e6a2",
"ox c #74e88f",
"ov c #74e98e",
"mk c #74eb90",
"iJ c #74eb91",
"gL c #74eb92",
"jl c #74ec92",
".6 c #74ed8c",
"a6 c #74ee8c",
".9 c #74ee8d",
".7 c #74ee8e",
"#x c #74ef8e",
"dj c #75d7ca",
"#e c #75e4a5",
".j c #75e5a4",
"kh c #75e691",
".x c #75e6a1",
"dQ c #75e8a1",
"op c #75e98f",
"or c #75e990",
"do c #75e99f",
"g3 c #75eb92",
"gM c #75ec90",
"lF c #75ec91",
"gs c #75ec92",
"f7 c #75ec93",
"gZ c #75ed91",
"jB c #75ed92",
"gH c #75ed93",
"dc c #75ee8e",
"fz c #75ee90",
"iY c #75ee92",
"hO c #75f08f",
"vl c #76d7ca",
"g2 c #76e692",
"o1 c #76e88f",
"oq c #76e990",
"nW c #76ea92",
"nh c #76eb8f",
"l6 c #76eb90",
"l0 c #76ec92",
"i3 c #76ec93",
"hB c #76ec94",
"lp c #76ed91",
"j2 c #76ed93",
"iI c #76ed94",
"cA c #76ee8e",
".8 c #76ee8f",
"dT c #76ef8f",
"am c #76ef90",
"eD c #77d08b",
"mB c #77d7cb",
"eO c #77d7cc",
".g c #77e4a6",
"gJ c #77e893",
"o2 c #77e990",
"o3 c #77e991",
"gp c #77e994",
"mL c #77eb91",
"nX c #77eb93",
"hW c #77ec94",
"ek c #77ed93",
"gm c #77ed94",
"f6 c #77ed95",
"#m c #77ee8f",
"#w c #77ef90",
"dD c #77ef91",
"li c #77ef92",
"gY c #77f090",
"ke c #77f093",
"uX c #78d7cc",
"bn c #78e2ac",
".y c #78e5a6",
"o4 c #78e991",
"fk c #78e994",
"f3 c #78ea94",
"no c #78eb93",
"mR c #78eb94",
"fG c #78eb95",
"lK c #78ec93",
"k6 c #78ed91",
"fM c #78ed92",
"eF c #78ed94",
"gr c #78ed95",
"fi c #78ed96",
"#L c #78ef91",
"jS c #78ef95",
"ix c #78f192",
"jv c #79d8cd",
"dJ c #79e1af",
"ag c #79e3ac",
"nU c #79eb93",
"gt c #79ec93",
"jX c #79ec95",
"kJ c #79ed93",
"f8 c #79ed95",
"cl c #79ed96",
"gn c #79ed97",
"gl c #79ee96",
"jW c #79ee97",
"#n c #79ef92",
"fW c #79ef94",
"kS c #7ad8ce",
".z c #7ae4ab",
"cZ c #7ae6aa",
"nq c #7ae792",
"os c #7aea93",
"nm c #7aec95",
"fn c #7aed95",
"ii c #7aed96",
"j1 c #7aed97",
"g. c #7aee93",
"kl c #7aee96",
"ck c #7aee97",
"#o c #7aef92",
"#v c #7aef93",
"ac c #7af093",
"gF c #7af094",
"iy c #7af095",
"ia c #7af193",
"kA c #7af194",
"n. c #7bd8ce",
".h c #7be4ad",
"np c #7bec95",
"fJ c #7bed97",
"hu c #7bee96",
"c8 c #7bee97",
"cj c #7bee98",
"#p c #7bef94",
"gG c #7bef96",
"a2 c #7ce2b1",
"ou c #7cea94",
"ot c #7ceb95",
"mS c #7cec96",
"fK c #7ced97",
"e2 c #7cee97",
"cH c #7cee98",
"dz c #7cee99",
"#u c #7cef95",
"ib c #7cf096",
"hc c #7dd9d0",
"l4 c #7ddd93",
"e0 c #7de095",
"er c #7de1b5",
"#1 c #7de3b2",
"nV c #7deb96",
"lo c #7ded97",
"bZ c #7dee99",
"#q c #7def95",
"#s c #7def96",
"ad c #7def97",
"dA c #7def99",
"#M c #7df095",
"#r c #7df096",
"hq c #7ed9d0",
"f9 c #7eee97",
"k5 c #7eee98",
"f5 c #7eee99",
"kY c #7eee9a",
"aJ c #7eef95",
"ez c #7eef97",
"lj c #7eef98",
"c6 c #7eef99",
"cI c #7eef9a",
"#t c #7ef097",
"ab c #7ef197",
"oK c #7fd9d1",
".i c #7fe4b4",
"dn c #7fe5b3",
"nn c #7fed98",
"fL c #7fee97",
"k2 c #7fee9a",
"iC c #7fee9c",
"f4 c #7fef9a",
"b0 c #7fef9b",
"#N c #7ff098",
"kX c #7ff298",
"sp c #80d9d2",
"lJ c #80ee99",
"mU c #80ee9a",
"hV c #80ee9b",
"#P c #80ef98",
"g0 c #80ef9a",
"d. c #80ef9b",
"#O c #80f098",
"#V c #80f198",
"#U c #80f199",
"e# c #81dad2",
"va c #81dad3",
"mV c #81ee9a",
"#Q c #81ef99",
"kI c #81ef9a",
"eE c #81ef9b",
"bY c #81ef9c",
"#T c #81f09a",
"jV c #81f09c",
"ku c #82dad3",
"mT c #82ef9b",
"l2 c #82ef9c",
"kH c #82ef9d",
"fh c #82ef9e",
"#R c #82f09b",
"c9 c #82f09c",
"jU c #82f09d",
"aw c #82f29a",
"gV c #83dad4",
"k4 c #83ef9c",
"kk c #83ef9d",
"#S c #83f09b",
"fX c #83f09c",
"ci c #83f09d",
"av c #83f19b",
"kf c #83f19c",
"kB c #83f29b",
"rN c #84dad4",
"lI c #84ef9c",
"lm c #84ef9d",
"ln c #84ef9e",
"#8 c #84f09c",
"c7 c #84f09e",
"aa c #84f19c",
"jT c #84f19d",
"dB c #84f19e",
"cx c #85dbd5",
"dy c #85f09e",
"d# c #85f09f",
"dC c #85f19d",
"#9 c #85f19e",
"aS c #85f29e",
"dL c #86dbd6",
"k3 c #86f09e",
"bX c #86f09f",
"an c #86f19c",
"a. c #86f19e",
"a# c #86f19f",
"kC c #86f29e",
"aR c #86f29f",
"iS c #87dbd6",
"k# c #87dbd7",
"l3 c #87f09f",
"e1 c #87f19f",
"aq c #87f1a0",
"bB c #87f1a1",
"kg c #87f29f",
"au c #87f2a0",
"h8 c #88dbd7",
"cG c #88f1a0",
"bC c #88f1a1",
"at c #88f2a0",
"as c #88f2a1",
"cs c #89dcd8",
"bD c #89f1a1",
"bA c #89f1a2",
"f1 c #89f1a3",
"ar c #89f2a1",
"aQ c #89f2a2",
"rc c #8adcd8",
"pN c #8adcd9",
"iz c #8af0a3",
"ch c #8af1a2",
"ax c #8af2a2",
"cg c #8af2a3",
"cS c #8bdcda",
"ap c #8bf1a1",
"aP c #8bf1a2",
"cM c #8bf2a0",
"bW c #8bf2a4",
"m8 c #8cdcda",
"vb c #8cdddb",
"aK c #8cf1a1",
"cw c #8ddddb",
"aB c #8df0a3",
"bQ c #8df1a1",
"bE c #8df2a4",
"ct c #8edddb",
"fY c #8ef0a6",
"ff c #8ef2a3",
"cF c #8ef2a6",
"qq c #8fdddc",
"cX c #8fdddd",
"ao c #8ff2a4",
"oM c #90dddd",
"c5 c #90f3a8",
"es c #91dede",
"fA c #91f2a6",
"dO c #92dede",
"cY c #92dedf",
"bJ c #92f1a5",
"jL c #93dedf",
"hi c #93f1aa",
"rb c #94dee0",
"r. c #94dfe0",
"db c #94f2aa",
"cU c #95dfe1",
"oN c #96dfe1",
"oL c #96dfe2",
"bd c #96f3ac",
"dx c #96f4ab",
"rP c #97dfe2",
"bz c #97f3ac",
"dY c #97f4ad",
"e. c #98dfe3",
"rO c #98e0e3",
"da c #98f3ac",
"tZ c #99e0e3",
"bt c #99f2ac",
"cf c #99f3af",
"oa c #9ae0e4",
"s1 c #9ae0e5",
"f0 c #9af2af",
"di c #9be0e5",
"aT c #9bf4af",
"s0 c #9ce0e5",
"cu c #9ce0e6",
"dP c #9ce1e6",
"fZ c #9cf2b2",
"aL c #9cf3af",
"be c #9cf4b0",
"kR c #9de1e6",
"m9 c #9de1e7",
"a7 c #9df3ae",
"c2 c #9df3af",
"dU c #9df4b0",
"cv c #9ee1e7",
"cT c #9fe1e8",
"cE c #9ff4b3",
"sZ c #a0e1e8",
"dK c #a0e2e9",
"iB c #a0f3b5",
"b1 c #a0f4b4",
"aO c #a0f5b4",
"bo c #a1e2e9",
"a3 c #a1e2ea",
"hg c #a1f3b4",
"Qt c #a2e2ea",
"cB c #a3f3b5",
"fE c #a3f3b8",
"eY c #a4f3b8",
"iA c #a5f3b9",
"c4 c #a5f4b9",
"ay c #a5f6b6",
"ce c #a6f5b8",
"dw c #a9f5bb",
"cm c #adf6bb",
"eg c #adf7bf",
"bV c #aef5be",
"fB c #aef5bf",
"aY c #b2f5c0",
"bj c #b3f6c0",
"b3 c #b4f6c1",
"cd c #b4f6c3",
"bF c #b4f6c4",
"cJ c #b5f7c4",
"if c #b6f5c6",
"ee c #b7f7c5",
"dv c #baf7c8",
"aA c #bbf7c8",
"aM c #bbf7c9",
"bc c #bef8cc",
"az c #bff8ca",
"ic c #c1f7cd",
"fg c #c1f7ce",
"c# c #c1f8cd",
"by c #c4f8d0",
"a8 c #c6f8d0",
"cL c #c6f9d2",
"aN c #c8f8d2",
"fD c #c8f8d4",
"eA c #c9f8d4",
"fC c #c9f8d5",
"eV c #caf8d5",
"a9 c #cbf9d5",
"hw c #ccf8d8",
"aU c #cdf9d7",
"hv c #cef8d9",
"cc c #d3fadc",
"eB c #d3fadd",
"cK c #d4fadd",
"bf c #d4fbdc",
"b. c #d5fadd",
"bu c #d6fadd",
"bU c #d6fade",
"c3 c #d7fbdf",
"b2 c #d8fbe0",
"hP c #d9fae1",
"hR c #dafae2",
"hh c #dbfae3",
"bT c #dbfbe3",
"bb c #ddfbe4",
"ie c #ddfbe5",
"id c #dffae5",
"aX c #e0fbe6",
"cC c #e1fbe7",
"dr c #e1fce7",
"bx c #e2fbe7",
"bG c #e2fbe8",
"bI c #e2fce6",
"eX c #e2fce9",
"bS c #e3fbe9",
"bi c #e4fce9",
"b# c #e4fcea",
"ca c #e5fcea",
"aV c #e5fdea",
"cb c #e6fceb",
"ba c #e7fcec",
"bR c #e7fdec",
"aW c #e8fcec",
"bv c #e8fced",
"eW c #e9fcee",
"bg c #e9fded",
"bw c #e9fdee",
"bh c #eafdee",
"bH c #eafdef",
"dV c #ebfdee",
"cD c #ebfdef",
"du c #eefdf1",
"ef c #eefdf2",
"dt c #effdf3",
"hQ c #f2fdf5",
"ds c #f4fef6",
"dX c #f8fef9",
"dW c #f8fefa",
"QtQtQtQtQtQtQtQtQtQtQtQtQtQtQtQtQtQtQtQtQtQtQtQtQtQtQtQtQtQtQtQtQtQtQtQtQtQtQtQtQtQtQtQtQtQtQtQtQtQtQtQtQtQtQtQtQtQtQtQtQtQtQtQt",
"QtQtQtQtQtQtQtQtQtQtQtQtQtQtQtQtQtQtQtQtQtQtQtQtQtQtQtQtQtQtQtQtQtQtQtQtQtQtQtQtQtQtQtQtQtQtQtQtQtQtQtQtQtQtQtQtQtQtQtQtQtQtQtQt",
"QtQtQtQtQtQtQtQtQtQtQtQtQtQtQtQtQtQtQtQtQtQtQtQtQtQtQt.#.a.b.c.d.e.f.g.h.iQtQtQtQtQtQtQtQtQtQtQtQtQtQtQtQtQtQtQtQtQtQtQtQtQtQtQt",
"QtQtQtQtQtQtQtQtQtQtQtQtQtQtQtQtQtQtQtQtQtQtQt.j.k.l.m.n.o.p.p.q.r.s.t.u.v.w.x.y.zQtQtQtQtQtQtQtQtQtQtQtQtQtQtQtQtQtQtQtQtQtQtQt",
"QtQtQtQtQtQtQtQtQtQtQtQtQtQtQtQtQtQtQtQt.A.B.C.D.E.F.G.H.I.J.K.L.M.N.O.P.Q.R.S.T.U.V.e.jQtQtQtQtQtQtQtQtQtQtQtQtQtQtQtQtQtQtQtQt",
"QtQtQtQtQtQtQtQtQtQtQtQtQtQtQtQtQtQt.W.X.Y.Z.0.1.L.2.3.4.5.6.7.8.8.8.8.9#.##.3#a.1#b#c#d.d#eQtQtQtQtQtQtQtQtQtQtQtQtQtQtQtQtQtQt",
"QtQtQtQtQtQtQtQtQtQtQtQtQtQtQtQt#f#g#h#i#j#a#k#l.9#m#n#o#p#p#q#q#r#s#t#r#u#v#w#x#y#z#A#b#B#C#DQtQtQtQtQtQtQtQtQtQtQtQtQtQtQtQtQt",
"QtQtQtQtQtQtQtQtQtQtQtQtQtQt#E#F#G#H#I#J#K#x#L#p#M#N#O#P#Q#R#S#S#S#S#R#S#T#U#V#r#v#w#.#W#X#Y#Z#0#1QtQtQtQtQtQtQtQtQtQtQtQtQtQtQt",
"QtQtQtQtQtQtQtQtQtQtQtQtQt#2#3#4#5#6#7#L#o#q#N#T#S#8#9#9a.a.a#a.a.a.a.a.a.#9aa#S#Uabac#L#radae.DafagQtQtQtQtQtQtQtQtQtQtQtQtQtQt",
"QtQtQtQtQtQtQtQtQtQtQtQtahaiajakalamanaoap#S#8#9a#aqararararararasasasatatauaua#a.avawaxayazaAaBaCaDaEQtQtQtQtQtQtQtQtQtQtQtQtQt",
"QtQtQtQtQtQtQtQtQtQtQtaFaGaHaIaJaKaLaMaNaAaOaPatarararararaQaQaQaQaQaQarararararasaRaSaTaUaVaWaXaYaZa0a1a2QtQtQta3a3Qta3QtQtQtQt",
"QtQtQtQtQtQtQtQtQtQta0a4a5a6a7a8a9b.b#babbbcbdaQaQaQaQaQaxaxaxaxaxaxaxaQaQaQaQarararasbebfbgbhbgbibjbkblbmbnQtboa3boboboboa3a3a3",
"QtQtQtQtQtQtQtQtQtbpbqbrbsbtbuaWbvbgbwbgbxbybzaQaQaxaQaxaxaxaxaxaxaxaxaxaxaxbAbBbCbDarbEbFbGbHbhbgbIbJbKbLbMboboboa3boboboboa3a3",
"QtQtQtQtQtQtQtQtaFbNbObPbQaUbRbhbhbSbTbUa9bVbWaQaxaxaxaxaxaxaxaxaxaxaxaxbAbXbYbZbZb0aqaraxb1b2bHbhbRb3b4b5b6b7boa3Qtboa3a3boa3Qt",
"QtQtQtQtQtQtQtb8b9#5c.#oc#cabhbhcbcccdcecfcgaQaxaxaxaxaxaxchbAaxaxaxaxbAcibZcjckclckbYaQararbebGbgaVcmcncocpcqcrcsctcua3a3cvcwcx",
"QtQtQtQtQtQtQtcycz#6cAcBcCbhcDbabTbccEcFaQaQaxaxaxaxaxaxbAcicicGaxaxaxaqbZcHcHckclckcIbDaQararcJcKcLcMalcNcOcPcQcRcScTQtQtcUcVcW",
"cXcYcva3QtQtcZc0c1#lc2bbbhcDbwc3byc4c5cgaQaQaxaxaxaxaxaxbDc6bZc7axaxaxc7cHcHcHcjc8ckc9axaQa#d.d#dadb#tdcdddedfdgdhboQtQtQtdidjdk",
"dldmcscua3dndodpdq#NdrdsdtduaWdvdwdxcgaQaQaxaxaxaxaxaxaxaxdyc9aqaxaxaxa#cIcHdzc9cid.a#axbCcIdzdAdBdC#UdDdEdFdGdHdIdJQtQtQtdKdLdM",
"dldldNdOdPdQdRdSdTdUdVdWdXdXcbdYdZdZdZdZdZdZd0d1axaxaxaxaxaxaxaxaxaxaxaxa#c9c7d2dZdZdZdZdZdZdZd3asa.#sd4d5bKd6d7d8d9QtQte.e#dldl",
"dldlcWe#eaebeced#oeebvduefbhegbAdZdZdZdZdZdZdZeheiaxaxcicIcIdychaxchd#d.c9bCaxd2dZdZdZdZdZdZdZejardyekel#bemeneoepeqeresetdldldl",
"dldldleuevewexeyezeAbhbHbheBcFbYdZdZdZdZdZdZdZdZeCeDaqcHclcleEbDaxaxbDc7bXaxaxd2dZdZdZdZdZdZdZejbDdyeFeGeHeIeJeKeLeMeNeOePdldldl",
"dldldleQeReSeTeU#TeVbveWeXeYdAcldZdZdZdZdZdZdZdZdZeZe0bZckcjc7axaxaxaxaxaxaxaxd2dZdZdZdZdZdZdZd3bCe1e2e3e4e5e6e7e8e9f.f#dldldldl",
"dldldlfafbfcfdfefffgcCeXeVfhcjfidZdZdZdZdZdZdZdZdZdZfjfkclclcjbAaxaxaxaxaxaxaqfldZdZdZdZdZdZdZfmbCe1eEfnfnfofpfqfrfsftfudldldldl",
"dldldlfvfwfxfyfzfAfBfCfDfEb0dzcldZdZdZdZdZdZdZdZdZdZdZfFfGclclcHciaqaqbAaxaqd.fHdZdZdZdZdZdZdZfIbXc9fJfKfLfMe5fNfOfPfQfRdldldldl",
"dldldlfSfTfUfVfWfXfYfZf0f1c7bZcldZdZdZdZdZdZdZdZdZdZdZdZf2f3clclc8f4f4aqaxdybZfHdZdZdZdZdZdZdZd3f5f6f7f8f9g.g#gagbgcgdgegfdldldl",
"dldlggghgigjgk#rglgmclgnficjckcldZdZdZdZdZdZdZdZdZdZdZdZdZgogpclclcHcichaxcGc9fldZdZdZdZdZdZdZgqgrgmf7gsfngtgugvgwgxgygzgAdldldl",
"dldlgBgCgDgEgFgGgHgmgrfifificlcldZdZdZdZdZdZdZdZdZdZdZdZdZdZgIgJclckc7axaxaxaxd2dZdZdZdZdZdZdZgKgrgmf7gLgLgMgNgOgPgQgRgSgTdldldl",
"gUgVgWgXc.gYgFgZg0dzgrfificlclcldZdZdZdZdZdZdZdZdZdZdZdZdZdZdZg1g2ckc9bDaxaxaxd2dZdZdZdZdZdZdZgKgrgmf7g3g4g5g6g7g8g9h.h#hadldleQ",
"hbhchdbkhedDhfhgbbhhhifificlclcldZdZdZdZdZdZgKhjdZdZdZdZdZdZdZdZhkfkcjbYdyaqbAd2dZdZdZdZdZdZdZgqgrgmf7g3g4g5g6hlhmg9hnhohpdldldl",
"dkhqhrhshtdqhuhvbgdXhwfificlclcldZdZdZdZdZdZhxhydZdZdZdZdZdZdZdZdZhzfJc8cHbZbYhAdZdZdZdZdZdZdZd3cHgrhBgshCeGhDhEg8hFhGhHhIhJdldl",
"hKe.hLhMhNhOg0hPbahQhRfificlclcldZdZdZdZdZdZhxclhSdZdZdZdZdZdZdZdZdZhTckckc8c8hUdZdZdZdZdZdZdZejhVclhWgshXhYhZh0h1h2h3h4h5h6dldk",
"h7h8h9i.i#iaibicidieiffifificlc6dZdZdZdZdZdZhxclgpigdZdZdZdZdZdZdZdZdZihclckiifHdZdZdZdZdZdZdZfmclgrhBgsijikilimfNinh3ioipiqiris",
"itcwiuiviwixiyiziAiBiCfifificlc8dZdZdZdZdZdZhxclcliDiEdZdZdZdZdZdZdZdZiFiGclcliHdZdZdZdZdZdZdZgKgrgriIgsiJikiKiLiMiniNiOiPiQh7iR",
"itiSiTiUiViWiXiYiIgrgrfifificlcldZdZdZdZdZdZhxclclcliZi0dZdZdZdZdZdZdZdZi1i2cliHdZdZdZdZdZdZdZgKgrgrf6i3i4i5aZi6i7i8i9j.j#jaeQgU",
"ePjbjcjdjejfjgjhgHglclclfifificldZdZdZdZdZdZhxclclclcljijjdZdZdZdZdZdZdZdZjkcliHdZdZdZdZdZdZdZgKclgrf6i3jli5jmjnjojpjqjrjsjtdldl",
"jujvjwjxjyjzjAiXjBc8ckckb0d.dzfidZdZdZdZdZdZhxclclclclcljCdZdZdZdZdZdZdZdZdZjDiHdZdZdZdZdZdZdZgKiigrf6gHgsjE.OjFjGjHjIjJjKdldldl",
"cxjLjMjNjOjPjQjRjSjTjUjVbAjWfifidZdZdZdZdZdZhxclclclclcljXgodZdZdZdZdZdZdZdZjYjZdZdZdZdZdZdZdZj0ckj1gmj2gsj3j4j5j6j7j8j9k.dldlcW",
"k#e.kakbkckdjQkekfkgcGaqbZjWfifidZdZdZdZdZdZhxclclclclclclkhkidZdZdZdZdZdZdZdZkjdZdZdZdZdZdZdZfmkkd#g0kli4elkmknkokpkqkrksktePdk",
"kudLkvkwkxkykzkAkBkCasbBcidAglgrdZdZdZdZdZdZkDfic8cHckclckcjkEkFdZdZdZdZdZdZdZdZdZdZdZdZdZdZdZkGkHaqa#kIkJj3kKkLkMkNkOkPkQkRhqkS",
"dldlkTkUkVkykWixkXkfa#cikYbZj1grdZdZdZdZdZdZkZjWeEdyd.f4b0bYa#k0k1dZdZdZdZdZdZdZdZdZdZdZdZdZdZgqk2dyk3k4k5k6k7k8k9l.l#lalbkudMdl",
"dldldllcldlelflglhliljhuf8cHcjiIdZdZdZdZdZdZhxj1c6d.cicGbAaxaxaqlkdZdZdZdZdZdZdZdZdZdZdZdZdZdZlllmlnk4lolplqlrlsltlulvlwjulxkTdl",
"dldldllylzlAlBlClD.OlElFi3e2fJf7dZdZdZdZdZdZlGcHc8grfJlmbDarara#g0lHdZdZdZdZdZdZdZdZdZdZdZdZdZkGlIlJlKg5lLlMlNlOlPlQlRlScWeQcWdl",
"dldleQhblTlUlVlWlXfylYlZe3l0i3gLdZdZdZdZdZdZl1f5clhWcll2cGbDbDcGl3l4l5dZdZdZdZdZdZdZdZdZdZdZdZj0fKl6l7l8l9m.m#mambmcmdmecWeQdkeQ",
"ePcWhbePmfmgmhmimj.Ifo.Pg5mkaemldZdZdZdZdZdZmmg3i3hWfKlmbXl3bXlmk3k3mnmodZdZdZdZdZdZdZdZdZdZdZmpmqmrmsmtmumvmwmxmymzmAmBiseuirjb",
"djiRcVePmCmDmEmFmGmHmImJmKmLmMmNdZdZdZdZdZdZmOg4mPmQmRmSlomTlmmUmVmUkkmWdZdZdZdZdZdZdZdZdZdZdZmXmYmZmtm0m1m2m3m4m5m6m7kte#esm8hc",
"cTm9n.cWdln#nanbncndnenfngnhnimrdZdZdZdZdZdZnjmqmNnkikg4nlnmnnnonmnpnonqnrdZdZdZdZdZdZdZdZdZdZnsntnunvnwnxnynznAnBnCnDitcSa3Qtbo",
"QtdKcsnEdlnFnGnHnInJnKk8nLnMnNnOdZdZdZdZdZdZnPnQnRnSmQnTnTnUnVnWnXnYnZnYn0dZdZdZdZdZdZdZdZdZdZn1n2n3n4n5n6n7n8n9o.o#jbhKdiQtQtQt",
"Qta3oacskujuobocodoeofogohoiojokdZdZdZdZdZdZolomonooopoqorosototouovowoxoyozdZdZdZdZdZdZdZdZdZoAoBoCoDoEoFoGoHoIoJdldlcWoKoLoMoN",
"QtQtQta3a3bobooOoPoQoRoSnxoToUoVdZdZdZdZdZdZoWoXoYoZo0o1o2o3o4o4o4o5o6o7o8o9p.dZdZdZdZdZdZdZdZp#papbpcpdoGpeoIpfpgdldldldldkdkcV",
"QtboboQtQtQtQtphpipjpkplpmpnpoppdZdZdZdZdZdZpqprpsptpspupvpvpwpxpypzpApBpCpDpEdZdZdZdZdZdZdZdZpFpGpHpIoGpJpKpLpMdldldldldlcWcWkT",
"cvcSpNdPboQtQtQtpOpPpQpRm4pSpTpUpVpWpXpXpYpYpZp0p1p2p3p4p5prp6p5p7p6p8p9q.q#qaqbqcqdqeqfqgqhqiqjqkqlqmoHqnqoqpdldldldldldkcWcWcW",
"cTqqcwdiQtQtQtQtQtqrqsqtquqvqwqxqyqzqAqBqCqDqEqFqGqHqIqJqKp0qKqLqMqNqOqPqQqRqSqTqUqVqWqXqYqZq0q1q2q3q4q5q6q7q8dmq9dMjuoar.hKr#ra",
"QtQtrbrccvQtQtQtQtQtrdrerfrgrhrirjrkrlrmrnrorprorqrrrsqFrtruqFqJrvqTrwqUrxryrzrArBrCrDrErFrGq2rHrIrJqnrKrLrMrNrNn.rbcTQtbooacYrO",
"QtQtrPcsdPQtQtQtQtQtQtrQrRrSrTrUrVrWrXrYrZr0r1r2r3r4r5r6r7r8rzr9rArAs.rBrCs#sasbscsdsesfsgshsisjskslsmsnsoa3QtcUspcXboQtQtQtQtQt",
"bocYoKm8cvQtQtQtQtQtQtQtsqsrssstsusvswsxsyszsAsBsCsDsEsFscscsGsHsHsHsIsJsKsLsMsNsOsPsQsRsSsjsTsUsVsWsXsYQtQtsZs0m8escvdKa3bodPa3",
"s1djePktm8a3QtQtQtQtQtQtQts2s3s4s5s6s7s8s9t.t#tatbsztctdtetftgtetftfthtitjtktlrStmtntotptqtrtstttutvkRQtQtbom9cucvcTcvcTbodipNcv",
"cTkugUtwcYQtQtQtQtQtQtQtQtcTtxtytztAtBtCtDtEs7tFs7tGtHtItJtKtKtLtMtNtKtOtPtQtFtGtRtStrtTtUtVtWtXtYcwQtQtQta3cTcTdKbosZsZbosZtZbo",
"QtcvcwrbboQtQtQtQtQtQtQtQtm9cxcYt0t1t2t3t4t5t6t7t8t9tEu.tEu#uaubuctBs6udueufuguguhuiujukulumunuocXboQtQtQtQtboboa3QtQtQtQtQtQtQt",
"QtQta3QtQtQtQtQtQtQtQtQtQta3cvsZQtboupuqurusutuuuvt4uwuxt4uyuzuzuzuyuyt4uAt6uwuxuBuCuDuEuFuGcXdPboQtQtQtQtQtQtQtQtQtQtQtQtQtQtQt",
"QtQtQtQtQtQtQtQtQtQtQtQtQtQtQtQtsZoMoKpNupuHuIuJuKuLuMuNuOuOuOuPuPuQuQuQuRuSuRuTuruUs2uVcTboQtQtQtQtQtQtQtQtQtQtQtQtQtQtQtQtQtQt",
"QtQtQtQtQtQtQtQtQtQtQtQtQtQtQtQtrPoKuWuXrOQtuYuZu0u1u2u3uru4u4ururu5u6u7u8u9v.v#u0QtQtQtQtQtQtQtQtQtQtQtQtQtQtQtQtQtQtQtQtQtQtQt",
"QtQtQtQtcvcuboQtQtQtQtQtQtQtQtdijvhcvavbcvQtQtQtQtQtvcvdu0vevevfvgvhvivjvkcTcvdKQtQtQtQtQtQtQtQtQtQtQtQtQtQtQtQtQtQtQtQtQtQtQtQt",
"QtQtbocYvlvmcwboboboQtQtQtQtQts1cshqoaa3QtQtQtQtQtQtQtQtQtQtQtQtQta3a3Qta3bodKboQtQtQtQtQtQtQtQtQtQtQtQtQtQtQtQtQtQtQtQtQtQtQtQt",
"QtQta3oLiSdLjLbodKdKa3QtQtQtQtsZcurOcTQtQtQtQtQtQtQtQtQtQtQtQtQtQtQtQtQtQtQta3QtQtQtQtQtQtQtQtQtQtQtQtQtQtQtQtQtQtQtQtQtQtQtQtQt"};
