/* XPM */
static char *dummy[]={
"64 64 1521 2",
"dM c #000000",
"jB c #000101",
"eg c #010101",
"ok c #010302",
"eC c #020302",
"nb c #020402",
"fJ c #030503",
"kh c #030704",
"f6 c #040704",
"gU c #040705",
"dL c #040805",
"f4 c #050a07",
"hQ c #060b07",
"q# c #071109",
"qH c #08140b",
"qG c #09140b",
"qF c #09140c",
"f5 c #0a120c",
"jW c #0a140c",
"qE c #0a160d",
"qI c #0c1a0f",
"nR c #0d1810",
"jg c #0d1a10",
"ml c #0e1a11",
"dN c #0e1b11",
"ol c #0e1d11",
"h6 c #112115",
"qJ c #112615",
"jX c #122216",
"lC c #122316",
"ki c #132417",
"mK c #142417",
"fI c #142719",
"pJ c #142918",
"iq c #152a1a",
"nG c #152c1b",
"qD c #17321c",
"ef c #182a1c",
"qK c #183920",
"he c #1a3220",
"q. c #1b3921",
"gr c #1d3924",
"iR c #203a26",
"f7 c #203d27",
"eD c #243f2a",
"oO c #24452b",
"qL c #24552f",
"iS c #264a2f",
"qa c #296236",
"uS c #29ca4a",
"uR c #29cb49",
"ur c #29cb4a",
"uq c #29cc49",
"t1 c #29cc4a",
"dK c #2a4931",
"hd c #2a5334",
"uT c #2aca4d",
"up c #2acc4a",
"t0 c #2acd49",
"tr c #2ace49",
"hw c #2b5536",
"tZ c #2bcd4a",
"tq c #2bce4a",
"rB c #2bd04b",
"pg c #2c6238",
"us c #2ccb52",
"uo c #2ccd4b",
"tY c #2cce4c",
"rC c #2cce4e",
"qZ c #2cd04b",
"uD c #2dcb4b",
"uE c #2dcb4c",
"t2 c #2dcb50",
"tp c #2dd04c",
"qn c #2dd04e",
"pt c #2dd04f",
"uQ c #2ecc4c",
"tX c #2ecf4d",
"sg c #2ecf4e",
"q0 c #2ecf54",
"sf c #2ed04d",
"sS c #2ed04e",
"rA c #2ed14e",
"kg c #2f5b3a",
"jC c #2f5c3a",
"sT c #2fd04d",
"sR c #2fd04e",
"o2 c #2fd055",
"o1 c #2fd24e",
"uU c #30cb59",
"qo c #30ce58",
"tW c #30d04f",
"ps c #30d24f",
"qm c #30d250",
"pV c #30d350",
"oy c #30d352",
"gT c #31603d",
"ut c #31cc5c",
"pW c #31cf59",
"tV c #31d050",
"to c #31d150",
"se c #31d250",
"n2 c #31d451",
"kY c #32623e",
"ul c #32ce50",
"uk c #32ce51",
"sQ c #32d251",
"rz c #32d252",
"q6 c #32d451",
"ox c #32d552",
"hP c #33633f",
"mm c #33663f",
"lY c #336740",
"mL c #336840",
"qM c #337b44",
"um c #33ce51",
"ug c #33cf52",
"hX c #33da58",
"hG c #33da59",
"nF c #34613f",
"jh c #346641",
"lj c #346740",
"kZ c #346741",
"uC c #34cc50",
"uM c #34cd51",
"ts c #34cf53",
"pu c #34cf60",
"tn c #34d253",
"sd c #34d353",
"q5 c #34d358",
"qY c #34d453",
"o0 c #34d553",
"pr c #34d554",
"qu c #34d655",
"if c #34d95a",
"kp c #34da54",
"m8 c #356440",
"jV c #356842",
"va c #35cb5d",
"u8 c #35cc51",
"uN c #35ce51",
"rD c #35ce63",
"sU c #35d055",
"n3 c #35d15d",
"sP c #35d254",
"q7 c #35d554",
"kq c #35d55e",
"nn c #35d754",
"j5 c #35db55",
"eh c #365f40",
"pK c #367c46",
"uF c #36ce52",
"tS c #36d055",
"tm c #36d255",
"j6 c #36d560",
"iC c #36d95e",
"kL c #36da57",
"p9 c #377743",
"uP c #37ce53",
"q1 c #37ce66",
"uH c #37cf53",
"uI c #37cf54",
"uf c #37d055",
"tR c #37d056",
"tT c #37d155",
"ry c #37d456",
"jM c #37d661",
"n1 c #37d856",
"i3 c #37d861",
"jL c #37db56",
"ho c #37db60",
"jp c #37dc57",
"i2 c #37dd57",
"nH c #387246",
"u4 c #38cd53",
"uL c #38ce54",
"qp c #38ce6a",
"un c #38d054",
"oz c #38d064",
"tQ c #38d157",
"tl c #38d257",
"sO c #38d357",
"rO c #38d455",
"kM c #38d463",
"qX c #38d557",
"no c #38d55c",
"my c #38d561",
"jq c #38d763",
"p1 c #38d95a",
"iB c #38de57",
"e0 c #396443",
"dO c #396945",
"iT c #397047",
"vk c #39cc54",
"vl c #39cc55",
"v# c #39cc5c",
"u5 c #39cd53",
"uA c #39cd54",
"u. c #39cf53",
"ub c #39d055",
"uh c #39d156",
"tP c #39d158",
"rN c #39d357",
"qt c #39d55e",
"ow c #39d858",
"d# c #3a6644",
"vj c #3acc55",
"vm c #3acc56",
"uV c #3acc6a",
"u6 c #3acd54",
"u7 c #3ace54",
"uB c #3ace55",
"u# c #3acf54",
"tC c #3acf56",
"s1 c #3ad156",
"uj c #3ad157",
"tN c #3ad259",
"rP c #3ad557",
"ql c #3ad659",
"pU c #3ad759",
"oZ c #3ad859",
"p2 c #3ada5a",
"ie c #3adf59",
"hW c #3ae05b",
"da c #3b6745",
"d. c #3b6b47",
"vo c #3bcc56",
"vn c #3bcc57",
"u3 c #3bce57",
"uO c #3bcf55",
"ua c #3bcf56",
"o3 c #3bcf70",
"tD c #3bd056",
"s0 c #3bd057",
"s2 c #3bd256",
"tM c #3bd259",
"tO c #3bd25a",
"tk c #3bd35a",
"sN c #3bd45a",
"rx c #3bd55a",
"pq c #3bd85a",
"qv c #3bd85b",
"u9 c #3ccd58",
"v. c #3ccd5b",
"pX c #3cce73",
"uG c #3ccf56",
"t9 c #3ccf58",
"uJ c #3cd057",
"tE c #3cd157",
"sp c #3cd356",
"ig c #3cd470",
"sc c #3cd55b",
"oD c #3cd967",
"nm c #3cda5b",
"kK c #3cde5b",
"vi c #3dcd5a",
"uu c #3dcd70",
"sh c #3dd065",
"tU c #3dd259",
"s3 c #3dd358",
"sM c #3dd55c",
"qW c #3dd65c",
"q8 c #3dd75a",
"m. c #3dd862",
"n9 c #3dde63",
"hF c #3de05e",
"vb c #3ecc6c",
"u2 c #3ecd5b",
"uz c #3ece5c",
"uK c #3ed058",
"tB c #3ed05b",
"uc c #3ed159",
"tF c #3ed258",
"so c #3ed25a",
"ti c #3ed35c",
"sq c #3ed458",
"tj c #3ed45c",
"n0 c #3edb5d",
"ko c #3ede5d",
"oE c #3ede61",
"vp c #3fcc5d",
"s4 c #3fd35a",
"th c #3fd35d",
"mW c #3fd46a",
"n8 c #3fd970",
"mx c #3fda5e",
"mU c #3fdb5d",
"k7 c #3fdd5d",
"pC c #3fdd5e",
"gq c #407d4f",
"nc c #408050",
"qC c #408f50",
"u1 c #40cd5e",
"u0 c #40ce5f",
"t3 c #40cf6a",
"ue c #40d25a",
"tG c #40d35a",
"tg c #40d45f",
"iD c #40d478",
"sr c #40d55b",
"sL c #40d55f",
"sb c #40d65e",
"rw c #40d75f",
"qk c #40d85f",
"mV c #40d95f",
"ov c #40db5f",
"p3 c #40dc5f",
"ns c #40dd6b",
"j4 c #40e05f",
"jK c #40e060",
"db c #41724c",
"c9 c #417b4f",
"tA c #41cf5f",
"ud c #41d25b",
"tH c #41d35c",
"s5 c #41d45c",
"tf c #41d55f",
"pT c #41d960",
"gI c #41e162",
"nt c #41e263",
"kX c #428051",
"m9 c #428252",
"t8 c #42cf61",
"mz c #42d27b",
"te c #42d560",
"oC c #42d57a",
"pp c #42da60",
"gd c #42e067",
"jo c #42e161",
"o. c #42e162",
"gx c #438052",
"oP c #439456",
"vh c #43cd63",
"rE c #43cf80",
"ui c #43d35d",
"tI c #43d45d",
"tL c #43d45f",
"sK c #43d561",
"td c #43d562",
"sa c #43d762",
"rQ c #43d85d",
"qV c #43d862",
"gK c #43d976",
"oY c #43db62",
"k8 c #43db63",
"lr c #43dd60",
"mT c #43dd61",
"iA c #43e162",
"mZ c #43e16a",
"n4 c #44d17b",
"j7 c #44d181",
"i4 c #44d380",
"tJ c #44d45f",
"s6 c #44d55e",
"tc c #44d562",
"ss c #44d65e",
"qw c #44db62",
"ge c #44dc73",
"pD c #44de63",
"gJ c #44df6b",
"k6 c #44e064",
"hn c #44e263",
"h5 c #458455",
"vA c #45cd65",
"jN c #45d284",
"sJ c #45d663",
"qj c #45d963",
"mY c #45da7b",
"p4 c #45dc64",
"nl c #45de64",
"sZ c #46d166",
"m# c #46d478",
"s7 c #46d560",
"sI c #46d664",
"st c #46d760",
"s# c #46d764",
"o5 c #46d778",
"qU c #46d865",
"nr c #46d880",
"p0 c #46db68",
"l9 c #46dd62",
"pB c #46de65",
"lq c #46e164",
"kJ c #46e165",
"qN c #47ac5f",
"uZ c #47ce68",
"uy c #47cf68",
"sV c #47d26c",
"jr c #47d385",
"tK c #47d561",
"q4 c #47d56f",
"rR c #47d862",
"rv c #47d865",
"pS c #47db66",
"g7 c #47dd71",
"id c #47e365",
"hV c #47e465",
"hE c #47e466",
"m0 c #47e567",
"kC c #488d59",
"vB c #48ce6a",
"tz c #48d06b",
"sn c #48d36a",
"rM c #48d46c",
"s8 c #48d662",
"sH c #48d766",
"o6 c #48dc6d",
"lM c #48dd66",
"nZ c #48de66",
"mA c #48de7a",
"mB c #48e56c",
"dc c #498557",
"vg c #49cf6b",
"t7 c #49d06b",
"su c #49d863",
"s. c #49d867",
"q9 c #49db64",
"po c #49db68",
"oX c #49dd68",
"ou c #49de68",
"g6 c #49e26a",
"nu c #49e568",
"vz c #4ace6c",
"s9 c #4ad765",
"r9 c #4ad868",
"ru c #4ad968",
"lL c #4ae066",
"mc c #4ae178",
"kn c #4ae369",
"e7 c #4ae36c",
"iU c #4b945e",
"vC c #4bcf6f",
"oA c #4bd089",
"tt c #4bd371",
"sv c #4bd865",
"sG c #4bd869",
"rS c #4bda65",
"qT c #4bda69",
"qi c #4bdb69",
"o7 c #4be069",
"gc c #4be46a",
"g5 c #4be568",
"vG c #4cce71",
"vF c #4ccf71",
"mX c #4cd18a",
"np c #4cd57a",
"tb c #4cd767",
"r8 c #4cd96b",
"p5 c #4cdd6a",
"mw c #4ce068",
"mS c #4ce06b",
"oF c #4ce369",
"j3 c #4ce46b",
"fv c #4ce46c",
"eJ c #4ce56b",
"vf c #4dd071",
"t6 c #4dd075",
"t. c #4dd866",
"sE c #4dd96a",
"rt c #4dda6b",
"pR c #4ddc6b",
"fz c #4ddd80",
"o9 c #4de26a",
"gH c #4de56b",
"jJ c #4de56c",
"vD c #4ecf72",
"t# c #4ed868",
"sw c #4ed968",
"sF c #4ed96b",
"r7 c #4ed96c",
"mb c #4ed98d",
"rT c #4eda68",
"fS c #4edb83",
"pA c #4edd6f",
"lP c #4edd88",
"pE c #4ee06c",
"o8 c #4ee26a",
"eK c #4ee371",
"iz c #4ee56d",
"mC c #4ee86d",
"c8 c #4f955f",
"vE c #4fcf73",
"uW c #4fd086",
"r6 c #4fd96d",
"qh c #4fdb6d",
"ls c #4fdb71",
"pn c #4fdd6d",
"fT c #4fde81",
"nk c #4fe16e",
"p. c #4fe26d",
"em c #4fe46d",
"i1 c #4fe56e",
"hm c #4fe66b",
"nI c #509c62",
"h7 c #509c63",
"kW c #509d63",
"vy c #50d075",
"uY c #50d076",
"ta c #50d86a",
"sx c #50d96b",
"r. c #50dc6a",
"lQ c #50e579",
"kP c #50e777",
"m1 c #50e86f",
"kt c #50e974",
"vq c #51d076",
"si c #51d287",
"k9 c #51d97c",
"gL c #51d990",
"rU c #51db6b",
"r5 c #51db6f",
"g8 c #51db8c",
"gf c #51df81",
"nY c #51e16f",
"gM c #51e17f",
"lp c #51e46e",
"k5 c #51e46f",
"o# c #51e66e",
"e6 c #51e66f",
"ir c #52a065",
"qb c #52c56c",
"vc c #52d086",
"ve c #52d178",
"sy c #52da6d",
"sD c #52da6e",
"qS c #52db6f",
"r4 c #52db70",
"rs c #52db71",
"pQ c #52dd70",
"qx c #52de6d",
"oW c #52de6f",
"ot c #52df70",
"l8 c #52e26c",
"fA c #52e477",
"fQ c #52e573",
"lb c #52e57e",
"fP c #52e670",
"md c #52e873",
"jA c #53a367",
"ux c #53d179",
"qg c #53dd71",
"lx c #53e185",
"fR c #53e27a",
"mv c #53e36f",
"ks c #53e482",
"kI c #53e572",
"nv c #53e771",
"k. c #53e77d",
"eZ c #549362",
"eB c #549463",
"vH c #54d07b",
"qs c #54d97b",
"lN c #54da7b",
"rr c #54db72",
"qR c #54dc71",
"r# c #54dd6e",
"p# c #54e372",
"g9 c #54e37f",
"fw c #54e478",
"fb c #54e47a",
"fU c #54e57a",
"fu c #54e773",
"dd c #55a368",
"pf c #55a967",
"t5 c #55d183",
"fy c #55d895",
"sz c #55db6e",
"rV c #55dc6e",
"qf c #55dd74",
"pP c #55de74",
"pm c #55df73",
"pF c #55e073",
"el c #55e773",
"jP c #55e87b",
"lc c #55eb78",
"nS c #56b16b",
"sA c #56db70",
"rW c #56dc71",
"rq c #56dc74",
"qQ c #56dd74",
"oV c #56e074",
"mR c #56e374",
"dY c #56e575",
"km c #56e675",
"ic c #56e772",
"g4 c #56e871",
"ly c #56e97a",
"gw c #57a76b",
"vd c #57d180",
"qP c #57dd75",
"ra c #57de71",
"lK c #57e471",
"oG c #57e672",
"gg c #57e67b",
"eI c #57e775",
"gb c #57e874",
"kQ c #57ec77",
"k# c #57ec78",
"sY c #58d481",
"sB c #58db71",
"pZ c #58db7f",
"rX c #58dc71",
"sC c #58dc72",
"r3 c #58dc75",
"rp c #58dd75",
"qe c #58de75",
"os c #58e177",
"nj c #58e276",
"kO c #58e28b",
"en c #58e37c",
"j2 c #58e777",
"gN c #58e77b",
"m2 c #58e877",
"mD c #58ea77",
"nQ c #59a36b",
"vx c #59d281",
"qO c #59db75",
"ri c #59dd75",
"qd c #59de77",
"qy c #59e073",
"pl c #59e077",
"nX c #59e277",
"dq c #59e47c",
"cP c #59e67b",
"gG c #59e775",
"fO c #59e777",
"#f c #59e978",
"#g c #59ea76",
"ty c #5ad384",
"rY c #5add75",
"rh c #5add76",
"rb c #5ade74",
"qc c #5ade78",
"pO c #5adf78",
"e8 c #5ae281",
"pa c #5ae377",
"cp c #5ae779",
"dX c #5ae874",
"dp c #5ae877",
"jI c #5ae878",
"hl c #5ae974",
"hD c #5ae975",
"f3 c #5bb270",
"kf c #5bb271",
"p6 c #5be176",
"mu c #5be476",
"e5 c #5be879",
"ku c #5bed79",
"gs c #5cb372",
"cR c #5cdb95",
"pz c #5cdc85",
"rc c #5cde76",
"oU c #5ce17a",
"cQ c #5ce285",
"l7 c #5ce576",
"cO c #5ce977",
"#G c #5ceb78",
"me c #5cec79",
"li c #5db272",
"uX c #5dd38a",
"sm c #5dd687",
"rZ c #5dde76",
"r0 c #5dde77",
"qz c #5de077",
"bL c #5de67f",
"oH c #5de777",
"ga c #5de87a",
"b5 c #5de87b",
"jn c #5de97b",
"#F c #5de97d",
"fB c #5dea7c",
"ld c #5ded7c",
"dJ c #5ea56f",
"fk c #5eb875",
"vM c #5ed288",
"pL c #5ee07c",
"pk c #5ee17b",
"or c #5ee37c",
"b6 c #5ee581",
"lo c #5ee77a",
"oa c #5ee879",
"k4 c #5ee87b",
"gF c #5ee87c",
"bK c #5ee97b",
"h. c #5ee97d",
"fV c #5eea7c",
"ju c #5eeb80",
"ka c #5eed7c",
"n. c #5fc077",
"dv c #5fd1ba",
"vN c #5fd28a",
"uw c #5fd48b",
"rd c #5fdf79",
"ni c #5fe47d",
"cq c #5fe484",
"mQ c #5fe57d",
"eQ c #5fe588",
"kH c #5fe87d",
"ft c #5fe97d",
".W c #5fe982",
"mf c #5fec7e",
"lR c #5fed7d",
"fl c #60a870",
"nJ c #60b674",
"fa c #60d1ba",
"cW c #60d1bb",
"vw c #60d38c",
"r2 c #60de79",
"rf c #60de7a",
"re c #60df7a",
"rg c #60df7b",
"oT c #60e27e",
"mt c #60e67d",
"eH c #60e87e",
"do c #60e97a",
"iy c #60e97c",
"co c #60ea7b",
"mE c #60ea7e",
"#h c #60eb7c",
"lw c #61d1bb",
"hH c #61d2bc",
"rL c #61d78d",
"r1 c #61de7a",
"rj c #61df7b",
"ro c #61e07c",
"la c #61e09a",
"qA c #61e17a",
"pN c #61e17d",
"dZ c #61e389",
"bl c #61e684",
"ob c #61e87c",
"#3 c #61e982",
"bN c #61ea7f",
"gh c #61ea80",
"#4 c #61eb7d",
"fc c #61eb7e",
"#H c #61ec7c",
"i8 c #61ec7f",
"kR c #61ed80",
"f# c #62d2bc",
"qB c #62e07c",
"fx c #62e28d",
"oq c #62e480",
"lJ c #62e87d",
"dW c #62ea7d",
"bq c #62ea80",
"iG c #62eb81",
"ii c #62eb83",
"jQ c #62ee7f",
"lX c #63b978",
"du c #63d2bd",
"vO c #63d490",
"p7 c #63e37c",
"pG c #63e47e",
"nW c #63e482",
"pb c #63e57e",
".n c #63e783",
"fN c #63e980",
"e4 c #63e981",
"a4 c #63e982",
"eR c #63ea83",
"b4 c #63eb7f",
"oB c #64d2bd",
"dw c #64d2be",
"kl c #64e981",
"ai c #64e985",
".X c #64e986",
"g3 c #64ea7d",
"nw c #64ea7f",
".G c #64ea80",
"gO c #64ea82",
"bO c #64eb7e",
"kv c #64ee83",
"ma c #65d3bf",
"vL c #65d493",
"lt c #65da92",
"pM c #65e281",
"eL c #65e390",
"op c #65e483",
"nh c #65e683",
".o c #65e785",
".m c #65e787",
"bp c #65e789",
".F c #65e982",
"aG c #65e986",
"br c #65eb7f",
"a5 c #65eb81",
"aj c #65eb82",
"cN c #65ec7f",
"#5 c #65ec80",
"#i c #65ec81",
"ji c #66c87e",
"iV c #66c87f",
"hp c #66d3bf",
"vr c #66d596",
"tu c #66d795",
"sW c #66d895",
"q3 c #66d994",
"dr c #66e195",
"p8 c #66e37f",
"oI c #66e781",
"mP c #66e784",
"a0 c #66e78b",
".p c #66e886",
"j1 c #66ea83",
"hk c #66eb7f",
"aH c #66eb83",
"fC c #66ec84",
"kb c #66ed84",
"jf c #67c77e",
"rF c #67d3c0",
"vv c #67d495",
"vP c #67d496",
"cr c #67e096",
"rk c #67e181",
"ph c #67e283",
"pj c #67e383",
"bM c #67e392",
"oS c #67e484",
".l c #67e68c",
"#E c #67e68e",
"hZ c #67e88a",
"k3 c #67e984",
".E c #67e987",
"ek c #67ea84",
"hC c #67eb81",
".H c #67eb82",
"bk c #67eb85",
"mg c #67ec85",
"#I c #67ed82",
"h0 c #67ed83",
"lS c #67ef82",
"jv c #67f082",
"oj c #68c57e",
"jO c #68d3c0",
"rH c #68d3c1",
"rl c #68e181",
"b7 c #68e295",
"oM c #68e685",
"nV c #68e686",
"ms c #68e885",
".q c #68e887",
".r c #68e888",
"b9 c #68e989",
"hs c #68e98a",
"#b c #68ea86",
"#c c #68ea88",
".Y c #68ea89",
"hU c #68eb82",
".I c #68eb84",
"fW c #68eb86",
"ij c #68ee82",
"i9 c #68f083",
"jR c #68f085",
"ip c #69c17e",
"nK c #69c87f",
"i5 c #69d4c1",
"qr c #69db98",
"rn c #69e282",
"pi c #69e384",
".a c #69e592",
"oL c #69e685",
"aF c #69e790",
"ah c #69e791",
"l6 c #69e881",
".s c #69e88b",
"#B c #69e98a",
"es c #69e98e",
"fs c #69ea85",
".Z c #69ea8a",
"nx c #69eb84",
"jH c #69eb85",
"cz c #69eb88",
"ak c #69ec83",
"eS c #69ed84",
"iH c #69ee83",
"le c #69ee87",
"h8 c #6ad084",
"eP c #6ad4c2",
"rm c #6ae282",
"bm c #6ae394",
"pH c #6ae583",
"oQ c #6ae586",
"ng c #6ae788",
"#d c #6ae78e",
"#2 c #6ae792",
"e3 c #6aea88",
".J c #6aeb85",
".1 c #6aeb86",
"kG c #6aeb88",
".0 c #6aeb89",
"dn c #6aec83",
".K c #6aec84",
"#A c #6aec86",
"gi c #6aec88",
"cn c #6aed83",
"fd c #6aed85",
"#j c #6aed86",
"kB c #6bd285",
"vs c #6bd4c2",
"l. c #6bd4c3",
"vQ c #6bd59d",
"lO c #6bda9f",
"om c #6be387",
".# c #6be495",
"er c #6be49b",
"pc c #6be685",
"og c #6be789",
"oJ c #6be885",
".D c #6be88f",
"#Y c #6be98b",
"oc c #6bea85",
"ln c #6bea86",
"hA c #6bea88",
"aC c #6bea8c",
"g2 c #6beb85",
"ix c #6beb87",
"#X c #6beb88",
".L c #6bec85",
"et c #6bec89",
"#6 c #6bed85",
"lT c #6bee87",
"jS c #6bee88",
"kw c #6bee89",
"ee c #6cbd7e",
"de c #6ccf84",
"jY c #6cd085",
"d3 c #6cd4c3",
"cV c #6cd4c4",
"vK c #6cd59c",
".b c #6ce495",
"oo c #6ce688",
"#C c #6ce693",
"aD c #6ce694",
"nU c #6ce789",
"oK c #6ce887",
"mO c #6ce889",
".T c #6ce98e",
"ib c #6cea88",
"ia c #6cea89",
"i0 c #6ceb88",
"jl c #6ceb89",
"aZ c #6ceb8a",
".2 c #6cec86",
".N c #6cec87",
"aI c #6ced85",
"c. c #6ced86",
"#a c #6ced87",
"#J c #6cee86",
"lz c #6cf087",
"c7 c #6dbf80",
"hR c #6dd587",
"i7 c #6dd5c4",
"vu c #6dd69f",
"pI c #6de586",
".c c #6de596",
"hr c #6de59a",
"pd c #6de687",
".V c #6de694",
"oh c #6de78a",
"#Z c #6de793",
"hJ c #6de795",
".t c #6de890",
".U c #6de891",
".S c #6dea8c",
"hj c #6deb87",
"iZ c #6deb89",
"iw c #6deb8a",
"dV c #6dec87",
"jm c #6dec89",
".O c #6dec8a",
"mF c #6dec8b",
"bP c #6ded86",
".M c #6ded88",
"c1 c #6ded8a",
"kc c #6dee8a",
"t4 c #6ed5c5",
"pY c #6edc9f",
".k c #6ee598",
"nT c #6ee78a",
".C c #6ee796",
"of c #6ee88b",
"lI c #6eea87",
"ny c #6eea89",
"hB c #6eeb88",
"gE c #6eeb89",
".P c #6eeb8b",
".Q c #6eeb8c",
".R c #6eeb8d",
"bs c #6eed87",
"#z c #6eed88",
"gP c #6eed8c",
"#W c #6eee88",
"iE c #6fd5c6",
"vR c #6fd6a1",
"e9 c #6fe1a2",
"eo c #6fe29f",
"a1 c #6fe49c",
".d c #6fe599",
"nf c #6fe88c",
"nB c #6fe98c",
"nC c #6fe98d",
"hz c #6fea8c",
"hT c #6feb89",
"fr c #6feb8b",
"eG c #6feb8c",
"j0 c #6fec8b",
"ej c #6fec8c",
"dz c #6fec8f",
".3 c #6fed88",
"#k c #6fee88",
"jT c #6fee8c",
"na c #70c985",
"dP c #70cd86",
"i6 c #70d5c6",
"vS c #70d7a3",
"gV c #70dc8b",
".e c #70e59a",
"pe c #70e68a",
".A c #70e69c",
"oR c #70e78a",
"on c #70e78b",
".B c #70e79b",
".u c #70e896",
"ne c #70e98d",
"l5 c #70ea8a",
"mG c #70ea8d",
"iY c #70ea8e",
"c0 c #70ea95",
"hi c #70eb8b",
"iv c #70eb8e",
"d8 c #70eb92",
"al c #70ee89",
"h# c #70ee8a",
"eu c #70ee8b",
"d9 c #70ee8c",
"hK c #70ef89",
"h1 c #70ef8a",
"jw c #70f18a",
"rI c #71d5c7",
"j8 c #71d6c7",
"af c #71e69c",
".v c #71e798",
"oi c #71e98d",
"nD c #71e98f",
"e2 c #71eb8e",
"jG c #71eb8f",
".4 c #71ec89",
"fM c #71ec8c",
"mh c #71ec8f",
"## c #71ed8a",
"eT c #71ee8c",
"kx c #71ee8f",
"#K c #71ef8a",
"lU c #71ef8e",
"ik c #71f08b",
"iI c #71f18b",
"eO c #72d6c7",
"js c #72d6c8",
"jD c #72df8d",
"h9 c #72e08e",
".f c #72e59e",
"cy c #72e89b",
"nd c #72e98f",
"hy c #72ea8f",
"m5 c #72ea90",
"fq c #72eb8f",
"ae c #72eb90",
"kF c #72ec8e",
"kk c #72ec90",
".5 c #72ed8b",
"fe c #72ed8d",
"fD c #72ed8e",
"#l c #72ee8b",
"#y c #72ee8c",
"dA c #72ee8d",
"jy c #72ee8f",
"#7 c #72ef8c",
"j. c #72f18c",
"nL c #73d389",
"nP c #73d68a",
"vU c #73d6c8",
"d4 c #73d6c9",
"gt c #73e28f",
".w c #73e79d",
"oN c #73e88e",
"m4 c #73ea8f",
"od c #73eb8c",
"nz c #73eb8e",
"i# c #73eb90",
"iu c #73eb91",
"iX c #73eb92",
"g1 c #73ec8d",
"jF c #73ec91",
"jU c #73ed91",
"#. c #73ee8c",
"hL c #73ee8f",
"jx c #73f08e",
"ih c #74d6c9",
"nN c #74d88c",
"lB c #74da8e",
"aE c #74e4a5",
"#0 c #74e5a0",
"#D c #74e5a2",
"b8 c #74e6a2",
"mM c #74ea91",
"m3 c #74eb90",
"jk c #74eb91",
"hg c #74eb92",
"jZ c #74ec92",
".6 c #74ed8c",
"a6 c #74ee8c",
".9 c #74ee8d",
".7 c #74ee8e",
"#x c #74ef8e",
"dt c #75d7ca",
"nO c #75d88c",
"#e c #75e4a5",
".j c #75e5a4",
".x c #75e6a1",
"d7 c #75e8a1",
"dy c #75e99f",
"hx c #75eb92",
"hh c #75ec90",
"mi c #75ec91",
"gZ c #75ec92",
"gA c #75ec93",
"hu c #75ed91",
"kd c #75ed92",
"hc c #75ed93",
"dm c #75ee8e",
"fX c #75ee90",
"jz c #75ee92",
"il c #75f08f",
"vT c #76d7ca",
"kj c #76e591",
"oe c #76eb8f",
"mN c #76eb90",
"n# c #76eb92",
"mH c #76ec92",
"jE c #76ec93",
"i. c #76ec94",
"l4 c #76ed91",
"kE c #76ed93",
"jj c #76ed94",
"cA c #76ee8e",
".8 c #76ee8f",
"e. c #76ef8f",
"am c #76ef90",
"nq c #77d7cb",
"f. c #77d7cc",
"nM c #77d88e",
"m7 c #77d98e",
".g c #77e4a6",
"nA c #77eb91",
"it c #77ec94",
"eF c #77ed93",
"gR c #77ed94",
"gz c #77ed95",
"#m c #77ee8f",
"#w c #77ef90",
"dU c #77ef91",
"lV c #77ef92",
"ht c #77f090",
"kS c #77f093",
"vt c #78d7cc",
"bn c #78e2ac",
".y c #78e5a6",
"ke c #78ea94",
"mn c #78eb94",
"fH c #78eb95",
"mr c #78ec93",
"lZ c #78ec94",
"lD c #78ec95",
"lH c #78ed91",
"g# c #78ed92",
"e1 c #78ed94",
"gY c #78ed95",
"fj c #78ed96",
"#L c #78ef91",
"ky c #78ef95",
"j# c #78f192",
"j9 c #79d8cd",
"d0 c #79e1af",
"ag c #79e3ac",
"g0 c #79ec93",
"kV c #79ec95",
"lm c #79ed93",
"gB c #79ed95",
"cl c #79ed96",
"gS c #79ed97",
"gQ c #79ee96",
"eX c #79ee97",
"#n c #79ef92",
"gj c #79ef94",
"lv c #7ad8ce",
"gX c #7ada91",
".z c #7ae4ab",
"cZ c #7ae6aa",
"iW c #7aec95",
"fL c #7aed95",
"eY c #7aed96",
"kD c #7aed97",
"gD c #7aee93",
"hf c #7aee96",
"ck c #7aee97",
"#o c #7aef92",
"#v c #7aef93",
"ac c #7af093",
"ha c #7af094",
"ja c #7af095",
"iJ c #7af193",
"lf c #7af194",
"n7 c #7bd8ce",
".h c #7be4ad",
"gv c #7be996",
"mo c #7bec96",
"f9 c #7bed97",
"h2 c #7bee96",
"dg c #7bee97",
"cj c #7bee98",
"#p c #7bef94",
"hb c #7bef96",
"a2 c #7ce2b1",
"nE c #7cec97",
"df c #7ced97",
"fp c #7cee97",
"cH c #7cee98",
"dQ c #7cee99",
"#u c #7cef95",
"iK c #7cf096",
"hI c #7dd9d0",
"eM c #7de1b5",
"#1 c #7de3b2",
"l3 c #7ded97",
"hS c #7dee98",
"bZ c #7dee99",
"#q c #7def95",
"#s c #7def96",
"ad c #7def97",
"dR c #7def99",
"#M c #7df095",
"#r c #7df096",
"hY c #7ed9d0",
"gC c #7eee97",
"lG c #7eee98",
"gy c #7eee99",
"k1 c #7eee9a",
"aJ c #7eef95",
"eU c #7eef97",
"lW c #7eef98",
"iP c #7eef99",
"cI c #7eef9a",
"#t c #7ef097",
"ab c #7ef197",
"pv c #7fd9d1",
".i c #7fe4b4",
"dx c #7fe5b3",
"g. c #7fee97",
"m6 c #7fee99",
"k0 c #7fee9a",
"je c #7fee9c",
"gu c #7fef9a",
"b0 c #7fef9b",
"#N c #7ff098",
"lA c #7ff298",
"sX c #80d9d2",
"l0 c #80ee99",
"mp c #80ee9a",
"is c #80ee9b",
"#P c #80ef98",
"hv c #80ef9a",
"di c #80ef9b",
"#O c #80f098",
"#V c #80f198",
"#U c #80f199",
"eq c #81dad2",
"vI c #81dad3",
"gW c #81e899",
"#Q c #81ef99",
"ll c #81ef9a",
"fm c #81ef9b",
"bY c #81ef9c",
"#T c #81f09a",
"mj c #81f09b",
"kA c #81f09c",
"l# c #82dad3",
"ei c #82e599",
"fK c #82e59a",
"mJ c #82ef9c",
"lk c #82ef9d",
"fG c #82ef9e",
"#R c #82f09b",
"dh c #82f09c",
"eA c #82f09d",
"aw c #82f29a",
"hq c #83dad4",
"lF c #83ef9c",
"k2 c #83ef9d",
"#S c #83f09b",
"gk c #83f09c",
"ci c #83f09d",
"ez c #83f09e",
"av c #83f19b",
"kT c #83f19c",
"lg c #83f29b",
"sj c #84dad4",
"mq c #84ef9c",
"l1 c #84ef9d",
"l2 c #84ef9e",
"#8 c #84f09c",
"f8 c #84f09d",
"gp c #84f09e",
"aa c #84f19c",
"kz c #84f19d",
"dS c #84f19e",
"cx c #85dbd5",
"mI c #85ef9e",
"eE c #85f09e",
"dj c #85f09f",
"dT c #85f19d",
"#9 c #85f19e",
"fn c #85f19f",
"aS c #85f29e",
"d2 c #86dbd6",
"c6 c #86eb9e",
"lE c #86f09e",
"bX c #86f09f",
"an c #86f19c",
"a. c #86f19e",
"a# c #86f19f",
"ey c #86f1a0",
"lh c #86f29e",
"aR c #86f29f",
"jt c #87dbd6",
"kN c #87dbd7",
"mk c #87f09f",
"fo c #87f19f",
"aq c #87f1a0",
"bB c #87f1a1",
"kU c #87f29f",
"au c #87f2a0",
"iF c #88dbd7",
"dI c #88efa0",
"iQ c #88f0a0",
"cG c #88f1a0",
"bC c #88f1a1",
"at c #88f2a0",
"as c #88f2a1",
"cs c #89dcd8",
"bD c #89f1a1",
"bA c #89f1a2",
"go c #89f1a3",
"ar c #89f2a1",
"aQ c #89f2a2",
"rK c #8adcd8",
"qq c #8adcd9",
"jb c #8af0a3",
"ch c #8af1a2",
"ax c #8af2a2",
"cg c #8af2a3",
"cS c #8bdcda",
"ap c #8bf1a1",
"aP c #8bf1a2",
"cM c #8bf2a0",
"bW c #8bf2a4",
"n5 c #8cdcda",
"vJ c #8cdddb",
"aK c #8cf1a1",
"cw c #8ddddb",
"aB c #8df0a3",
"bQ c #8df1a1",
"bE c #8df2a4",
"ct c #8edddb",
"gl c #8ef0a6",
"fE c #8ef2a3",
"cF c #8ef2a6",
"q2 c #8fdddc",
"cX c #8fdddd",
"ao c #8ff2a4",
"px c #90dddd",
"c5 c #90f3a8",
"eN c #91dede",
"fY c #91f2a6",
"d5 c #92dede",
"cY c #92dedf",
"bJ c #92f1a5",
"kr c #93dedf",
"hO c #93f1aa",
"rJ c #94dee0",
"rG c #94dfe0",
"dl c #94f2aa",
"cU c #95dfe1",
"py c #96dfe1",
"pw c #96dfe2",
"bd c #96f3ac",
"dH c #96f4ab",
"sl c #97dfe2",
"bz c #97f3ac",
"ed c #97f4ad",
"ep c #98dfe3",
"sk c #98e0e3",
"dk c #98f3ac",
"uv c #99e0e3",
"bt c #99f2ac",
"cf c #99f3af",
"o4 c #9ae0e4",
"tx c #9ae0e5",
"gn c #9af2af",
"ds c #9be0e5",
"aT c #9bf4af",
"tw c #9ce0e5",
"cu c #9ce0e6",
"d6 c #9ce1e6",
"gm c #9cf2b2",
"aL c #9cf3af",
"be c #9cf4b0",
"lu c #9de1e6",
"n6 c #9de1e7",
"a7 c #9df3ae",
"c2 c #9df3af",
"e# c #9df4b0",
"cv c #9ee1e7",
"cT c #9fe1e8",
"cE c #9ff4b3",
"tv c #a0e1e8",
"d1 c #a0e2e9",
"jd c #a0f3b5",
"b1 c #a0f4b4",
"aO c #a0f5b4",
"bo c #a1e2e9",
"a3 c #a1e2ea",
"hM c #a1f3b4",
"Qt c #a2e2ea",
"cB c #a3f3b5",
"f2 c #a3f3b8",
"fi c #a4f3b8",
"jc c #a5f3b9",
"c4 c #a5f4b9",
"ay c #a5f6b6",
"ce c #a6f5b8",
"dG c #a9f5bb",
"cm c #adf6bb",
"ex c #adf7bf",
"bV c #aef5be",
"fZ c #aef5bf",
"aY c #b2f5c0",
"bj c #b3f6c0",
"b3 c #b4f6c1",
"cd c #b4f6c3",
"bF c #b4f6c4",
"cJ c #b5f7c4",
"iO c #b6f5c6",
"ev c #b7f7c5",
"dF c #baf7c8",
"aA c #bbf7c8",
"aM c #bbf7c9",
"bc c #bef8cc",
"az c #bff8ca",
"iL c #c1f7cd",
"fF c #c1f7ce",
"c# c #c1f8cd",
"by c #c4f8d0",
"a8 c #c6f8d0",
"cL c #c6f9d2",
"aN c #c8f8d2",
"f1 c #c8f8d4",
"eV c #c9f8d4",
"f0 c #c9f8d5",
"ff c #caf8d5",
"a9 c #cbf9d5",
"h4 c #ccf8d8",
"aU c #cdf9d7",
"h3 c #cef8d9",
"cc c #d3fadc",
"eW c #d3fadd",
"cK c #d4fadd",
"bf c #d4fbdc",
"b. c #d5fadd",
"bu c #d6fadd",
"bU c #d6fade",
"c3 c #d7fbdf",
"b2 c #d8fbe0",
"im c #d9fae1",
"io c #dafae2",
"hN c #dbfae3",
"bT c #dbfbe3",
"bb c #ddfbe4",
"iN c #ddfbe5",
"iM c #dffae5",
"aX c #e0fbe6",
"cC c #e1fbe7",
"dB c #e1fce7",
"bx c #e2fbe7",
"bG c #e2fbe8",
"bI c #e2fce6",
"fh c #e2fce9",
"bS c #e3fbe9",
"bi c #e4fce9",
"b# c #e4fcea",
"ca c #e5fcea",
"aV c #e5fdea",
"cb c #e6fceb",
"ba c #e7fcec",
"bR c #e7fdec",
"aW c #e8fcec",
"bv c #e8fced",
"fg c #e9fcee",
"bg c #e9fded",
"bw c #e9fdee",
"bh c #eafdee",
"bH c #eafdef",
"ea c #ebfdee",
"cD c #ebfdef",
"dE c #eefdf1",
"ew c #eefdf2",
"dD c #effdf3",
"in c #f2fdf5",
"dC c #f4fef6",
"ec c #f8fef9",
"eb c #f8fefa",
"QtQtQtQtQtQtQtQtQtQtQtQtQtQtQtQtQtQtQtQtQtQtQtQtQtQtQtQtQtQtQtQtQtQtQtQtQtQtQtQtQtQtQtQtQtQtQtQtQtQtQtQtQtQtQtQtQtQtQtQtQtQtQtQt",
"QtQtQtQtQtQtQtQtQtQtQtQtQtQtQtQtQtQtQtQtQtQtQtQtQtQtQtQtQtQtQtQtQtQtQtQtQtQtQtQtQtQtQtQtQtQtQtQtQtQtQtQtQtQtQtQtQtQtQtQtQtQtQtQt",
"QtQtQtQtQtQtQtQtQtQtQtQtQtQtQtQtQtQtQtQtQtQtQtQtQtQtQt.#.a.b.c.d.e.f.g.h.iQtQtQtQtQtQtQtQtQtQtQtQtQtQtQtQtQtQtQtQtQtQtQtQtQtQtQt",
"QtQtQtQtQtQtQtQtQtQtQtQtQtQtQtQtQtQtQtQtQtQtQt.j.k.l.m.n.o.p.p.q.r.s.t.u.v.w.x.y.zQtQtQtQtQtQtQtQtQtQtQtQtQtQtQtQtQtQtQtQtQtQtQt",
"QtQtQtQtQtQtQtQtQtQtQtQtQtQtQtQtQtQtQtQt.A.B.C.D.E.F.G.H.I.J.K.L.M.N.O.P.Q.R.S.T.U.V.e.jQtQtQtQtQtQtQtQtQtQtQtQtQtQtQtQtQtQtQtQt",
"QtQtQtQtQtQtQtQtQtQtQtQtQtQtQtQtQtQt.W.X.Y.Z.0.1.L.2.3.4.5.6.7.8.8.8.8.9#.##.3#a.1#b#c#d.d#eQtQtQtQtQtQtQtQtQtQtQtQtQtQtQtQtQtQt",
"QtQtQtQtQtQtQtQtQtQtQtQtQtQtQtQt#f#g#h#i#j#a#k#l.9#m#n#o#p#p#q#q#r#s#t#r#u#v#w#x#y#z#A#b#B#C#DQtQtQtQtQtQtQtQtQtQtQtQtQtQtQtQtQt",
"QtQtQtQtQtQtQtQtQtQtQtQtQtQt#E#F#G#H#I#J#K#x#L#p#M#N#O#P#Q#R#S#S#S#S#R#S#T#U#V#r#v#w#.#W#X#Y#Z#0#1QtQtQtQtQtQtQtQtQtQtQtQtQtQtQt",
"QtQtQtQtQtQtQtQtQtQtQtQtQt#2#3#4#5#6#7#L#o#q#N#T#S#8#9#9a.a.a#a.a.a.a.a.a.#9aa#S#Uabac#L#radae.DafagQtQtQtQtQtQtQtQtQtQtQtQtQtQt",
"QtQtQtQtQtQtQtQtQtQtQtQtahaiajakalamanaoap#S#8#9a#aqararararararasasasatatauaua#a.avawaxayazaAaBaCaDaEQtQtQtQtQtQtQtQtQtQtQtQtQt",
"QtQtQtQtQtQtQtQtQtQtQtaFaGaHaIaJaKaLaMaNaAaOaPatarararararaQaQaQaQaQaQarararararasaRaSaTaUaVaWaXaYaZa0a1a2QtQtQta3a3Qta3QtQtQtQt",
"QtQtQtQtQtQtQtQtQtQta0a4a5a6a7a8a9b.b#babbbcbdaQaQaQaQaQaxaxaxaxaxaxaxaQaQaQaQarararasbebfbgbhbgbibjbkblbmbnQtboa3boboboboa3a3a3",
"QtQtQtQtQtQtQtQtQtbpbqbrbsbtbuaWbvbgbwbgbxbybzaQaQaxaQaxaxaxaxaxaxaxaxaxaxaxbAbBbCbDarbEbFbGbHbhbgbIbJbKbLbMboboboa3boboboboa3a3",
"QtQtQtQtQtQtQtQtaFbNbObPbQaUbRbhbhbSbTbUa9bVbWaQaxaxaxaxaxaxaxaxaxaxaxaxbAbXbYbZbZb0aqaraxb1b2bHbhbRb3b4b5b6b7boa3Qtboa3a3boa3Qt",
"QtQtQtQtQtQtQtb8b9#5c.#oc#cabhbhcbcccdcecfcgaQaxaxaxaxaxaxchbAaxaxaxaxbAcibZcjckclckbYaQararbebGbgaVcmcncocpcqcrcsctcua3a3cvcwcx",
"QtQtQtQtQtQtQtcycz#6cAcBcCbhcDbabTbccEcFaQaQaxaxaxaxaxaxbAcicicGaxaxaxaqbZcHcHckclckcIbDaQararcJcKcLcMalcNcOcPcQcRcScTQtQtcUcVcW",
"cXcYcva3QtQtcZc0c1#lc2bbbhcDbwc3byc4c5cgaQaQaxaxaxaxaxc6c7c8c9d.d#dadbdcdddedfcjdgckdhaxaQa#didjdkdl#tdmdndodpdqdrboQtQtQtdsdtdu",
"dvdwcscua3dxdydzdA#NdBdCdDdEaWdFdGdHcgaQaQaxaxaxdIdJdKdLdMdMdMdMdMdMdMdMdMdMdNdOdPdia#axbCcIdQdRdSdT#UdUdVdWdXdYdZd0QtQtQtd1d2d3",
"dvdvd4d5d6d7d8d9e.e#eaebececcbedaQaQaQbAaxaxaxeeefdMdMdMdMdMdMdMdMdMdMdMdMdMdMdMegeheiaxbDdicIa#asa.#sejekbKelemeneoQtQtepeqdvdv",
"dvdvcWeqereseteu#oevbvdEewbhexbAeyezeAdhaqaxeBeCdMdMdMdMdMdMdMdMdMdMdMdMdMdMdMdMdMdMeDaxaxbCbBaQareEeFeG#beHeIeJeKeLeMeNeOdvdvdv",
"dvdvdvePeQeReSeTeUeVbhbHbheWcFbYcjeXeYeYb0eZdMdMdMdMdMdMdMdMdMdMdMdMdMdMdMdMdMdMdMdMe0axaqeEbBaQbDeEe1e2e3e4e5e6e7e8e9f.f#dvdvdv",
"dvdvdvfafbfcfdfe#TffbvfgfhfidRclfjclclclfkeCdMdMdMdMdMdMdMdMdMdMdMdMdMdMdMdMdMdMdMdMflbAfmbZb0fnbCfofpfqfrfsftfufvfwfxfydvdvdvdv",
"dvdvdvfzfAfBfCfDfEfFcCfhfffGcjfjclclclfHfIdMdMdMdMdMdMdMdMdMdMdMdMdMdMdMdMdMdMdMdMfJfKaxdjcIbZb0bCfofmfLfLfMfNfOfPfQfRfSdvdvdvdv",
"dvdvdvfTfUfVfWfXfYfZf0f1f2b0dQclclclclf3dMdMdMdMdMdMdMdMdMdMdMf4f5f5f5f5f5f5f6dMdMf7aqaxbDeEdif8bXdhf9dfg.g#fsgagbgcgdgedvdvdvdv",
"dvdvdvgfggghgigjgkglgmgngogpbZclclclclgqdMdMdMdMdMdMdMdMgrgsgtcldgguguaqaxeEgvgwfIgxcGbCdhbYa##9gygzgAgBgCgDgEgFgGgHgIgJgKdvdvdv",
"dvdvgLgMgNgOgP#rgQgRclgSfjcjckclclclclgTdMdMdMdMdMdMdMgUgVclclclclcHcichaxcGdhdhgWgXaxbXgudjeEcHgYgRgAgZfLg0g1g2g3g4g5g6g7dvdvdv",
"dvdvg8g9h.h#hahbhcgRgYfjfjfjclclclclclhddMdMdMdMdMdMdMheclclclclclckgpaxaxaxaxaxaxaxaxaxbDchbYhfgYgRgAhghghhhihjhkhlhmhnhodvdvdv",
"hphqhrhsc.hthahuhvdQgYfjfjclclclclclclhwdMdMdMdMdMdMdMgrclclclclclckdhbDaxaxaxaxaxaxaxaxaxaxeAckgYgRgAhxhyhzhAhBhChDhEhFhGdvdvfa",
"hHhIhJbkhKdUhLhMbbhNhOfjfjclclclclclclhPdMdMdMdMdMdMdMhQhRclclclclckcjbYeEaqbAaxaxaxaxaxaxaxa#hSgYgRgAhxhyhzhAhThUhDhVhWhXdvdvdv",
"duhYhZh0h1dAh2h3bgech4fjfjclclclclclclh5dMdMdMdMdMdMdMdMh6h7h8h9clckcjdgcHbZbYbCaxaxaxaxaxaxaxgpcHgYi.gZi#e2iaibhCicidieifigdvdv",
"ihepiiijikilhvimbainiofjfjclclclckdgbZipdMdMdMdMdMdMdMdMdMdMdMdMiqirckckckdgdgdicGcGaqbCaxaxaxbDisclitgZiuiviwixiyiziAiBiCiDdvdu",
"iEiFiGiHiIiJiKiLiMiNiOfjfjfjcliPcieEaqiQiRdMdMdMdMdMdMdMdMdMdMdMdMdMiSiTiUiViWckcIb0cIeAbCaxbDb0clgYi.gZiXiYiZi0gai1iAi2i3i4i5i6",
"i7cwi8i9j.j#jajbjcjdjefjfjfjcldgbXbCaqgpjfgUdMdMdMdMdMdMdMdMdMdMdMdMdMdMdMdMjgjhjickdgcIa#axgpckgYgYjjgZjkiYjljmjni1jojpjqjriEjs",
"i7jtjujvjwjxjyjzjjgYgYfjfjfjclclgugpckeYcljAdLdMdMdMdMdMdMdMdMdMdMdMdMdMdMdMdMdMjBjCjDdQgpcigueYgYgYgzjEjFjGaZjHjIjJjKjLjMjNfahp",
"f#jOjPjQjRjSjTjUhcgQclclfjfjfjclclclclclclclh8jVjWdMdMdMdMdMdMdMdMdMdMdMdMdMdMdMdMdMjXjYbZdgckeYclgYgzjEjZjGj0j1j2j3j4j5j6j7dvdv",
"j8j9k.k#kakbkcjykddgckckb0didQfjclclclclclclclclkekfkgkhdMdMdMdMdMdMdMdMdMdMdMdMdMdMdMkikjckclcleYgYgzhcgZkk.Oklkmknkokpkqdvdvdv",
"cxkrksktkukvkwkxkykzeAkAbAeXfjfjfjclclclclclclclclclclkBiSdMdMdMdMdMdMdMdMdMdMdMdMdMdMdMkCckhfgYckkDgRkEgZkFkGkHkIkJkKkLkMdvdvcW",
"kNepkOkPkQkRkwkSkTkUcGaqbZeXfjfjfjfjclclclclclclclclclclkVkWkXkYfIdMdMdMdMdMdMdMdMdMdMdMkZclk0k1k2djhvhfjFeGk3k4k5k6k7k8k9l.f#du",
"l#d2lalblcldlelflglhasbBcidRgQgYgYfjfjfjfjfjfjfjdgcHckclckcjcHcHf9lih6dMdMdMdMdMdMdMdMdMljgRgyk2lkaqa#lllmkFlnlolplqlrlsltluhYlv",
"dvdvlwlxlyldlzj#lAkTa#cik1bZkDgYgYgYgYgYgYgYgYeXfmeEdigub0bYa#aqeEdjlBlCdMdMdMdMdMdMdMdMljlDf9gyk0eElElFlGlHlIlJlKlLlMlNlOl#d3dv",
"dvdvdvlPlQlRlSlTlUlVlWh2gBcHcjjjjjjjgzgzgzcHclkDiPdicicGbAaxaxaqcia##9lXdMdMdMdMdMdMdMdMlYlZkVl0l1l2lFl3l4l5l6l7l8l9m.m#j8malwdv",
"dvdvdvmbmcmdmemfmg.OmhmijEfpf9gAgAgAgAgAk0bXgucHdggYf9l1bDarara#mjgpbCmkmldMdMdMdMdMdMdMmmmnmompmql0mrhzmsmtmumvmwmxmymzcWfacWdv",
"dvdvfahHmAmBmCmDmEfWmFmGfqmHjEhghghghgdfmIl1hvgyclitclmJcGbDbDcGmkcGcGfomKdMdMdMdMdMdMdMmLmMmMiWdfmNmOmPmQmRmSmTmUmVmWmXcWfadufa",
"f#cWhHf#mYmZm0m1m2.IfM.Phzm3aem4m5m5jkm6m7m8m9n.n#itdfl1bXmkbXl1lElEmknanbdMdMdMdMdMdMdMncndnenenfngnhninjnknlnmnnnonpnqi6ePi5jO",
"dtjscVf#nrnsntnunvnwnxnynznAnBnCnfnenDnEnFdMdMdMnGnHnInJnKnLnMnNnOnPnQnRdMdMdMdMdMdMdMdMnSnTnTnUnVnWninXnYnZn0n1n2n3n4l.eqeNn5hI",
"cTn6n7cWdvn8n9o.o#oaobocodoeofngogohoiojokdMdMdMdMdMdMdMdMdMdMdMdMdMdMdMdMdMdMdMdMdMdMolomonooopoqorosotouovowoxoyozoAi7cSa3Qtbo",
"Qtd1csoBdvoCoDoEoFoGoHlJoIoJoKoLoMoooNoOdMdMdMdMdMdMdMdMdMdMdMdMdMdMdMdMdMdMdMdMdMdMdMoPoQoRoSoToUoVoWoXoYoZo0o1o2o3jOihdsQtQtQt",
"Qta3o4csl#j8o5o6o7o8o9p.p#papbpcpdpepfdMdMdMdMdMdMdMdMdMdMdMdMdMdMdMdMdMdMdMdMdMdMdMpgphpipjpkplpmpnpopppqprpsptpudvdvcWpvpwpxpy",
"QtQtQta3a3bobopzpApBpCpDoupEpFpGpHpIpJdMdMdMdMdMdMdMdMdMdMdMdMdMdMdMdMdMdMdMdMdMkhpKpLpMpNpOpPpQpRpSpTpUprpVptpWpXdvdvdvdvduducV",
"QtboboQtQtQtQtpYpZp0p1p2p3p4p5p6p7p8p9q.dMdMdMdMdMdMdMdMdMdMdMdMdMdMdMdMdMdMq#qaqbqcqdqeqfqgqhqiqjqkqlprqmqnqoqpdvdvdvdvdvcWcWlw",
"cvcSqqd6boQtQtQtqrqsqtqun1qvqwqxqyqzqAqBqCqDqEqFqGqHqHqGjWqFqGjWqIqJqKqLqMqNqOqdqPqQqRqSqhqTqUqVqWqXqYpsqZq0q1dvdvdvdvdvducWcWcW",
"cTq2cwdsQtQtQtQtQtq3q4q5q6q7q8q9r.r#rarbrcrdrerfrgrhrirjrkrlrkrmrnroqdrpqPrqrrrsqSqhrtrurvqVrwrxryrzrArBrCrDrEdwrFd3j8o4rGihrHrI",
"QtQtrJrKcvQtQtQtQtQtrLrMrNrOrPrQrRrSrTrUrVrWrXrWrYrZr0rfr1r2rfrjr3rsr4qSr5r6r7r8r9s.s#sasbscrysdsesfqZsgshsisjsjn7rJcTQtboo4cYsk",
"QtQtslcsd6QtQtQtQtQtQtsmsnsospsqsrssstsusvswsxsyszsAsBsCsDsEr7sFr8r8sGr9s.sHsIsJsKsLsMsNsOsPsQsRsSsTsUsVsWa3QtcUsXcXboQtQtQtQtQt",
"bocYpvn5cvQtQtQtQtQtQtQtsYsZs0s1s2s3s4s5s6s7s8s9t.t#tatbsKsKtctdtdtdtetftgthtitjtktltmtntosRtptqtrtstttuQtQttvtwn5eNcvd1a3bod6a3",
"txdtf#l.n5a3QtQtQtQtQtQtQttytztAtBtCtDtEtFtGtHtItJs7tKtLtMtNtOtMtNtNtPtQtRtStTsotUtVtWtXtYtZt0t1t2t3luQtQtbon6cucvcTcvcTbodsqqcv",
"cTl#hpt4cYQtQtQtQtQtQtQtQtcTt5t6t7t8t9u.u#uatDubtDucudueufuguguhuiujugukulumubucunuotZupuqurusutuucwQtQtQta3cTcTd1botvtvbotvuvbo",
"QtcvcwrJboQtQtQtQtQtQtQtQtn6cxcYuwuxuyuzuAuBuCuDuEuFuauGuauHuIuJuKt9tCuLuMuNuOuOuPuQuRuSuTuUuVuWcXboQtQtQtQtboboa3QtQtQtQtQtQtQt",
"QtQta3QtQtQtQtQtQtQtQtQtQta3cvtvQtbouXuYuZu0u1u2u3uAu4u5uAu6u7u7u7u6u6uAu8uCu4u5u9v.v#vavbvccXd6boQtQtQtQtQtQtQtQtQtQtQtQtQtQtQt",
"QtQtQtQtQtQtQtQtQtQtQtQtQtQtQtQttvpxpvqquXvdvevfvgvhvivjvkvkvkvlvlvmvmvmvnvovnvpuZvqtyvrcTboQtQtQtQtQtQtQtQtQtQtQtQtQtQtQtQtQtQt",
"QtQtQtQtQtQtQtQtQtQtQtQtQtQtQtQtslpvvsvtskQtvuvvvwvxvyvzuZvAvAuZuZvBvCvDvEvFvGvHvwQtQtQtQtQtQtQtQtQtQtQtQtQtQtQtQtQtQtQtQtQtQtQt",
"QtQtQtQtcvcuboQtQtQtQtQtQtQtQtdsj9hIvIvJcvQtQtQtQtQtvKvLvwvMvMvNvOvPvQvRvScTcvd1QtQtQtQtQtQtQtQtQtQtQtQtQtQtQtQtQtQtQtQtQtQtQtQt",
"QtQtbocYvTvUcwboboboQtQtQtQtQttxcshYo4a3QtQtQtQtQtQtQtQtQtQtQtQtQta3a3Qta3bod1boQtQtQtQtQtQtQtQtQtQtQtQtQtQtQtQtQtQtQtQtQtQtQtQt",
"QtQta3pwjtd2krbod1d1a3QtQtQtQttvcuskcTQtQtQtQtQtQtQtQtQtQtQtQtQtQtQtQtQtQtQta3QtQtQtQtQtQtQtQtQtQtQtQtQtQtQtQtQtQtQtQtQtQtQtQtQt"};
