/* XPM */
static char *dummy[]={
"64 64 1427 2",
"dZ c #000000",
"is c #132417",
"h9 c #132518",
"hL c #152518",
"fw c #152a1a",
"pl c #174020",
"pk c #184021",
"pj c #194121",
"pi c #194122",
"ph c #1a4122",
"pg c #1a4123",
"pb c #1b4124",
"pa c #1b4224",
"pf c #1c4224",
"pc c #1c4225",
"p# c #1d4225",
"o9 c #1e4225",
"p. c #1f4226",
"pd c #1f4327",
"pe c #204327",
"fx c #24462c",
"fy c #24462d",
"fD c #26462e",
"fz c #27472e",
"fA c #28472f",
"fB c #284730",
"fC c #294730",
"to c #29ca4a",
"tn c #29cb49",
"sZ c #29cb4a",
"sY c #29cc49",
"sx c #29cc4a",
"tp c #2aca4d",
"sX c #2acc4a",
"sw c #2acd49",
"rZ c #2ace49",
"sv c #2bcd4a",
"rY c #2bce4a",
"p9 c #2bd04b",
"s0 c #2ccb52",
"sW c #2ccd4b",
"su c #2cce4c",
"q. c #2cce4e",
"ps c #2cd04b",
"t# c #2dcb4b",
"ta c #2dcb4c",
"sy c #2dcb50",
"rX c #2dd04c",
"oU c #2dd04e",
"o. c #2dd04f",
"tm c #2ecc4c",
"st c #2ecf4d",
"qO c #2ecf4e",
"pt c #2ecf54",
"qN c #2ed04d",
"ro c #2ed04e",
"p8 c #2ed14e",
"rp c #2fd04d",
"rn c #2fd04e",
"nJ c #2fd055",
"nI c #2fd24e",
"tq c #30cb59",
"oV c #30ce58",
"ss c #30d04f",
"n9 c #30d24f",
"oT c #30d250",
"ox c #30d350",
"nh c #30d352",
"jg c #31603d",
"s1 c #31cc5c",
"oy c #31cf59",
"sr c #31d050",
"rW c #31d150",
"qM c #31d250",
"mO c #31d451",
"sT c #32ce50",
"sS c #32ce51",
"rm c #32d251",
"p7 c #32d252",
"pz c #32d451",
"ng c #32d552",
"hk c #336440",
"sU c #33ce51",
"sO c #33cf52",
"hc c #33da58",
"g0 c #33da59",
"t. c #34cc50",
"ti c #34cd51",
"r0 c #34cf53",
"o# c #34cf60",
"rV c #34d253",
"qL c #34d353",
"py c #34d358",
"pr c #34d453",
"nH c #34d553",
"n8 c #34d554",
"o1 c #34d655",
"hB c #34d95a",
"jm c #34da54",
"mq c #356440",
"tI c #35cb5d",
"tE c #35cc51",
"tj c #35ce51",
"q# c #35ce63",
"rq c #35d055",
"mP c #35d15d",
"rl c #35d254",
"pA c #35d554",
"jn c #35d55e",
"m. c #35d754",
"i7 c #35db55",
"tb c #36ce52",
"so c #36d055",
"rU c #36d255",
"i8 c #36d560",
"hW c #36d95e",
"jG c #36da57",
"tl c #37ce53",
"pu c #37ce66",
"td c #37cf53",
"te c #37cf54",
"sN c #37d055",
"sn c #37d056",
"sp c #37d155",
"p6 c #37d456",
"iS c #37d661",
"mN c #37d856",
"ie c #37d861",
"iR c #37db56",
"gJ c #37db60",
"iz c #37dc57",
"id c #37dd57",
"tA c #38cd53",
"th c #38ce54",
"oW c #38ce6a",
"sV c #38d054",
"ni c #38d064",
"sm c #38d157",
"rT c #38d257",
"rk c #38d357",
"qk c #38d455",
"jH c #38d463",
"pq c #38d557",
"m# c #38d55c",
"ln c #38d561",
"iA c #38d763",
"oD c #38d95a",
"hV c #38de57",
"tS c #39cc54",
"tT c #39cc55",
"tH c #39cc5c",
"tB c #39cd53",
"s8 c #39cd54",
"sG c #39cf53",
"sJ c #39d055",
"sP c #39d156",
"sl c #39d158",
"qj c #39d357",
"o0 c #39d55e",
"nf c #39d858",
"tR c #3acc55",
"tU c #3acc56",
"tr c #3acc6a",
"tC c #3acd54",
"tD c #3ace54",
"s9 c #3ace55",
"sH c #3acf54",
"s. c #3acf56",
"rx c #3ad156",
"sR c #3ad157",
"sj c #3ad259",
"ql c #3ad557",
"oS c #3ad659",
"ow c #3ad759",
"nG c #3ad859",
"oE c #3ada5a",
"hA c #3adf59",
"hb c #3ae05b",
"tW c #3bcc56",
"tV c #3bcc57",
"tz c #3bce57",
"tk c #3bcf55",
"sI c #3bcf56",
"nK c #3bcf70",
"s# c #3bd056",
"rw c #3bd057",
"ry c #3bd256",
"si c #3bd259",
"sk c #3bd25a",
"rS c #3bd35a",
"rj c #3bd45a",
"p5 c #3bd55a",
"n7 c #3bd85a",
"o2 c #3bd85b",
"tF c #3ccd58",
"tG c #3ccd5b",
"oz c #3cce73",
"tc c #3ccf56",
"sF c #3ccf58",
"tf c #3cd057",
"sa c #3cd157",
"qX c #3cd356",
"hC c #3cd470",
"qK c #3cd55b",
"nm c #3cd967",
"l9 c #3cda5b",
"jF c #3cde5b",
"tQ c #3dcd5a",
"s2 c #3dcd70",
"qP c #3dd065",
"sq c #3dd259",
"rz c #3dd358",
"ri c #3dd55c",
"pp c #3dd65c",
"pB c #3dd75a",
"k0 c #3dd862",
"mV c #3dde63",
"gZ c #3de05e",
"tJ c #3ecc6c",
"ty c #3ecd5b",
"s7 c #3ece5c",
"tg c #3ed058",
"r9 c #3ed05b",
"sK c #3ed159",
"sb c #3ed258",
"qW c #3ed25a",
"rQ c #3ed35c",
"qY c #3ed458",
"rR c #3ed45c",
"mM c #3edb5d",
"jl c #3ede5d",
"nn c #3ede61",
"tX c #3fcc5d",
"rA c #3fd35a",
"rP c #3fd35d",
"lL c #3fd46a",
"mU c #3fd970",
"lm c #3fda5e",
"lJ c #3fdb5d",
"jX c #3fdd5d",
"oh c #3fdd5e",
"tx c #40cd5e",
"tw c #40ce5f",
"sz c #40cf6a",
"sM c #40d25a",
"sc c #40d35a",
"rO c #40d45f",
"hX c #40d478",
"qZ c #40d55b",
"rh c #40d55f",
"qJ c #40d65e",
"p4 c #40d75f",
"oR c #40d85f",
"lK c #40d95f",
"ne c #40db5f",
"oF c #40dc5f",
"md c #40dd6b",
"i6 c #40e05f",
"iQ c #40e060",
"r8 c #41cf5f",
"sL c #41d25b",
"sd c #41d35c",
"rB c #41d45c",
"rN c #41d55f",
"ov c #41d960",
"g. c #41e162",
"me c #41e263",
"sE c #42cf61",
"lo c #42d27b",
"rM c #42d560",
"nl c #42d57a",
"n6 c #42da60",
"fM c #42e067",
"iy c #42e161",
"mW c #42e162",
"tP c #43cd63",
"qa c #43cf80",
"sQ c #43d35d",
"se c #43d45d",
"sh c #43d45f",
"rg c #43d561",
"rL c #43d562",
"qI c #43d762",
"qm c #43d85d",
"po c #43d862",
"ga c #43d976",
"nF c #43db62",
"jY c #43db63",
"kg c #43dd60",
"lI c #43dd61",
"hU c #43e162",
"lO c #43e16a",
"mQ c #44d17b",
"i9 c #44d181",
"if c #44d380",
"sf c #44d45f",
"rC c #44d55e",
"rK c #44d562",
"q0 c #44d65e",
"o3 c #44db62",
"fN c #44dc73",
"oi c #44de63",
"g# c #44df6b",
"jW c #44e064",
"gI c #44e263",
"t8 c #45cd65",
"iT c #45d284",
"rf c #45d663",
"oQ c #45d963",
"lN c #45da7b",
"oG c #45dc64",
"l8 c #45de64",
"rv c #46d166",
"k1 c #46d478",
"rD c #46d560",
"re c #46d664",
"q1 c #46d760",
"qH c #46d764",
"nM c #46d778",
"pn c #46d865",
"mc c #46d880",
"oC c #46db68",
"kZ c #46dd62",
"og c #46de65",
"kf c #46e164",
"jE c #46e165",
"tv c #47ce68",
"s6 c #47cf68",
"rr c #47d26c",
"iB c #47d385",
"sg c #47d561",
"px c #47d56f",
"qn c #47d862",
"p3 c #47d865",
"ou c #47db66",
"gs c #47dd71",
"hz c #47e365",
"ha c #47e465",
"gY c #47e466",
"lP c #47e567",
"t9 c #48ce6a",
"r7 c #48d06b",
"qV c #48d36a",
"qi c #48d46c",
"rE c #48d662",
"rd c #48d766",
"nN c #48dc6d",
"kB c #48dd66",
"mL c #48de66",
"lp c #48de7a",
"lq c #48e56c",
"tO c #49cf6b",
"sD c #49d06b",
"q2 c #49d863",
"qG c #49d867",
"pC c #49db64",
"n5 c #49db68",
"nE c #49dd68",
"nd c #49de68",
"gr c #49e26a",
"mf c #49e568",
"fY c #4a905b",
"k. c #4a915c",
"t7 c #4ace6c",
"rF c #4ad765",
"qF c #4ad868",
"p2 c #4ad968",
"kA c #4ae066",
"k4 c #4ae178",
"jk c #4ae369",
"eG c #4ae36c",
"u. c #4bcf6f",
"nj c #4bd089",
"r1 c #4bd371",
"q3 c #4bd865",
"rc c #4bd869",
"qo c #4bda65",
"pm c #4bda69",
"oP c #4bdb69",
"nO c #4be069",
"fL c #4be46a",
"gq c #4be568",
"uc c #4cce71",
"ub c #4ccf71",
"lM c #4cd18a",
"ma c #4cd57a",
"rJ c #4cd767",
"qE c #4cd96b",
"oH c #4cdd6a",
"ll c #4ce068",
"lH c #4ce06b",
"no c #4ce369",
"i5 c #4ce46b",
"e3 c #4ce46c",
"ek c #4ce56b",
"kq c #4d915e",
"tN c #4dd071",
"sC c #4dd075",
"rG c #4dd866",
"ra c #4dd96a",
"p1 c #4dda6b",
"ot c #4ddc6b",
"e7 c #4ddd80",
"nQ c #4de26a",
"f9 c #4de56b",
"iP c #4de56c",
"mC c #4ea362",
"mD c #4ea463",
"u# c #4ecf72",
"rH c #4ed868",
"q4 c #4ed968",
"rb c #4ed96b",
"qD c #4ed96c",
"k3 c #4ed98d",
"qp c #4eda68",
"fl c #4edb83",
"of c #4edd6f",
"kE c #4edd88",
"oj c #4ee06c",
"nP c #4ee26a",
"el c #4ee371",
"hT c #4ee56d",
"lr c #4ee86d",
"mB c #4fa463",
"mA c #4fa464",
"ua c #4fcf73",
"ts c #4fd086",
"qC c #4fd96d",
"oO c #4fdb6d",
"kh c #4fdb71",
"n4 c #4fdd6d",
"fm c #4fde81",
"l7 c #4fe16e",
"nR c #4fe26d",
"d3 c #4fe46d",
"ic c #4fe56e",
"gH c #4fe66b",
"mz c #50a464",
"my c #50a465",
"t6 c #50d075",
"tu c #50d076",
"rI c #50d86a",
"q5 c #50d96b",
"pD c #50dc6a",
"kF c #50e579",
"jK c #50e777",
"lQ c #50e86f",
"jq c #50e974",
"lV c #519261",
"mE c #51a464",
"tY c #51d076",
"qQ c #51d287",
"jZ c #51d97c",
"gb c #51d990",
"qq c #51db6b",
"qB c #51db6f",
"gt c #51db8c",
"fO c #51df81",
"mK c #51e16f",
"gc c #51e17f",
"ke c #51e46e",
"jV c #51e46f",
"mX c #51e66e",
"eF c #51e66f",
"tK c #52d086",
"tM c #52d178",
"q6 c #52da6d",
"r# c #52da6e",
"p0 c #52db6f",
"qA c #52db70",
"pZ c #52db71",
"os c #52dd70",
"o4 c #52de6d",
"nD c #52de6f",
"nc c #52df70",
"kY c #52e26c",
"e8 c #52e477",
"fj c #52e573",
"j3 c #52e57e",
"fi c #52e670",
"k5 c #52e873",
"lx c #539261",
"kM c #539262",
"mx c #53a566",
"s5 c #53d179",
"oN c #53dd71",
"km c #53e185",
"fk c #53e27a",
"lk c #53e36f",
"jp c #53e482",
"jD c #53e572",
"mg c #53e771",
"ja c #53e77d",
"ud c #54d07b",
"oZ c #54d97b",
"kC c #54da7b",
"pY c #54db72",
"pE c #54dd6e",
"nS c #54e372",
"gu c #54e37f",
"e4 c #54e478",
"eM c #54e47a",
"fn c #54e57a",
"e2 c #54e773",
"hl c #55a669",
"sB c #55d183",
"e6 c #55d895",
"q7 c #55db6e",
"qr c #55dc6e",
"or c #55de74",
"n3 c #55df73",
"ok c #55e073",
"d2 c #55e773",
"iV c #55e87b",
"j4 c #55eb78",
"hm c #56a76a",
"hn c #56a76b",
"q8 c #56db70",
"qs c #56dc71",
"pX c #56dc74",
"nC c #56e074",
"lG c #56e374",
"dH c #56e575",
"jj c #56e675",
"hy c #56e772",
"gp c #56e871",
"kn c #56e97a",
"ho c #57a76b",
"tL c #57d180",
"pW c #57dd75",
"pF c #57de71",
"kz c #57e471",
"np c #57e672",
"fP c #57e67b",
"ej c #57e775",
"fK c #57e874",
"jL c #57ec77",
"jb c #57ec78",
"hp c #58a76b",
"ru c #58d481",
"q9 c #58db71",
"oB c #58db7f",
"qt c #58dc71",
"r. c #58dc72",
"qz c #58dc75",
"pV c #58dd75",
"nb c #58e177",
"l6 c #58e276",
"jJ c #58e28b",
"d4 c #58e37c",
"i4 c #58e777",
"gd c #58e77b",
"lR c #58e877",
"ls c #58ea77",
"t5 c #59d281",
"pN c #59dd75",
"pU c #59de77",
"o5 c #59e073",
"n2 c #59e077",
"mJ c #59e277",
"dg c #59e47c",
"cP c #59e67b",
"f8 c #59e775",
"fh c #59e777",
"#f c #59e978",
"#g c #59ea76",
"mt c #5aa76c",
"r6 c #5ad384",
"qu c #5add75",
"pM c #5add76",
"pG c #5ade74",
"oq c #5adf78",
"eH c #5ae281",
"nT c #5ae377",
"cp c #5ae779",
"dG c #5ae874",
"df c #5ae877",
"iO c #5ae878",
"gG c #5ae974",
"gX c #5ae975",
"mu c #5ba76c",
"mw c #5ba76d",
"mr c #5ba86d",
"hq c #5ba86e",
"oI c #5be176",
"lj c #5be476",
"eE c #5be879",
"jr c #5bed79",
"mv c #5ca86e",
"cR c #5cdb95",
"oe c #5cdc85",
"pH c #5cde76",
"nB c #5ce17a",
"cQ c #5ce285",
"kX c #5ce576",
"cO c #5ce977",
"#G c #5ceb78",
"k6 c #5cec79",
"ms c #5da86e",
"tt c #5dd38a",
"qU c #5dd687",
"qv c #5dde76",
"qw c #5dde77",
"o6 c #5de077",
"bL c #5de67f",
"nq c #5de777",
"fJ c #5de87a",
"b5 c #5de87b",
"ix c #5de97b",
"#F c #5de97d",
"e9 c #5dea7c",
"j5 c #5ded7c",
"ui c #5ed288",
"n1 c #5ee17b",
"na c #5ee37c",
"b6 c #5ee581",
"kd c #5ee77a",
"mY c #5ee879",
"jU c #5ee87b",
"f7 c #5ee87c",
"bK c #5ee97b",
"gv c #5ee97d",
"fo c #5eea7c",
"iE c #5eeb80",
"jc c #5eed7c",
"hr c #5fa971",
"dl c #5fd1ba",
"uj c #5fd28a",
"s4 c #5fd48b",
"pI c #5fdf79",
"l5 c #5fe47d",
"cq c #5fe484",
"lF c #5fe57d",
"er c #5fe588",
"jC c #5fe87d",
"e1 c #5fe97d",
".W c #5fe982",
"k7 c #5fec7e",
"kG c #5fed7d",
"eL c #60d1ba",
"cW c #60d1bb",
"t4 c #60d38c",
"qy c #60de79",
"pK c #60de7a",
"pJ c #60df7a",
"pL c #60df7b",
"nA c #60e27e",
"li c #60e67d",
"ei c #60e87e",
"de c #60e97a",
"hS c #60e97c",
"co c #60ea7b",
"lt c #60ea7e",
"#h c #60eb7c",
"hs c #61aa72",
"kl c #61d1bb",
"g1 c #61d2bc",
"qh c #61d78d",
"qx c #61de7a",
"pO c #61df7b",
"pT c #61e07c",
"j2 c #61e09a",
"o7 c #61e17a",
"dI c #61e389",
"bl c #61e684",
"mZ c #61e87c",
"#3 c #61e982",
"bN c #61ea7f",
"fQ c #61ea80",
"#4 c #61eb7d",
"eN c #61eb7e",
"#H c #61ec7c",
"ij c #61ec7f",
"jM c #61ed80",
"eK c #62d2bc",
"o8 c #62e17c",
"e5 c #62e28d",
"n# c #62e480",
"ky c #62e87d",
"dF c #62ea7d",
"bq c #62ea80",
"h0 c #62eb81",
"hE c #62eb83",
"iW c #62ee7f",
"dk c #63d2bd",
"uk c #63d490",
"oJ c #63e37c",
"ol c #63e47e",
"mI c #63e482",
"nU c #63e57e",
".n c #63e783",
"fg c #63e980",
"eD c #63e981",
"a4 c #63e982",
"es c #63ea83",
"b4 c #63eb7f",
"nk c #64d2bd",
"dm c #64d2be",
"ji c #64e981",
"ai c #64e985",
".X c #64e986",
"go c #64ea7d",
"mh c #64ea7f",
".G c #64ea80",
"ge c #64ea82",
"bO c #64eb7e",
"js c #64ee83",
"k2 c #65d3bf",
"uh c #65d493",
"ki c #65da92",
"em c #65e390",
"n. c #65e483",
"l4 c #65e683",
".o c #65e785",
".m c #65e787",
"bp c #65e789",
".F c #65e982",
"aG c #65e986",
"br c #65eb7f",
"a5 c #65eb81",
"aj c #65eb82",
"cN c #65ec7f",
"#5 c #65ec80",
"#i c #65ec81",
"gK c #66d3bf",
"tZ c #66d596",
"r2 c #66d795",
"rs c #66d895",
"pw c #66d994",
"dh c #66e195",
"oK c #66e37f",
"nr c #66e781",
"lE c #66e784",
"a0 c #66e78b",
".p c #66e886",
"i3 c #66ea83",
"gF c #66eb7f",
"aH c #66eb83",
"f. c #66ec84",
"jd c #66ed84",
"ht c #67b479",
"qb c #67d3c0",
"t3 c #67d495",
"ul c #67d496",
"cr c #67e096",
"pP c #67e181",
"n0 c #67e383",
"bM c #67e392",
"nz c #67e484",
".l c #67e68c",
"#E c #67e68e",
"he c #67e88a",
"jT c #67e984",
".E c #67e987",
"d1 c #67ea84",
"gW c #67eb81",
".H c #67eb82",
"bk c #67eb85",
"k8 c #67ec85",
"#I c #67ed82",
"hf c #67ed83",
"kH c #67ef82",
"iF c #67f082",
"iU c #68d3c0",
"qd c #68d3c1",
"pQ c #68e181",
"b7 c #68e295",
"oL c #68e380",
"nv c #68e685",
"mH c #68e686",
"lh c #68e885",
".q c #68e887",
".r c #68e888",
"b9 c #68e989",
"gN c #68e98a",
"#b c #68ea86",
"#c c #68ea88",
".Y c #68ea89",
"h# c #68eb82",
".I c #68eb84",
"fp c #68eb86",
"hF c #68ee82",
"ik c #68f083",
"iX c #68f085",
"ig c #69d4c1",
"oY c #69db98",
"pS c #69e282",
".a c #69e592",
"nu c #69e685",
"aF c #69e790",
"ah c #69e791",
"kW c #69e881",
".s c #69e88b",
"#B c #69e98a",
"d9 c #69e98e",
"e0 c #69ea85",
".Z c #69ea8a",
"mi c #69eb84",
"iN c #69eb85",
"cz c #69eb88",
"ak c #69ec83",
"et c #69ed84",
"h1 c #69ee83",
"j6 c #69ee87",
"eq c #6ad4c2",
"pR c #6ae282",
"oM c #6ae383",
"bm c #6ae394",
"om c #6ae583",
"l3 c #6ae788",
"#d c #6ae78e",
"#2 c #6ae792",
"eC c #6aea88",
".J c #6aeb85",
".1 c #6aeb86",
"jB c #6aeb88",
".0 c #6aeb89",
"dd c #6aec83",
".K c #6aec84",
"#A c #6aec86",
"fR c #6aec88",
"cn c #6aed83",
"eO c #6aed85",
"#j c #6aed86",
"t0 c #6bd4c2",
"j0 c #6bd4c3",
"um c #6bd59d",
"kD c #6bda9f",
".# c #6be495",
"d8 c #6be49b",
"nV c #6be685",
"m4 c #6be789",
"ns c #6be885",
".D c #6be88f",
"#Y c #6be98b",
"m0 c #6bea85",
"kc c #6bea86",
"gU c #6bea88",
"aC c #6bea8c",
"gn c #6beb85",
"hR c #6beb87",
"#X c #6beb88",
".L c #6bec85",
"e. c #6bec89",
"#6 c #6bed85",
"kI c #6bee87",
"iY c #6bee88",
"jt c #6bee89",
"dM c #6cd4c3",
"cV c #6cd4c4",
"ug c #6cd59c",
".b c #6ce495",
"m9 c #6ce688",
"#C c #6ce693",
"aD c #6ce694",
"mG c #6ce789",
"nt c #6ce887",
"lD c #6ce889",
".T c #6ce98e",
"hx c #6cea88",
"hw c #6cea89",
"ib c #6ceb88",
"iv c #6ceb89",
"aZ c #6ceb8a",
".2 c #6cec86",
".N c #6cec87",
"aI c #6ced85",
"c. c #6ced86",
"#a c #6ced87",
"#J c #6cee86",
"ko c #6cf087",
"ii c #6dd5c4",
"t2 c #6dd69f",
"on c #6de586",
".c c #6de596",
"gM c #6de59a",
"nW c #6de687",
".V c #6de694",
"m5 c #6de78a",
"#Z c #6de793",
"g3 c #6de795",
".t c #6de890",
".U c #6de891",
".S c #6dea8c",
"gE c #6deb87",
"ia c #6deb89",
"hQ c #6deb8a",
"dE c #6dec87",
"iw c #6dec89",
".O c #6dec8a",
"lu c #6dec8b",
"bP c #6ded86",
".M c #6ded88",
"c1 c #6ded8a",
"je c #6dee8a",
"sA c #6ed5c5",
"oA c #6edc9f",
"oo c #6ee587",
".k c #6ee598",
"mF c #6ee78a",
".C c #6ee796",
"m3 c #6ee88b",
"kx c #6eea87",
"mj c #6eea89",
"gV c #6eeb88",
"f6 c #6eeb89",
".P c #6eeb8b",
".Q c #6eeb8c",
".R c #6eeb8d",
"bs c #6eed87",
"#z c #6eed88",
"gf c #6eed8c",
"#W c #6eee88",
"hY c #6fd5c6",
"un c #6fd6a1",
"eI c #6fe1a2",
"d5 c #6fe29f",
"a1 c #6fe49c",
".d c #6fe599",
"l2 c #6fe88c",
"mm c #6fe98c",
"mn c #6fe98d",
"gT c #6fea8c",
"h. c #6feb89",
"eZ c #6feb8b",
"eh c #6feb8c",
"i2 c #6fec8b",
"d0 c #6fec8c",
"dp c #6fec8f",
".3 c #6fed88",
"#k c #6fee88",
"iZ c #6fee8c",
"ih c #70d5c6",
"uo c #70d7a3",
".e c #70e59a",
"op c #70e689",
"nX c #70e68a",
".A c #70e69c",
"ny c #70e78a",
"m8 c #70e78b",
".B c #70e79b",
".u c #70e896",
"l1 c #70e98d",
"kV c #70ea8a",
"lv c #70ea8d",
"i# c #70ea8e",
"c0 c #70ea95",
"gD c #70eb8b",
"hP c #70eb8e",
"dR c #70eb92",
"al c #70ee89",
"gw c #70ee8a",
"e# c #70ee8b",
"dS c #70ee8c",
"g4 c #70ef89",
"hg c #70ef8a",
"iG c #70f18a",
"qe c #71d5c7",
"j. c #71d6c7",
"af c #71e69c",
".v c #71e798",
"m6 c #71e98d",
"lY c #71e98e",
"mo c #71e98f",
"eB c #71eb8e",
"iM c #71eb8f",
".4 c #71ec89",
"ff c #71ec8c",
"k9 c #71ec8f",
"## c #71ed8a",
"eu c #71ee8c",
"ju c #71ee8f",
"#K c #71ef8a",
"kJ c #71ef8e",
"hG c #71f08b",
"h2 c #71f18b",
"ep c #72d6c7",
"iC c #72d6c8",
".f c #72e59e",
"cy c #72e89b",
"l0 c #72e98f",
"gS c #72ea8f",
"lA c #72ea90",
"eY c #72eb8f",
"ae c #72eb90",
"jA c #72ec8e",
"jh c #72ec90",
".5 c #72ed8b",
"eP c #72ed8d",
"f# c #72ed8e",
"#l c #72ee8b",
"#y c #72ee8c",
"dq c #72ee8d",
"iI c #72ee8f",
"#7 c #72ef8c",
"il c #72f18c",
"uq c #73d6c8",
"dN c #73d6c9",
".w c #73e79d",
"nw c #73e88e",
"lT c #73ea8f",
"lz c #73ea90",
"m1 c #73eb8c",
"mk c #73eb8e",
"hv c #73eb90",
"hO c #73eb91",
"i. c #73eb92",
"gm c #73ec8d",
"iL c #73ec91",
"i0 c #73ed91",
"#. c #73ee8c",
"g5 c #73ee8f",
"iH c #73f08e",
"hD c #74d6c9",
"aE c #74e4a5",
"#0 c #74e5a0",
"#D c #74e5a2",
"b8 c #74e6a2",
"nY c #74e78d",
"ly c #74ea91",
"lS c #74eb90",
"iu c #74eb91",
"gB c #74eb92",
"i1 c #74ec92",
".6 c #74ed8c",
"a6 c #74ee8c",
".9 c #74ee8d",
".7 c #74ee8e",
"#x c #74ef8e",
"dj c #75d7ca",
"#e c #75e4a5",
".j c #75e5a4",
".x c #75e6a1",
"nZ c #75e88e",
"dQ c #75e8a1",
"do c #75e99f",
"lZ c #75ea92",
"lb c #75eb91",
"gR c #75eb92",
"lX c #75eb93",
"gC c #75ec90",
"l. c #75ec91",
"gk c #75ec92",
"f2 c #75ec93",
"gP c #75ed91",
"jf c #75ed92",
"gz c #75ed93",
"dc c #75ee8e",
"fq c #75ee90",
"iJ c #75ee92",
"hH c #75f08f",
"up c #76d7ca",
"m2 c #76eb8f",
"lC c #76eb90",
"lw c #76ec92",
"iK c #76ec93",
"hu c #76ec94",
"kU c #76ed91",
"jz c #76ed93",
"it c #76ed94",
"cA c #76ee8e",
".8 c #76ee8f",
"dT c #76ef8f",
"am c #76ef90",
"mb c #77d7cb",
"eJ c #77d7cc",
".g c #77e4a6",
"ml c #77eb91",
"hN c #77ec94",
"eg c #77ed93",
"gh c #77ed94",
"f1 c #77ed95",
"#m c #77ee8f",
"#w c #77ef90",
"dD c #77ef91",
"kK c #77ef92",
"gO c #77f090",
"jN c #77f093",
"t1 c #78d7cc",
"bn c #78e2ac",
".y c #78e5a6",
"lc c #78eb94",
"lg c #78ec93",
"kO c #78ec94",
"ks c #78ec95",
"kw c #78ed91",
"fI c #78ed92",
"eA c #78ed94",
"gj c #78ed95",
"eU c #78ed96",
"#L c #78ef91",
"jv c #78ef95",
"im c #78f192",
"j# c #79d8cd",
"dJ c #79e1af",
"ag c #79e3ac",
"gl c #79ec93",
"kP c #79ec95",
"kb c #79ed93",
"f3 c #79ed95",
"cl c #79ed96",
"gi c #79ed97",
"gg c #79ee96",
"ey c #79ee97",
"#n c #79ef92",
"fS c #79ef94",
"kk c #7ad8ce",
".z c #7ae4ab",
"cZ c #7ae6aa",
"nx c #7aea92",
"lB c #7aec95",
"fe c #7aed95",
"ez c #7aed96",
"jy c #7aed97",
"f5 c #7aee93",
"gA c #7aee96",
"ck c #7aee97",
"#o c #7aef92",
"#v c #7aef93",
"ac c #7af093",
"gx c #7af094",
"in c #7af095",
"h3 c #7af193",
"j7 c #7af194",
"mT c #7bd8ce",
".h c #7be4ad",
"ld c #7bec96",
"fF c #7bed97",
"hh c #7bee96",
"c8 c #7bee97",
"cj c #7bee98",
"#p c #7bef94",
"gy c #7bef96",
"a2 c #7ce2b1",
"m7 c #7ceb96",
"mp c #7cec97",
"fG c #7ced97",
"eX c #7cee97",
"cH c #7cee98",
"dz c #7cee99",
"#u c #7cef95",
"h4 c #7cf096",
"g2 c #7dd9d0",
"en c #7de1b5",
"#1 c #7de3b2",
"kT c #7ded97",
"lW c #7ded98",
"g9 c #7dee98",
"bZ c #7dee99",
"#q c #7def95",
"#s c #7def96",
"ad c #7def97",
"dA c #7def99",
"#M c #7df095",
"#r c #7df096",
"hd c #7ed9d0",
"f4 c #7eee97",
"kv c #7eee98",
"f0 c #7eee99",
"jR c #7eee9a",
"aJ c #7eef95",
"ev c #7eef97",
"kL c #7eef98",
"c6 c #7eef99",
"cI c #7eef9a",
"#t c #7ef097",
"ab c #7ef197",
"oa c #7fd9d1",
".i c #7fe4b4",
"dn c #7fe5b3",
"fH c #7fee97",
"lU c #7fee99",
"jQ c #7fee9a",
"ir c #7fee9c",
"fZ c #7fef9a",
"b0 c #7fef9b",
"#N c #7ff098",
"kp c #7ff298",
"rt c #80d9d2",
"kQ c #80ee99",
"le c #80ee9a",
"hM c #80ee9b",
"#P c #80ef98",
"gQ c #80ef9a",
"d. c #80ef9b",
"#O c #80f098",
"#V c #80f198",
"#U c #80f199",
"d7 c #81dad2",
"ue c #81dad3",
"#Q c #81ef99",
"ka c #81ef9a",
"fd c #81ef9b",
"bY c #81ef9c",
"#T c #81f09a",
"l# c #81f09b",
"jx c #81f09c",
"j1 c #82dad3",
"kN c #82ef9c",
"k# c #82ef9d",
"fc c #82ef9e",
"#R c #82f09b",
"c9 c #82f09c",
"ef c #82f09d",
"aw c #82f29a",
"gL c #83dad4",
"ku c #83ef9c",
"jS c #83ef9d",
"#S c #83f09b",
"fT c #83f09c",
"ci c #83f09d",
"ee c #83f09e",
"av c #83f19b",
"jO c #83f19c",
"j8 c #83f29b",
"qR c #84dad4",
"lf c #84ef9c",
"kR c #84ef9d",
"kS c #84ef9e",
"#8 c #84f09c",
"fE c #84f09d",
"c7 c #84f09e",
"aa c #84f19c",
"jw c #84f19d",
"dB c #84f19e",
"cx c #85dbd5",
"dy c #85f09e",
"d# c #85f09f",
"dC c #85f19d",
"#9 c #85f19e",
"eV c #85f19f",
"aS c #85f29e",
"dL c #86dbd6",
"kt c #86f09e",
"bX c #86f09f",
"an c #86f19c",
"a. c #86f19e",
"a# c #86f19f",
"ed c #86f1a0",
"j9 c #86f29e",
"aR c #86f29f",
"iD c #87dbd6",
"jI c #87dbd7",
"la c #87f09f",
"kr c #87f0a0",
"eW c #87f19f",
"aq c #87f1a0",
"bB c #87f1a1",
"jP c #87f29f",
"au c #87f2a0",
"hZ c #88dbd7",
"cG c #88f1a0",
"bC c #88f1a1",
"at c #88f2a0",
"as c #88f2a1",
"cs c #89dcd8",
"bD c #89f1a1",
"bA c #89f1a2",
"fX c #89f1a3",
"ar c #89f2a1",
"aQ c #89f2a2",
"qg c #8adcd8",
"oX c #8adcd9",
"io c #8af0a3",
"ch c #8af1a2",
"ax c #8af2a2",
"cg c #8af2a3",
"cS c #8bdcda",
"ap c #8bf1a1",
"aP c #8bf1a2",
"cM c #8bf2a0",
"bW c #8bf2a4",
"mR c #8cdcda",
"uf c #8cdddb",
"aK c #8cf1a1",
"cw c #8ddddb",
"aB c #8df0a3",
"bQ c #8df1a1",
"bE c #8df2a4",
"ct c #8edddb",
"fU c #8ef0a6",
"fa c #8ef2a3",
"cF c #8ef2a6",
"pv c #8fdddc",
"cX c #8fdddd",
"ao c #8ff2a4",
"oc c #90dddd",
"c5 c #90f3a8",
"eo c #91dede",
"fr c #91f2a6",
"dO c #92dede",
"cY c #92dedf",
"bJ c #92f1a5",
"jo c #93dedf",
"g8 c #93f1aa",
"qf c #94dee0",
"qc c #94dfe0",
"db c #94f2aa",
"cU c #95dfe1",
"od c #96dfe1",
"ob c #96dfe2",
"bd c #96f3ac",
"dx c #96f4ab",
"qT c #97dfe2",
"bz c #97f3ac",
"dY c #97f4ad",
"d6 c #98dfe3",
"qS c #98e0e3",
"da c #98f3ac",
"s3 c #99e0e3",
"bt c #99f2ac",
"cf c #99f3af",
"nL c #9ae0e4",
"r5 c #9ae0e5",
"fW c #9af2af",
"di c #9be0e5",
"aT c #9bf4af",
"r4 c #9ce0e5",
"cu c #9ce0e6",
"dP c #9ce1e6",
"fV c #9cf2b2",
"aL c #9cf3af",
"be c #9cf4b0",
"kj c #9de1e6",
"mS c #9de1e7",
"a7 c #9df3ae",
"c2 c #9df3af",
"dU c #9df4b0",
"cv c #9ee1e7",
"cT c #9fe1e8",
"cE c #9ff4b3",
"r3 c #a0e1e8",
"dK c #a0e2e9",
"iq c #a0f3b5",
"b1 c #a0f4b4",
"aO c #a0f5b4",
"bo c #a1e2e9",
"a3 c #a1e2ea",
"g6 c #a1f3b4",
"Qt c #a2e2ea",
"cB c #a3f3b5",
"fv c #a3f3b8",
"eT c #a4f3b8",
"ip c #a5f3b9",
"c4 c #a5f4b9",
"ay c #a5f6b6",
"ce c #a6f5b8",
"dw c #a9f5bb",
"cm c #adf6bb",
"ec c #adf7bf",
"bV c #aef5be",
"fs c #aef5bf",
"aY c #b2f5c0",
"bj c #b3f6c0",
"b3 c #b4f6c1",
"cd c #b4f6c3",
"bF c #b4f6c4",
"cJ c #b5f7c4",
"h8 c #b6f5c6",
"ea c #b7f7c5",
"dv c #baf7c8",
"aA c #bbf7c8",
"aM c #bbf7c9",
"bc c #bef8cc",
"az c #bff8ca",
"h5 c #c1f7cd",
"fb c #c1f7ce",
"c# c #c1f8cd",
"by c #c4f8d0",
"a8 c #c6f8d0",
"cL c #c6f9d2",
"aN c #c8f8d2",
"fu c #c8f8d4",
"ew c #c9f8d4",
"ft c #c9f8d5",
"eQ c #caf8d5",
"a9 c #cbf9d5",
"hj c #ccf8d8",
"aU c #cdf9d7",
"hi c #cef8d9",
"cc c #d3fadc",
"ex c #d3fadd",
"cK c #d4fadd",
"bf c #d4fbdc",
"b. c #d5fadd",
"bu c #d6fadd",
"bU c #d6fade",
"c3 c #d7fbdf",
"b2 c #d8fbe0",
"hI c #d9fae1",
"hK c #dafae2",
"g7 c #dbfae3",
"bT c #dbfbe3",
"bb c #ddfbe4",
"h7 c #ddfbe5",
"h6 c #dffae5",
"aX c #e0fbe6",
"cC c #e1fbe7",
"dr c #e1fce7",
"bx c #e2fbe7",
"bG c #e2fbe8",
"bI c #e2fce6",
"eS c #e2fce9",
"bS c #e3fbe9",
"bi c #e4fce9",
"b# c #e4fcea",
"ca c #e5fcea",
"aV c #e5fdea",
"cb c #e6fceb",
"ba c #e7fcec",
"bR c #e7fdec",
"aW c #e8fcec",
"bv c #e8fced",
"eR c #e9fcee",
"bg c #e9fded",
"bw c #e9fdee",
"bh c #eafdee",
"bH c #eafdef",
"dV c #ebfdee",
"cD c #ebfdef",
"du c #eefdf1",
"eb c #eefdf2",
"dt c #effdf3",
"hJ c #f2fdf5",
"ds c #f4fef6",
"dX c #f8fef9",
"dW c #f8fefa",
"QtQtQtQtQtQtQtQtQtQtQtQtQtQtQtQtQtQtQtQtQtQtQtQtQtQtQtQtQtQtQtQtQtQtQtQtQtQtQtQtQtQtQtQtQtQtQtQtQtQtQtQtQtQtQtQtQtQtQtQtQtQtQtQt",
"QtQtQtQtQtQtQtQtQtQtQtQtQtQtQtQtQtQtQtQtQtQtQtQtQtQtQtQtQtQtQtQtQtQtQtQtQtQtQtQtQtQtQtQtQtQtQtQtQtQtQtQtQtQtQtQtQtQtQtQtQtQtQtQt",
"QtQtQtQtQtQtQtQtQtQtQtQtQtQtQtQtQtQtQtQtQtQtQtQtQtQtQt.#.a.b.c.d.e.f.g.h.iQtQtQtQtQtQtQtQtQtQtQtQtQtQtQtQtQtQtQtQtQtQtQtQtQtQtQt",
"QtQtQtQtQtQtQtQtQtQtQtQtQtQtQtQtQtQtQtQtQtQtQt.j.k.l.m.n.o.p.p.q.r.s.t.u.v.w.x.y.zQtQtQtQtQtQtQtQtQtQtQtQtQtQtQtQtQtQtQtQtQtQtQt",
"QtQtQtQtQtQtQtQtQtQtQtQtQtQtQtQtQtQtQtQt.A.B.C.D.E.F.G.H.I.J.K.L.M.N.O.P.Q.R.S.T.U.V.e.jQtQtQtQtQtQtQtQtQtQtQtQtQtQtQtQtQtQtQtQt",
"QtQtQtQtQtQtQtQtQtQtQtQtQtQtQtQtQtQt.W.X.Y.Z.0.1.L.2.3.4.5.6.7.8.8.8.8.9#.##.3#a.1#b#c#d.d#eQtQtQtQtQtQtQtQtQtQtQtQtQtQtQtQtQtQt",
"QtQtQtQtQtQtQtQtQtQtQtQtQtQtQtQt#f#g#h#i#j#a#k#l.9#m#n#o#p#p#q#q#r#s#t#r#u#v#w#x#y#z#A#b#B#C#DQtQtQtQtQtQtQtQtQtQtQtQtQtQtQtQtQt",
"QtQtQtQtQtQtQtQtQtQtQtQtQtQt#E#F#G#H#I#J#K#x#L#p#M#N#O#P#Q#R#S#S#S#S#R#S#T#U#V#r#v#w#.#W#X#Y#Z#0#1QtQtQtQtQtQtQtQtQtQtQtQtQtQtQt",
"QtQtQtQtQtQtQtQtQtQtQtQtQt#2#3#4#5#6#7#L#o#q#N#T#S#8#9#9a.a.a#a.a.a.a.a.a.#9aa#S#Uabac#L#radae.DafagQtQtQtQtQtQtQtQtQtQtQtQtQtQt",
"QtQtQtQtQtQtQtQtQtQtQtQtahaiajakalamanaoap#S#8#9a#aqararararararasasasatatauaua#a.avawaxayazaAaBaCaDaEQtQtQtQtQtQtQtQtQtQtQtQtQt",
"QtQtQtQtQtQtQtQtQtQtQtaFaGaHaIaJaKaLaMaNaAaOaPatarararararaQaQaQaQaQaQarararararasaRaSaTaUaVaWaXaYaZa0a1a2QtQtQta3a3Qta3QtQtQtQt",
"QtQtQtQtQtQtQtQtQtQta0a4a5a6a7a8a9b.b#babbbcbdaQaQaQaQaQaxaxaxaxaxaxaxaQaQaQaQarararasbebfbgbhbgbibjbkblbmbnQtboa3boboboboa3a3a3",
"QtQtQtQtQtQtQtQtQtbpbqbrbsbtbuaWbvbgbwbgbxbybzaQaQaxaQaxaxaxaxaxaxaxaxaxaxaxbAbBbCbDarbEbFbGbHbhbgbIbJbKbLbMboboboa3boboboboa3a3",
"QtQtQtQtQtQtQtQtaFbNbObPbQaUbRbhbhbSbTbUa9bVbWaQaxaxaxaxaxaxaxaxaxaxaxaxbAbXbYbZbZb0aqaraxb1b2bHbhbRb3b4b5b6b7boa3Qtboa3a3boa3Qt",
"QtQtQtQtQtQtQtb8b9#5c.#oc#cabhbhcbcccdcecfcgaQaxaxaxaxaxaxchbAaxaxaxaxbAcibZcjckclckbYaQararbebGbgaVcmcncocpcqcrcsctcua3a3cvcwcx",
"QtQtQtQtQtQtQtcycz#6cAcBcCbhcDbabTbccEcFaQaQaxaxaxaxaxaxbAcicicGaxaxaxaqbZcHcHckclckcIbDaQararcJcKcLcMalcNcOcPcQcRcScTQtQtcUcVcW",
"cXcYcva3QtQtcZc0c1#lc2bbbhcDbwc3byc4c5cgaQaQaxaxaxaxaxaxbDc6bZc7axaxaxc7cHcHcHcjc8ckc9axaQa#d.d#dadb#tdcdddedfdgdhboQtQtQtdidjdk",
"dldmcscua3dndodpdq#NdrdsdtduaWdvdwdxcgaQaQaxaxaxaxaxaxaxaxdyc9aqaxaxaxa#cIcHdzc9cid.a#axbCcIdzdAdBdC#UdDdEdFdGdHdIdJQtQtQtdKdLdM",
"dldldNdOdPdQdRdSdTdUdVdWdXdXcbdYaQaQaQbAdZdZdZdZdZdZdZdZdZdZdZdZdZdZdZdZdZdZdZdZdZdZdZdZdZd.cIa#asa.#sd0d1bKd2d3d4d5QtQtd6d7dldl",
"dldlcWd7d8d9e.e##oeabvduebbhecbAedeeefc9dZdZdZdZdZdZdZdZdZdZdZdZdZdZdZdZdZdZdZdZdZdZdZdZdZbCbBaQardyegeh#beiejekelemeneoepdldldl",
"dldldleqereseteuevewbhbHbhexcFbYcjeyezezdZdZdZdZdZdZdZdZdZdZdZdZdZdZdZdZdZdZdZdZdZdZdZdZdZdybBaQbDdyeAeBeCeDeEeFeGeHeIeJeKdldldl",
"dldldleLeMeNeOeP#TeQbveReSeTdAcleUclclcldZdZdZdZdZdZdZdZdZdZdZdZdZdZdZdZdZdZdZdZdZdZdZdZdZbZb0eVbCeWeXeYeZe0e1e2e3e4e5e6dldldldl",
"dldldle7e8e9f.f#fafbcCeSeQfccjeUclclclcldZdZdZdZdZdZdZdZdZdZdZdZdZdZdZdZdZdZdZdZdZdZdZdZdZcIbZb0bCeWfdfefefffgfhfifjfkfldldldldl",
"dldldlfmfnfofpfqfrfsftfufvb0dzclclclclcldZdZdZdZdZdZdZdZfwfxfxfyfzfAfAfBfCfAfDfyfxfyfAfCfAdyd.fEbXc9fFfGfHfIe0fJfKfLfMfNdldldldl",
"dldldlfOfPfQfRfSfTfUfVfWfXc7bZclclclclcldZdZdZdZdZdZdZdZfYclclclc8fZfZaqaxdybZcHcjbZcGbCc9bYa##9f0f1f2f3f4f5f6f7f8f9g.g#gadldldl",
"dldlgbgcgdgegf#rggghclgieUcjckclclclclcldZdZdZdZdZdZdZdZfYclclclclcHcichaxcGc9c9a#aqaxbXfZd#dycHgjghf2gkfeglgmgngogpgqgrgsdldldl",
"dldlgtgugvgwgxgygzghgjeUeUeUclclclclclcldZdZdZdZdZdZdZdZfYclclclclckc7axaxaxaxaxaxaxaxaxbDchbYgAgjghf2gBgBgCgDgEgFgGgHgIgJdldldl",
"gKgLgMgNc.gOgxgPgQdzgjeUeUclclclclclclcldZdZdZdZdZdZdZdZfYclclclclckc9bDaxaxaxaxaxaxaxaxaxaxefckgjghf2gRgSgTgUgVgWgXgYgZg0dldleL",
"g1g2g3bkg4dDg5g6bbg7g8eUeUclclclclclclcldZdZdZdZdZdZdZdZfYclclclclckcjbYdyaqbAaxaxaxaxaxaxaxa#g9gjghf2gRgSgTgUh.h#gXhahbhcdldldl",
"dkhdhehfhgdqhhhibgdXhjeUeUclclclclclclbZdZdZdZdZdZdZdZdZhkhlhlhlhlhmhnhmhohphqhrhshtaxaxaxaxaxc7cHgjhugkhveBhwhxgWhyhzhAhBhCdldl",
"hDd6hEhFhGhHgQhIbahJhKeUeUclclclckc8bZcidZdZdZdZdZdZdZdZdZdZdZdZdZdZdZdZdZdZdZdZdZhLaqbCaxaxaxbDhMclhNgkhOhPhQhRhShThUhVhWhXdldk",
"hYhZh0h1h2h3h4h5h6h7h8eUeUeUclc6cidyaqbDdZdZdZdZdZdZdZdZdZdZdZdZdZdZdZdZdZdZdZdZdZh9cIefbCaxbDb0clgjhugki.i#iaibfJichUidieifigih",
"iicwijikiliminioipiqireUeUeUclc8bXbCaqc7dZdZdZdZdZdZdZdZdZdZdZdZdZdZdZdZdZdZdZdZdZisc8cIa#axc7ckgjgjitgkiui#iviwixiciyiziAiBhYiC",
"iiiDiEiFiGiHiIiJitgjgjeUeUeUclclfZc7ckezdZdZdZdZdZdZdZdZdZdZdZdZdZdZdZdZdZdZdZdZdZiscldzc7cifZezgjgjf1iKiLiMaZiNiOiPiQiRiSiTeLgK",
"eKiUiViWiXiYiZi0gzggclcleUeUeUclclclclcldZdZdZdZdZdZdZdZdZdZdZdZdZdZdZdZdZdZdZdZdZisclcjbZc8ckezclgjf1iKi1iMi2i3i4i5i6i7i8i9dldl",
"j.j#jajbjcjdjeiIjfc8ckckb0d.dzeUclclclcldZdZdZdZdZdZdZdZfwfxfxfxfxfxfxfxfxfxfxfxfxjgclckc8ckclclezgjf1gzgkjh.Ojijjjkjljmjndldldl",
"cxjojpjqjrjsjtjujvjwefjxbAeyeUeUeUclclcldZdZdZdZdZdZdZdZfYclclclclclclclclclckclclclclclclckgAgjckjyghjzgkjAjBjCjDjEjFjGjHdldlcW",
"jId6jJjKjLjMjtjNjOjPcGaqbZeyeUeUeUeUclcldZdZdZdZdZdZdZdZfYclckclclclckc8c8cHclclgjgjgjgjgjcljQjRjSd#gQgAiLehjTjUjVjWjXjYjZj0eKdk",
"j1dLj2j3j4j5j6j7j8j9asbBcidAgggjgjeUeUeUdZdZdZdZdZdZdZdZk.cjcHcHcjcHbZcjc8bZf3gjgjgjgjgjghghf0jSk#aqa#kakbjAkckdkekfkgkhkikjhdkk",
"dldlklkmknj5koimkpjOa#cijRbZjygjgjgjgjgjdZdZdZdZdZdZdZdZkqbYa#aqdyd#b0cjc8f0krgjgjgjghghhNksfFf0jQdyktkukvkwkxkykzkAkBkCkDj1dMdl",
"dldldlkEkFkGkHkIkJkKkLhhf3cHcjitititf1f1dZdZdZdZdZdZdZdZkMaxaxaqcia##9jQjQkukNghhNhNhNiKiKkOkPkQkRkSkukTkUkVkWkXkYkZk0k1j.k2kldl",
"dldldlk3k4k5k6k7k8.Ok9l.iKeXfFf2f2f2f2f2dZdZdZdZdZdZdZdZkMarara#l#c7bClafEf0ezhNgkgRgRgBlblcldlelfkQlggTlhliljlklllmlnlocWeLcWdl",
"dldleLg1lplqlrlsltfplulveYlwiKgBgBgBgBfGdZdZdZdZdZdZdZdZlxbDbDcGlacGcGeWkRfFiKgRlylylzlAlylylylBfGlClDlElFlGlHlIlJlKlLlMcWeLdkeL",
"eKcWg1eKlNlOlPlQlR.Iff.PgTlSaelTlAlAiulUdZdZdZdZdZdZdZdZlVlabXkRktktladylWlXlylzgSgSlYgSlZl0l1l1l2l3l4l5l6l7l8l9m.m#mambiheqigiU",
"djiCcVeKmcmdmemfmgmhmimjmkmlmmmnl2l1mompdZdZdZdZdZdZdZdZmqmrmsmtmumtmvmwmxmymzmAmBmCmDmEmBmFmFmGmHmIl5mJmKmLmMmNmOmPmQj0d7eomRg2",
"cTmSmTcWdlmUmVmWmXmYmZm0m1m2m3l3m4m5m6m7dZdZdZdZdZdZdZdZdZdZdZdZdZdZdZdZdZdZdZdZdZdZdZdZdZm8m9n.n#nanbncndnenfngnhninjiicSa3Qtbo",
"QtdKcsnkdlnlnmnnnonpnqkynrnsntnunvm9nwnxdZdZdZdZdZdZdZdZdZdZdZdZdZdZdZdZdZdZdZdZdZdZdZdZdZnynznAnBnCnDnEnFnGnHnInJnKiUhDdiQtQtQt",
"Qta3nLcsj1j.nMnNnOnPnQnRnSnTnUnVnWnXnYnZdZdZdZdZdZdZdZdZdZdZdZdZdZdZdZdZdZdZdZdZdZdZdZdZdZn0n1n2n3n4n5n6n7n8n9o.o#dldlcWoaobocod",
"QtQtQta3a3bobooeofogohoindojokolomonooopdZdZdZdZdZdZdZdZdZdZdZdZdZdZdZdZdZdZdZdZdZdZdZdZdZoqorosotouovown8oxo.oyozdldldldldkdkcV",
"QtboboQtQtQtQtoAoBoCoDoEoFoGoHoIoJoKoLoMdZdZdZdZdZdZdZdZdZdZdZdZdZdZdZdZdZdZdZdZdZdZdZdZdZoNoOoPoQoRoSn8oToUoVoWdldldldldlcWcWkl",
"cvcSoXdPboQtQtQtoYoZo0o1mNo2o3o4o5o6o7o8o9o9p.p.p#papbpcpdpdp#pdpep#pfpfpapbpgpgphpipjpkplpmpnpopppqprn9psptpudldldldldldkcWcWcW",
"cTpvcwdiQtQtQtQtQtpwpxpypzpApBpCpDpEpFpGpHpIpJpKpLpMpNpOpPpQpPpRpSpTpUpVpWpXpYpZp0oOp1p2p3pop4p5p6p7p8p9q.q#qadmqbdMj.nLqchDqdqe",
"QtQtqfqgcvQtQtQtQtQtqhqiqjqkqlqmqnqoqpqqqrqsqtqsquqvqwpKqxqypKpOqzpZqAp0qBqCqDqEqFqGqHqIqJqKp6qLqMqNpsqOqPqQqRqRmTqfcTQtbonLcYqS",
"QtQtqTcsdPQtQtQtQtQtQtqUqVqWqXqYqZq0q1q2q3q4q5q6q7q8q9r.r#raqDrbqEqErcqFqGrdrerfrgrhrirjrkrlrmrnrorprqrrrsa3QtcUrtcXboQtQtQtQtQt",
"bocYoamRcvQtQtQtQtQtQtQtrurvrwrxryrzrArBrCrDrErFrGrHrIrJrgrgrKrLrLrLrMrNrOrPrQrRrSrTrUrVrWrnrXrYrZr0r1r2QtQtr3r4mReocvdKa3bodPa3",
"r5djeKj0mRa3QtQtQtQtQtQtQtr6r7r8r9s.s#sasbscsdsesfrDsgshsisjsksisjsjslsmsnsospqWsqsrssstsusvswsxsyszkjQtQtbomScucvcTcvcTbodioXcv",
"cTj1gKsAcYQtQtQtQtQtQtQtQtcTsBsCsDsEsFsGsHsIs#sJs#sKsLsMsNsOsOsPsQsRsOsSsTsUsJsKsVsWsvsXsYsZs0s1s2cwQtQtQta3cTcTdKbor3r3bor3s3bo",
"QtcvcwqfboQtQtQtQtQtQtQtQtmScxcYs4s5s6s7s8s9t.t#tatbsItcsItdtetftgsFs.thtitjtktktltmtntotptqtrtscXboQtQtQtQtboboa3QtQtQtQtQtQtQt",
"QtQta3QtQtQtQtQtQtQtQtQtQta3cvr3Qtbotttutvtwtxtytzs8tAtBs8tCtDtDtDtCtCs8tEt.tAtBtFtGtHtItJtKcXdPboQtQtQtQtQtQtQtQtQtQtQtQtQtQtQt",
"QtQtQtQtQtQtQtQtQtQtQtQtQtQtQtQtr3ocoaoXtttLtMtNtOtPtQtRtStStStTtTtUtUtUtVtWtVtXtvtYr6tZcTboQtQtQtQtQtQtQtQtQtQtQtQtQtQtQtQtQtQt",
"QtQtQtQtQtQtQtQtQtQtQtQtQtQtQtQtqToat0t1qSQtt2t3t4t5t6t7tvt8t8tvtvt9u.u#uaubucudt4QtQtQtQtQtQtQtQtQtQtQtQtQtQtQtQtQtQtQtQtQtQtQt",
"QtQtQtQtcvcuboQtQtQtQtQtQtQtQtdij#g2ueufcvQtQtQtQtQtuguht4uiuiujukulumunuocTcvdKQtQtQtQtQtQtQtQtQtQtQtQtQtQtQtQtQtQtQtQtQtQtQtQt",
"QtQtbocYupuqcwboboboQtQtQtQtQtr5cshdnLa3QtQtQtQtQtQtQtQtQtQtQtQtQta3a3Qta3bodKboQtQtQtQtQtQtQtQtQtQtQtQtQtQtQtQtQtQtQtQtQtQtQtQt",
"QtQta3obiDdLjobodKdKa3QtQtQtQtr3cuqScTQtQtQtQtQtQtQtQtQtQtQtQtQtQtQtQtQtQtQta3QtQtQtQtQtQtQtQtQtQtQtQtQtQtQtQtQtQtQtQtQtQtQtQtQt"};
