/* XPM */
static char *dummy[]={
"64 64 1498 2",
"d3 c #000000",
"fU c #000101",
"dT c #010101",
"h# c #010201",
"ka c #010302",
"ex c #020202",
"hP c #020302",
"gt c #020402",
"ff c #030303",
"gO c #030604",
"fg c #030704",
"ey c #040404",
"ht c #040704",
"fj c #040705",
"hr c #040805",
"oQ c #040b06",
"fP c #050505",
"nc c #050906",
"f8 c #050a06",
"iC c #060c08",
"oE c #060e08",
"eb c #070707",
"mv c #070d08",
"iA c #070e09",
"eW c #080c09",
"d2 c #080e09",
"iX c #08110b",
"h. c #090f0a",
"eK c #09100b",
"jK c #09110b",
"ec c #0a0a0a",
"jH c #0a140c",
"ho c #0a140d",
"eX c #0b0b0b",
"kt c #0b150d",
"fy c #0c0c0c",
"kZ c #0c160e",
"l4 c #0d180f",
"nG c #0d1c11",
"pC c #0d2011",
"eg c #0f0f0f",
"kb c #0f1f13",
"j6 c #101f13",
"e4 c #102615",
"l8 c #111d14",
"gQ c #132217",
"dU c #151515",
"nj c #152619",
"e0 c #152719",
"nP c #152e1b",
"gb c #162b1b",
"fe c #171717",
"oP c #172d1c",
"lj c #172e1d",
"hu c #17301d",
"qr c #174020",
"ed c #181818",
"f9 c #182f1e",
"qq c #184021",
"eY c #19301f",
"qp c #194121",
"qo c #194122",
"hs c #1a3220",
"ib c #1a3320",
"i3 c #1a3521",
"qn c #1a4122",
"qm c #1a4123",
"p6 c #1a4222",
"g6 c #1b1b1b",
"fk c #1b2f1f",
"i0 c #1b3321",
"dS c #1b3921",
"p7 c #1b4223",
"ef c #1c1c1c",
"jL c #1c3823",
"jM c #1d3924",
"p8 c #1d4224",
"qs c #1d5529",
"fl c #1e3925",
"j8 c #1e3b25",
"p9 c #1e4225",
"fS c #1f3724",
"q. c #1f4226",
"d4 c #205b2c",
"ee c #212121",
"iy c #213b27",
"g. c #214129",
"gq c #214229",
"q# c #214829",
"pl c #225a2f",
"lk c #23432b",
"gv c #25412c",
"mr c #264a2f",
"g8 c #264b30",
"nH c #265031",
"pa c #275732",
"ql c #275f34",
"ln c #284f32",
"o. c #295733",
"uv c #29ca4a",
"uu c #29cb49",
"t6 c #29cb4a",
"t5 c #29cc49",
"tE c #29cc4a",
"mq c #2a5434",
"fm c #2a6236",
"uw c #2aca4d",
"t4 c #2acc4a",
"tD c #2acd49",
"s6 c #2ace49",
"lm c #2b5636",
"tC c #2bcd4a",
"s5 c #2bce4a",
"re c #2bd04b",
"kU c #2c5135",
"ia c #2c5636",
"g7 c #2c5637",
"t7 c #2ccb52",
"t3 c #2ccd4b",
"tB c #2cce4c",
"rf c #2cce4e",
"qy c #2cd04b",
"gu c #2d4f35",
"kv c #2d5737",
"mS c #2d5f39",
"p5 c #2d7a3c",
"ug c #2dcb4b",
"uh c #2dcb4c",
"tF c #2dcb50",
"s4 c #2dd04c",
"pV c #2dd04e",
"oZ c #2dd04f",
"ut c #2ecc4c",
"tA c #2ecf4d",
"rV c #2ecf4e",
"qz c #2ecf54",
"rU c #2ed04d",
"sv c #2ed04e",
"rd c #2ed14e",
"fd c #2f4935",
"ez c #2f5638",
"sw c #2fd04d",
"su c #2fd04e",
"os c #2fd055",
"or c #2fd24e",
"jj c #305e3b",
"j9 c #305f3c",
"ux c #30cb59",
"pW c #30ce58",
"tz c #30d04f",
"oY c #30d24f",
"pU c #30d250",
"pr c #30d350",
"nY c #30d352",
"t8 c #31cc5c",
"ps c #31cf59",
"ty c #31d050",
"s3 c #31d150",
"rT c #31d250",
"nr c #31d451",
"em c #329646",
"t0 c #32ce50",
"tZ c #32ce51",
"st c #32d251",
"rc c #32d252",
"qF c #32d451",
"nX c #32d552",
"gw c #33683f",
"t1 c #33ce51",
"tV c #33cf52",
"hf c #33da58",
"gY c #33da59",
"uf c #34cc50",
"up c #34cd51",
"s7 c #34cf53",
"o0 c #34cf60",
"s2 c #34d253",
"rS c #34d353",
"qE c #34d358",
"qx c #34d453",
"oq c #34d553",
"oX c #34d554",
"p2 c #34d655",
"hB c #34d95a",
"jU c #34da54",
"lK c #35603f",
"hQ c #356c43",
"uP c #35cb5d",
"uL c #35cc51",
"uq c #35ce51",
"rg c #35ce63",
"sx c #35d055",
"ns c #35d15d",
"ss c #35d254",
"qG c #35d554",
"jV c #35d55e",
"m0 c #35d754",
"ju c #35db55",
"ui c #36ce52",
"tv c #36d055",
"s1 c #36d255",
"jv c #36d560",
"hY c #36d95e",
"kj c #36da57",
"ea c #377645",
"us c #37ce53",
"qA c #37ce66",
"uk c #37cf53",
"ul c #37cf54",
"tU c #37d055",
"tu c #37d056",
"tw c #37d155",
"rb c #37d456",
"j# c #37d661",
"nq c #37d856",
"ik c #37d861",
"j. c #37db56",
"gD c #37db60",
"iJ c #37dc57",
"ij c #37dd57",
"ga c #386a44",
"pk c #387c48",
"uH c #38cd53",
"uo c #38ce54",
"pX c #38ce6a",
"t2 c #38d054",
"nZ c #38d064",
"tt c #38d157",
"s0 c #38d257",
"sr c #38d357",
"rr c #38d455",
"kk c #38d463",
"qw c #38d557",
"m1 c #38d55c",
"mg c #38d561",
"iK c #38d763",
"px c #38d95a",
"hX c #38de57",
"ll c #396845",
"uZ c #39cc54",
"u0 c #39cc55",
"uO c #39cc5c",
"uI c #39cd53",
"ud c #39cd54",
"tN c #39cf53",
"tQ c #39d055",
"tW c #39d156",
"ts c #39d158",
"rq c #39d357",
"p1 c #39d55e",
"nW c #39d858",
"kA c #3a6c45",
"fQ c #3a7148",
"oj c #3a884c",
"uY c #3acc55",
"u1 c #3acc56",
"uy c #3acc6a",
"uJ c #3acd54",
"uK c #3ace54",
"ue c #3ace55",
"tO c #3acf54",
"tf c #3acf56",
"sE c #3ad156",
"tY c #3ad157",
"tq c #3ad259",
"rs c #3ad557",
"pT c #3ad659",
"pq c #3ad759",
"op c #3ad859",
"py c #3ada5a",
"hA c #3adf59",
"he c #3ae05b",
"jn c #3b7649",
"u3 c #3bcc56",
"u2 c #3bcc57",
"uG c #3bce57",
"ur c #3bcf55",
"tP c #3bcf56",
"ot c #3bcf70",
"tg c #3bd056",
"sD c #3bd057",
"sF c #3bd256",
"tp c #3bd259",
"tr c #3bd25a",
"sZ c #3bd35a",
"sq c #3bd45a",
"ra c #3bd55a",
"oW c #3bd85a",
"p3 c #3bd85b",
"jm c #3c754b",
"li c #3c774b",
"uM c #3ccd58",
"uN c #3ccd5b",
"pt c #3cce73",
"uj c #3ccf56",
"tM c #3ccf58",
"um c #3cd057",
"th c #3cd157",
"r4 c #3cd356",
"hC c #3cd470",
"rR c #3cd55b",
"n3 c #3cd967",
"mZ c #3cda5b",
"ki c #3cde5b",
"k0 c #3d784b",
"uX c #3dcd5a",
"t9 c #3dcd70",
"rW c #3dd065",
"tx c #3dd259",
"sG c #3dd358",
"sp c #3dd55c",
"qv c #3dd65c",
"qH c #3dd75a",
"lS c #3dd862",
"ny c #3dde63",
"gX c #3de05e",
"uQ c #3ecc6c",
"uF c #3ecd5b",
"uc c #3ece5c",
"un c #3ed058",
"te c #3ed05b",
"tR c #3ed159",
"ti c #3ed258",
"r3 c #3ed25a",
"sX c #3ed35c",
"r5 c #3ed458",
"sY c #3ed45c",
"np c #3edb5d",
"jT c #3ede5d",
"n4 c #3ede61",
"mu c #3f704b",
"nO c #3f774b",
"oD c #3f9150",
"u4 c #3fcc5d",
"sH c #3fd35a",
"sW c #3fd35d",
"mF c #3fd46a",
"nx c #3fd970",
"mf c #3fda5e",
"mD c #3fdb5d",
"kH c #3fdd5d",
"o8 c #3fdd5e",
"eh c #40714c",
"ic c #407c4e",
"pP c #40b058",
"uE c #40cd5e",
"uD c #40ce5f",
"tG c #40cf6a",
"tT c #40d25a",
"tj c #40d35a",
"sV c #40d45f",
"hZ c #40d478",
"r6 c #40d55b",
"so c #40d55f",
"rQ c #40d65e",
"r# c #40d75f",
"pS c #40d85f",
"mE c #40d95f",
"nV c #40db5f",
"pz c #40dc5f",
"m5 c #40dd6b",
"jt c #40e05f",
"i9 c #40e060",
"kz c #418151",
"td c #41cf5f",
"tS c #41d25b",
"tk c #41d35c",
"sI c #41d45c",
"sU c #41d55f",
"pp c #41d960",
"fZ c #41e162",
"m6 c #41e263",
"tL c #42cf61",
"mh c #42d27b",
"sT c #42d560",
"n2 c #42d57a",
"oV c #42da60",
"fH c #42e067",
"iI c #42e161",
"nz c #42e162",
"jk c #438454",
"uW c #43cd63",
"rh c #43cf80",
"tX c #43d35d",
"tl c #43d45d",
"to c #43d45f",
"sn c #43d561",
"sS c #43d562",
"rP c #43d762",
"rt c #43d85d",
"qu c #43d862",
"f1 c #43d976",
"oo c #43db62",
"kI c #43db63",
"k9 c #43dd60",
"mC c #43dd61",
"hW c #43e162",
"mI c #43e16a",
"nt c #44d17b",
"jw c #44d181",
"il c #44d380",
"tm c #44d45f",
"sJ c #44d55e",
"sR c #44d562",
"r7 c #44d65e",
"p4 c #44db62",
"fI c #44dc73",
"o9 c #44de63",
"f0 c #44df6b",
"kG c #44e064",
"gC c #44e263",
"el c #457b52",
"gL c #458254",
"vd c #45cd65",
"ja c #45d284",
"sm c #45d663",
"pR c #45d963",
"mH c #45da7b",
"pA c #45dc64",
"mY c #45de64",
"fR c #468756",
"jF c #468957",
"sC c #46d166",
"lT c #46d478",
"sK c #46d560",
"sl c #46d664",
"r8 c #46d760",
"rO c #46d764",
"ov c #46d778",
"qt c #46d865",
"m4 c #46d880",
"pw c #46db68",
"lR c #46dd62",
"o7 c #46de65",
"k8 c #46e164",
"kh c #46e165",
"i# c #477f54",
"mN c #479058",
"fD c #479f5a",
"uC c #47ce68",
"ub c #47cf68",
"sy c #47d26c",
"iL c #47d385",
"tn c #47d561",
"qD c #47d56f",
"ru c #47d862",
"r. c #47d865",
"po c #47db66",
"gi c #47dd71",
"hz c #47e365",
"hd c #47e465",
"gW c #47e466",
"mJ c #47e567",
"kw c #488c59",
"ve c #48ce6a",
"tc c #48d06b",
"r2 c #48d36a",
"rp c #48d46c",
"sL c #48d662",
"sk c #48d766",
"ow c #48dc6d",
"lw c #48dd66",
"no c #48de66",
"mi c #48de7a",
"mj c #48e56c",
"pD c #49a45d",
"uV c #49cf6b",
"tK c #49d06b",
"r9 c #49d863",
"rN c #49d867",
"qI c #49db64",
"oU c #49db68",
"on c #49dd68",
"nU c #49de68",
"gh c #49e26a",
"m7 c #49e568",
"vc c #4ace6c",
"eL c #4ad165",
"sM c #4ad765",
"rM c #4ad868",
"q9 c #4ad968",
"lv c #4ae066",
"lW c #4ae178",
"jS c #4ae369",
"eM c #4ae36c",
"lh c #4b8e5c",
"e3 c #4b905c",
"p# c #4bc766",
"vf c #4bcf6f",
"n0 c #4bd089",
"s8 c #4bd371",
"s. c #4bd865",
"sj c #4bd869",
"rv c #4bda65",
"pQ c #4bdb69",
"ox c #4be069",
"fG c #4be46a",
"gg c #4be568",
"vj c #4cce71",
"vi c #4ccf71",
"mG c #4cd18a",
"m2 c #4cd57a",
"sQ c #4cd767",
"rL c #4cd96b",
"pB c #4cdd6a",
"me c #4ce068",
"mB c #4ce06b",
"n5 c #4ce369",
"js c #4ce46b",
"e6 c #4ce46c",
"gN c #4d9760",
"gR c #4da362",
"uU c #4dd071",
"tJ c #4dd075",
"sN c #4dd866",
"sh c #4dd96a",
"q8 c #4dda6b",
"pn c #4ddc6b",
"f. c #4ddd80",
"oz c #4de26a",
"fY c #4de56b",
"i8 c #4de56c",
"gM c #4e9860",
"o# c #4ea162",
"vg c #4ecf72",
"sO c #4ed868",
"s# c #4ed968",
"si c #4ed96b",
"rK c #4ed96c",
"lV c #4ed98d",
"rw c #4eda68",
"fr c #4edb83",
"o6 c #4edd6f",
"lz c #4edd88",
"p. c #4ee06c",
"oy c #4ee26a",
"en c #4ee371",
"hV c #4ee56d",
"mk c #4ee86d",
"g9 c #4f8d5d",
"vh c #4fcf73",
"uz c #4fd086",
"rJ c #4fd96d",
"q7 c #4fdb6d",
"l. c #4fdb71",
"oT c #4fdd6d",
"fs c #4fde81",
"mX c #4fe16e",
"oA c #4fe26d",
"ii c #4fe56e",
"gB c #4fe66b",
"vb c #50d075",
"uB c #50d076",
"sP c #50d86a",
"sa c #50d96b",
"qJ c #50dc6a",
"lA c #50e579",
"kn c #50e777",
"mK c #50e86f",
"jY c #50e974",
"u5 c #51d076",
"rX c #51d287",
"kJ c #51d97c",
"f2 c #51d990",
"rx c #51db6b",
"rI c #51db6f",
"gj c #51db8c",
"fJ c #51df81",
"nn c #51e16f",
"f3 c #51e17f",
"k7 c #51e46e",
"kF c #51e46f",
"nA c #51e66e",
"fx c #52855d",
"mO c #529c63",
"kV c #52a367",
"uR c #52d086",
"uT c #52d178",
"sb c #52da6d",
"sg c #52da6e",
"q6 c #52db6f",
"rH c #52db70",
"q5 c #52db71",
"pm c #52dd70",
"om c #52de6f",
"nT c #52df70",
"lQ c #52e26c",
"f# c #52e477",
"fp c #52e573",
"kN c #52e57e",
"fo c #52e670",
"lX c #52e873",
"hN c #53a266",
"ie c #53a969",
"ua c #53d179",
"ld c #53e185",
"fq c #53e27a",
"md c #53e36f",
"jX c #53e482",
"kg c #53e572",
"m8 c #53e771",
"jz c #53e77d",
"nk c #54ba6c",
"vk c #54d07b",
"oR c #54d571",
"p0 c #54d97b",
"lx c #54da7b",
"q4 c #54db72",
"qK c #54dd6e",
"oB c #54e372",
"gk c #54e37f",
"e7 c #54e478",
"eS c #54e47a",
"ft c #54e57a",
"e5 c #54e773",
"lI c #559664",
"eD c #55a669",
"ky c #55a86a",
"ew c #55b369",
"tI c #55d183",
"e9 c #55d895",
"sc c #55db6e",
"ry c #55dc6e",
"oS c #55df73",
"jc c #55e87b",
"kO c #55eb78",
"fT c #569f67",
"i2 c #56a46a",
"pO c #56c771",
"sd c #56db70",
"rz c #56dc71",
"q3 c #56dc74",
"ol c #56e074",
"mA c #56e374",
"dH c #56e575",
"jR c #56e675",
"hy c #56e772",
"gf c #56e871",
"le c #56e97a",
"jl c #57a96c",
"iZ c #57ab6c",
"uS c #57d180",
"q2 c #57dd75",
"qL c #57de71",
"lu c #57e471",
"n6 c #57e672",
"fK c #57e67b",
"fF c #57e874",
"ko c #57ec77",
"jA c #57ec78",
"d0 c #588963",
"sB c #58d481",
"se c #58db71",
"pv c #58db7f",
"rA c #58dc71",
"sf c #58dc72",
"rG c #58dc75",
"q1 c #58dd75",
"nS c #58e177",
"mW c #58e276",
"km c #58e28b",
"d5 c #58e37c",
"jr c #58e777",
"f4 c #58e77b",
"mL c #58e877",
"ml c #58ea77",
"va c #59d281",
"qT c #59dd75",
"q0 c #59de77",
"nm c #59e277",
"dg c #59e47c",
"cP c #59e67b",
"fX c #59e775",
"fn c #59e777",
"#f c #59e978",
"#g c #59ea76",
"kx c #5ab170",
"tb c #5ad384",
"rB c #5add75",
"qS c #5add76",
"qM c #5ade74",
"eN c #5ae281",
"oC c #5ae377",
"cp c #5ae779",
"dG c #5ae874",
"df c #5ae877",
"i7 c #5ae878",
"gA c #5ae974",
"gV c #5ae975",
"eE c #5ba86d",
"mc c #5be476",
"jZ c #5bed79",
"l9 c #5cab6e",
"fz c #5cb372",
"cR c #5cdb95",
"o5 c #5cdc85",
"qN c #5cde76",
"qc c #5cde79",
"qb c #5cdf79",
"ok c #5ce17a",
"cQ c #5ce285",
"lP c #5ce576",
"cO c #5ce977",
"#G c #5ceb78",
"lY c #5cec79",
"j7 c #5db573",
"uA c #5dd38a",
"r1 c #5dd687",
"rC c #5dde76",
"rD c #5dde77",
"qk c #5ddf7b",
"bL c #5de67f",
"n7 c #5de777",
"fE c #5de87a",
"b5 c #5de87b",
"iH c #5de97b",
"#F c #5de97d",
"fa c #5dea7c",
"kP c #5ded7c",
"e1 c #5ea46e",
"vp c #5ed288",
"qj c #5ee07c",
"nR c #5ee37c",
"b6 c #5ee581",
"k6 c #5ee77a",
"nB c #5ee879",
"kE c #5ee87b",
"fW c #5ee87c",
"bK c #5ee97b",
"gl c #5ee97d",
"fu c #5eea7c",
"iO c #5eeb80",
"jB c #5eed7c",
"eC c #5fb674",
"jN c #5fc178",
"dl c #5fd1ba",
"vq c #5fd28a",
"u# c #5fd48b",
"qa c #5fdc7b",
"qO c #5fdf79",
"qi c #5fe07c",
"mV c #5fe47d",
"cq c #5fe484",
"mz c #5fe57d",
"et c #5fe588",
"kf c #5fe87d",
".W c #5fe982",
"lZ c #5fec7e",
"lB c #5fed7d",
"eF c #60a971",
"eR c #60d1ba",
"cW c #60d1bb",
"v# c #60d38c",
"rF c #60de79",
"qQ c #60de7a",
"qP c #60df7a",
"qR c #60df7b",
"qd c #60e07d",
"mb c #60e67d",
"de c #60e97a",
"hU c #60e97c",
"co c #60ea7b",
"mm c #60ea7e",
"#h c #60eb7c",
"eG c #61aa72",
"eH c #61ab72",
"lc c #61d1bb",
"gZ c #61d2bc",
"ro c #61d78d",
"rE c #61de7a",
"qU c #61df7b",
"qZ c #61e07c",
"kM c #61e09a",
"dI c #61e389",
"bl c #61e684",
"nC c #61e87c",
"#3 c #61e982",
"bN c #61ea7f",
"fL c #61ea80",
"#4 c #61eb7d",
"eT c #61eb7e",
"#H c #61ec7c",
"ip c #61ec7f",
"kp c #61ed80",
"fB c #62ac74",
"oi c #62c67a",
"eQ c #62d2bc",
"pE c #62e17f",
"pN c #62e280",
"e8 c #62e28d",
"nQ c #62e480",
"lt c #62e87d",
"dF c #62ea7d",
"bq c #62ea80",
"h2 c #62eb81",
"hE c #62eb83",
"jd c #62ee7f",
"dV c #636363",
"dk c #63d2bd",
"vr c #63d490",
"qg c #63e17f",
"nl c #63e482",
".n c #63e783",
"a4 c #63e982",
"eu c #63ea83",
"b4 c #63eb7f",
"n1 c #64d2bd",
"dm c #64d2be",
"pF c #64e280",
"jQ c #64e981",
"ai c #64e985",
".X c #64e986",
"ge c #64ea7d",
"m9 c #64ea7f",
".G c #64ea80",
"f5 c #64ea82",
"bO c #64eb7e",
"j0 c #64ee83",
"hL c #65c07c",
"kW c #65c77e",
"lU c #65d3bf",
"vo c #65d493",
"l# c #65da92",
"pM c #65e382",
"eo c #65e390",
"mU c #65e683",
".o c #65e785",
".m c #65e787",
"bp c #65e789",
".F c #65e982",
"aG c #65e986",
"br c #65eb7f",
"a5 c #65eb81",
"aj c #65eb82",
"cN c #65ec7f",
"#5 c #65ec80",
"#i c #65ec81",
"fO c #66ba7a",
"gE c #66d3bf",
"u6 c #66d596",
"s9 c #66d795",
"sz c #66d895",
"fV c #66d97f",
"qC c #66d994",
"dh c #66e195",
"n8 c #66e781",
"my c #66e784",
"a0 c #66e78b",
".p c #66e886",
"jq c #66ea83",
"gz c #66eb7f",
"aH c #66eb83",
"fb c #66ec84",
"jC c #66ed84",
"g# c #67b579",
"k2 c #67b97a",
"iB c #67c77e",
"lH c #67ca7f",
"ri c #67d3c0",
"v. c #67d495",
"vs c #67d496",
"cr c #67e096",
"qV c #67e181",
"bM c #67e392",
".l c #67e68c",
"#E c #67e68e",
"hh c #67e88a",
"kD c #67e984",
".E c #67e987",
"gU c #67eb81",
".H c #67eb82",
"bk c #67eb85",
"l0 c #67ec85",
"#I c #67ed82",
"hi c #67ed83",
"lC c #67ef82",
"iP c #67f082",
"lJ c #68bb7b",
"fA c #68c37e",
"hO c #68ca80",
"nb c #68cd7e",
"jb c #68d3c0",
"rk c #68d3c1",
"ha c #68dc84",
"qW c #68e181",
"b7 c #68e295",
"qf c #68e383",
"pb c #68e484",
"pL c #68e485",
"ma c #68e885",
".q c #68e887",
".r c #68e888",
"b9 c #68e989",
"gH c #68e98a",
"#b c #68ea86",
"#c c #68ea88",
".Y c #68ea89",
"hc c #68eb82",
".I c #68eb84",
"fv c #68eb86",
"hF c #68ee82",
"iq c #68f083",
"je c #68f085",
"ix c #69c37f",
"im c #69d4c1",
"pZ c #69db98",
"qY c #69e282",
".a c #69e592",
"aF c #69e790",
"ah c #69e791",
"lO c #69e881",
".s c #69e88b",
"#B c #69e98a",
"e. c #69e98e",
".Z c #69ea8a",
"n. c #69eb84",
"i6 c #69eb85",
"cz c #69eb88",
"ak c #69ec83",
"ev c #69ed84",
"h3 c #69ee83",
"kQ c #69ee87",
"i1 c #6ad084",
"es c #6ad4c2",
"qX c #6ae282",
"bm c #6ae394",
"mT c #6ae788",
"#d c #6ae78e",
"#2 c #6ae792",
".J c #6aeb85",
".1 c #6aeb86",
"ke c #6aeb88",
".0 c #6aeb89",
"dd c #6aec83",
".K c #6aec84",
"#A c #6aec86",
"fM c #6aec88",
"cn c #6aed83",
"eU c #6aed85",
"#j c #6aed86",
"j5 c #6bc882",
"iD c #6bca82",
"ku c #6bd285",
"u7 c #6bd4c2",
"kK c #6bd4c3",
"vt c #6bd59d",
"ly c #6bda9f",
"qe c #6be385",
".# c #6be495",
"d9 c #6be49b",
"pj c #6be588",
"n9 c #6be885",
".D c #6be88f",
"#Y c #6be98b",
"nD c #6bea85",
"k5 c #6bea86",
"gS c #6bea88",
"aC c #6bea8c",
"gd c #6beb85",
"hT c #6beb87",
"#X c #6beb88",
".L c #6bec85",
"e# c #6bec89",
"#6 c #6bed85",
"lD c #6bee87",
"jf c #6bee88",
"j1 c #6bee89",
"jI c #6cd486",
"dM c #6cd4c3",
"cV c #6cd4c4",
"vn c #6cd59c",
"oF c #6ce186",
"qh c #6ce386",
".b c #6ce495",
"#C c #6ce693",
"aD c #6ce694",
"mx c #6ce889",
".T c #6ce98e",
"hx c #6cea88",
"hw c #6cea89",
"ih c #6ceb88",
"iF c #6ceb89",
"aZ c #6ceb8a",
".2 c #6cec86",
".N c #6cec87",
"aI c #6ced85",
"c. c #6ced86",
"#a c #6ced87",
"#J c #6cee86",
"lf c #6cf087",
"hn c #6d6f6d",
"io c #6dd5c4",
"u9 c #6dd69f",
"pG c #6de487",
".c c #6de596",
"gG c #6de59a",
".V c #6de694",
"#Z c #6de793",
"g1 c #6de795",
".t c #6de890",
".U c #6de891",
".S c #6dea8c",
"gy c #6deb87",
"ig c #6deb89",
"hS c #6deb8a",
"dE c #6dec87",
"iG c #6dec89",
".O c #6dec8a",
"mn c #6dec8b",
"bP c #6ded86",
".M c #6ded88",
"c1 c #6ded8a",
"jD c #6dee8a",
"mR c #6ec482",
"tH c #6ed5c5",
"pu c #6edc9f",
".k c #6ee598",
".C c #6ee796",
"ls c #6eea87",
"n# c #6eea89",
"gT c #6eeb88",
".P c #6eeb8b",
".Q c #6eeb8c",
".R c #6eeb8d",
"bs c #6eed87",
"#z c #6eed88",
"f6 c #6eed8c",
"#W c #6eee88",
"h0 c #6fd5c6",
"vu c #6fd6a1",
"gr c #6fd989",
"iE c #6fe08a",
"eO c #6fe1a2",
"d6 c #6fe29f",
"a1 c #6fe49c",
".d c #6fe599",
"eV c #6fe689",
"pc c #6fe68a",
"m# c #6fea8c",
"hb c #6feb89",
"kC c #6feb8c",
"jp c #6fec8b",
"dp c #6fec8f",
".3 c #6fed88",
"#k c #6fee88",
"jg c #6fee8c",
"in c #70d5c6",
"vv c #70d7a3",
"k# c #70da8a",
"kX c #70da8b",
".e c #70e59a",
"pI c #70e68a",
".A c #70e69c",
"pi c #70e78c",
".B c #70e79b",
"oN c #70e88c",
".u c #70e896",
"lN c #70ea8a",
"mo c #70ea8d",
"if c #70ea8e",
"c0 c #70ea95",
"gx c #70eb8b",
"hR c #70eb8e",
"dR c #70eb92",
"al c #70ee89",
"gm c #70ee8a",
"g2 c #70ef89",
"hj c #70ef8a",
"iQ c #70f18a",
"rl c #71d5c7",
"jx c #71d6c7",
"gs c #71de8d",
"k1 c #71df8c",
"pK c #71e68a",
"af c #71e69c",
".v c #71e798",
"oh c #71e98d",
"hv c #71eb8e",
"i5 c #71eb8f",
".4 c #71ec89",
"mM c #71ec8c",
"l1 c #71ec8f",
"## c #71ed8a",
"j2 c #71ee8f",
"#K c #71ef8a",
"lE c #71ef8e",
"hG c #71f08b",
"h4 c #71f18b",
"er c #72d6c7",
"iM c #72d6c8",
"k. c #72df8d",
".f c #72e59e",
"pH c #72e68b",
"cy c #72e89b",
"ob c #72e98e",
"nI c #72ea8f",
"mp c #72eb8f",
"ae c #72eb90",
"kd c #72ec8e",
"jP c #72ec90",
".5 c #72ed8b",
"fc c #72ed8e",
"#l c #72ee8b",
"#y c #72ee8c",
"dq c #72ee8d",
"iS c #72ee8f",
"#7 c #72ef8c",
"ir c #72f18c",
"vx c #73d6c8",
"dN c #73d6c9",
"iY c #73df8d",
"nd c #73e18e",
"mw c #73e58d",
"pJ c #73e68c",
"ph c #73e78e",
".w c #73e79d",
"og c #73e98f",
"oa c #73ea90",
"nJ c #73ea91",
"nE c #73eb8c",
"na c #73eb8e",
"gc c #73ec8d",
"i4 c #73ec91",
"jh c #73ed91",
"#. c #73ee8c",
"g3 c #73ee8f",
"iR c #73f08e",
"hD c #74d6c9",
"hq c #74e490",
"aE c #74e4a5",
"#0 c #74e5a0",
"#D c #74e5a2",
"b8 c #74e6a2",
"oO c #74e88f",
"oM c #74e98e",
"jo c #74ec92",
".6 c #74ed8c",
"a6 c #74ee8c",
".9 c #74ee8d",
".7 c #74ee8e",
"#x c #74ef8e",
"dj c #75d7ca",
"#e c #75e4a5",
".j c #75e5a4",
".x c #75e6a1",
"dQ c #75e8a1",
"oG c #75e98f",
"oI c #75e990",
"do c #75e99f",
"l2 c #75ec91",
"jO c #75ec92",
"gJ c #75ed91",
"jE c #75ed92",
"gp c #75ed93",
"dc c #75ee8e",
"fw c #75ee90",
"iT c #75ee92",
"hH c #75f08f",
"vw c #76d7ca",
"d1 c #76e090",
"fh c #76e692",
"iz c #76e792",
"pd c #76e88f",
"oH c #76e990",
"oe c #76ea92",
"nF c #76eb8f",
"l3 c #76eb92",
"kc c #76ec92",
"lM c #76ed91",
"iU c #76ed94",
"cA c #76ee8e",
".8 c #76ee8f",
"am c #76ef90",
"m3 c #77d7cb",
"eP c #77d7cc",
".g c #77e4a6",
"jJ c #77e893",
"pe c #77e990",
"pf c #77e991",
"f7 c #77e993",
"of c #77eb93",
"iW c #77eb94",
"#m c #77ee8f",
"#w c #77ef90",
"dD c #77ef91",
"lF c #77ef92",
"gI c #77f090",
"kq c #77f093",
"u8 c #78d7cc",
"bn c #78e2ac",
".y c #78e5a6",
"pg c #78e991",
"jG c #78ea94",
"nM c #78eb93",
"hp c #78eb95",
"m. c #78ec93",
"lr c #78ed91",
"iV c #78ed95",
"eZ c #78ed96",
"#L c #78ef91",
"j3 c #78ef95",
"is c #78f192",
"jy c #79d8cd",
"dJ c #79e1af",
"ag c #79e3ac",
"oc c #79eb93",
"k4 c #79ed93",
"cl c #79ed96",
"ji c #79ee96",
"eA c #79ee97",
"#n c #79ef92",
"fN c #79ef94",
"lb c #7ad8ce",
".z c #7ae4ab",
"cZ c #7ae6aa",
"oJ c #7aea93",
"kY c #7aeb96",
"nK c #7aec95",
"eB c #7aed96",
"kB c #7aee96",
"ck c #7aee97",
"#o c #7aef92",
"#v c #7aef93",
"ac c #7af093",
"gn c #7af094",
"it c #7af095",
"h5 c #7af193",
"kR c #7af194",
"nw c #7bd8ce",
".h c #7be4ad",
"nN c #7bec95",
"hk c #7bee96",
"c8 c #7bee97",
"cj c #7bee98",
"#p c #7bef94",
"go c #7bef96",
"l5 c #7ce194",
"a2 c #7ce2b1",
"id c #7ce696",
"oL c #7cea94",
"oK c #7ceb95",
"ne c #7cec96",
"cH c #7cee98",
"dz c #7cee99",
"#u c #7cef95",
"h6 c #7cf096",
"g0 c #7dd9d0",
"ep c #7de1b5",
"#1 c #7de3b2",
"od c #7deb96",
"lL c #7ded97",
"bZ c #7dee99",
"#q c #7def95",
"#s c #7def96",
"ad c #7def97",
"dA c #7def99",
"#M c #7df095",
"#r c #7df096",
"hg c #7ed9d0",
"fC c #7ede94",
"lq c #7eee98",
"aJ c #7eef95",
"lG c #7eef98",
"c6 c #7eef99",
"cI c #7eef9a",
"#t c #7ef097",
"ab c #7ef197",
"o1 c #7fd9d1",
".i c #7fe4b4",
"eJ c #7fe597",
"dn c #7fe5b3",
"nL c #7fed98",
"hM c #7fef9a",
"b0 c #7fef9b",
"#N c #7ff098",
"lg c #7ff298",
"sA c #80d9d2",
"gP c #80e197",
"ng c #80ee9a",
"#P c #80ef98",
"gK c #80ef9a",
"d. c #80ef9b",
"#O c #80f098",
"#V c #80f198",
"#U c #80f199",
"d8 c #81dad2",
"vl c #81dad3",
"nh c #81ee9a",
"#Q c #81ef99",
"k3 c #81ef9a",
"e2 c #81ef9b",
"bY c #81ef9c",
"#T c #81f09a",
"l6 c #81f09b",
"dZ c #828282",
"kL c #82dad3",
"ni c #82ee9c",
"nf c #82ef9b",
"ms c #82ef9c",
"#R c #82f09b",
"c9 c #82f09c",
"ek c #82f09d",
"aw c #82f29a",
"gF c #83dad4",
"fi c #83ec9c",
"lp c #83ef9c",
"l7 c #83ef9d",
"#S c #83f09b",
"ci c #83f09d",
"ej c #83f09e",
"av c #83f19b",
"kr c #83f19c",
"kS c #83f29b",
"i. c #84a78d",
"rY c #84dad4",
"mP c #84ef9d",
"#8 c #84f09c",
"c7 c #84f09e",
"aa c #84f19c",
"j4 c #84f19d",
"dB c #84f19e",
"cx c #85dbd5",
"lo c #85ee9d",
"dy c #85f09e",
"d# c #85f09f",
"dC c #85f19d",
"#9 c #85f19e",
"aS c #85f29e",
"dL c #86dbd6",
"mQ c #86f09e",
"bX c #86f09f",
"an c #86f19c",
"a. c #86f19e",
"a# c #86f19f",
"ei c #86f1a0",
"kT c #86f29e",
"aR c #86f29f",
"iN c #87dbd6",
"kl c #87dbd7",
"mt c #87f09f",
"aq c #87f1a0",
"bB c #87f1a1",
"ks c #87f29f",
"au c #87f2a0",
"h1 c #88dbd7",
"eI c #88efa0",
"cG c #88f1a0",
"bC c #88f1a1",
"at c #88f2a0",
"as c #88f2a1",
"cs c #89dcd8",
"bD c #89f1a1",
"bA c #89f1a2",
"ar c #89f2a1",
"aQ c #89f2a2",
"rn c #8adcd8",
"pY c #8adcd9",
"iu c #8af0a3",
"ch c #8af1a2",
"ax c #8af2a2",
"cg c #8af2a3",
"cS c #8bdcda",
"ap c #8bf1a1",
"aP c #8bf1a2",
"cM c #8bf2a0",
"bW c #8bf2a4",
"nu c #8cdcda",
"vm c #8cdddb",
"aK c #8cf1a1",
"cw c #8ddddb",
"aB c #8df0a3",
"bQ c #8df1a1",
"bE c #8df2a4",
"ct c #8edddb",
"cF c #8ef2a6",
"qB c #8fdddc",
"cX c #8fdddd",
"ao c #8ff2a4",
"o3 c #90dddd",
"c5 c #90f3a8",
"eq c #91dede",
"dO c #92dede",
"cY c #92dedf",
"bJ c #92f1a5",
"jW c #93dedf",
"rm c #94dee0",
"rj c #94dfe0",
"db c #94f2aa",
"cU c #95dfe1",
"o4 c #96dfe1",
"o2 c #96dfe2",
"bd c #96f3ac",
"dx c #96f4ab",
"r0 c #97dfe2",
"bz c #97f3ac",
"d7 c #98dfe3",
"rZ c #98e0e3",
"da c #98f3ac",
"u. c #99e0e3",
"bt c #99f2ac",
"cf c #99f3af",
"hK c #9aa49d",
"ou c #9ae0e4",
"ta c #9ae0e5",
"di c #9be0e5",
"aT c #9bf4af",
"t# c #9ce0e5",
"cu c #9ce0e6",
"dP c #9ce1e6",
"aL c #9cf3af",
"be c #9cf4b0",
"dX c #9d9d9d",
"la c #9de1e6",
"nv c #9de1e7",
"a7 c #9df3ae",
"c2 c #9df3af",
"cv c #9ee1e7",
"cT c #9fe1e8",
"cE c #9ff4b3",
"t. c #a0e1e8",
"dK c #a0e2e9",
"iw c #a0f3b5",
"b1 c #a0f4b4",
"aO c #a0f5b4",
"bo c #a1e2e9",
"a3 c #a1e2ea",
"g4 c #a1f3b4",
"Qt c #a2e2ea",
"cB c #a3f3b5",
"dY c #a5a5a5",
"iv c #a5f3b9",
"c4 c #a5f4b9",
"ay c #a5f6b6",
"ce c #a6f5b8",
"dW c #a8a8a8",
"dw c #a9f5bb",
"cm c #adf6bb",
"bV c #aef5be",
"aY c #b2f5c0",
"bj c #b3f6c0",
"b3 c #b4f6c1",
"cd c #b4f6c3",
"bF c #b4f6c4",
"cJ c #b5f7c4",
"dv c #baf7c8",
"aA c #bbf7c8",
"aM c #bbf7c9",
"bc c #bef8cc",
"az c #bff8ca",
"h7 c #c1f7cd",
"c# c #c1f8cd",
"by c #c4f8d0",
"a8 c #c6f8d0",
"cL c #c6f9d2",
"aN c #c8f8d2",
"g5 c #c9e1cf",
"a9 c #cbf9d5",
"aU c #cdf9d7",
"hl c #cef8d9",
"cc c #d3fadc",
"cK c #d4fadd",
"bf c #d4fbdc",
"b. c #d5fadd",
"bu c #d6fadd",
"bU c #d6fade",
"c3 c #d7fbdf",
"b2 c #d8fbe0",
"hI c #d9fae1",
"bT c #dbfbe3",
"bb c #ddfbe4",
"h9 c #ddfbe5",
"h8 c #dffae5",
"aX c #e0fbe6",
"cC c #e1fbe7",
"dr c #e1fce7",
"bx c #e2fbe7",
"bG c #e2fbe8",
"bI c #e2fce6",
"bS c #e3fbe9",
"bi c #e4fce9",
"b# c #e4fcea",
"ca c #e5fcea",
"aV c #e5fdea",
"cb c #e6fceb",
"ba c #e7fcec",
"bR c #e7fdec",
"aW c #e8fcec",
"bv c #e8fced",
"bg c #e9fded",
"bw c #e9fdee",
"bh c #eafdee",
"bH c #eafdef",
"cD c #ebfdef",
"du c #eefdf1",
"dt c #effdf3",
"hJ c #f2fdf5",
"ds c #f4fef6",
"hm c #f7fdf8",
"QtQtQtQtQtQtQtQtQtQtQtQtQtQtQtQtQtQtQtQtQtQtQtQtQtQtQtQtQtQtQtQtQtQtQtQtQtQtQtQtQtQtQtQtQtQtQtQtQtQtQtQtQtQtQtQtQtQtQtQtQtQtQtQt",
"QtQtQtQtQtQtQtQtQtQtQtQtQtQtQtQtQtQtQtQtQtQtQtQtQtQtQtQtQtQtQtQtQtQtQtQtQtQtQtQtQtQtQtQtQtQtQtQtQtQtQtQtQtQtQtQtQtQtQtQtQtQtQtQt",
"QtQtQtQtQtQtQtQtQtQtQtQtQtQtQtQtQtQtQtQtQtQtQtQtQtQtQt.#.a.b.c.d.e.f.g.h.iQtQtQtQtQtQtQtQtQtQtQtQtQtQtQtQtQtQtQtQtQtQtQtQtQtQtQt",
"QtQtQtQtQtQtQtQtQtQtQtQtQtQtQtQtQtQtQtQtQtQtQt.j.k.l.m.n.o.p.p.q.r.s.t.u.v.w.x.y.zQtQtQtQtQtQtQtQtQtQtQtQtQtQtQtQtQtQtQtQtQtQtQt",
"QtQtQtQtQtQtQtQtQtQtQtQtQtQtQtQtQtQtQtQt.A.B.C.D.E.F.G.H.I.J.K.L.M.N.O.P.Q.R.S.T.U.V.e.jQtQtQtQtQtQtQtQtQtQtQtQtQtQtQtQtQtQtQtQt",
"QtQtQtQtQtQtQtQtQtQtQtQtQtQtQtQtQtQt.W.X.Y.Z.0.1.L.2.3.4.5.6.7.8.8.8.8.9#.##.3#a.1#b#c#d.d#eQtQtQtQtQtQtQtQtQtQtQtQtQtQtQtQtQtQt",
"QtQtQtQtQtQtQtQtQtQtQtQtQtQtQtQt#f#g#h#i#j#a#k#l.9#m#n#o#p#p#q#q#r#s#t#r#u#v#w#x#y#z#A#b#B#C#DQtQtQtQtQtQtQtQtQtQtQtQtQtQtQtQtQt",
"QtQtQtQtQtQtQtQtQtQtQtQtQtQt#E#F#G#H#I#J#K#x#L#p#M#N#O#P#Q#R#S#S#S#S#R#S#T#U#V#r#v#w#.#W#X#Y#Z#0#1QtQtQtQtQtQtQtQtQtQtQtQtQtQtQt",
"QtQtQtQtQtQtQtQtQtQtQtQtQt#2#3#4#5#6#7#L#o#q#N#T#S#8#9#9a.a.a#a.a.a.a.a.a.#9aa#S#Uabac#L#radae.DafagQtQtQtQtQtQtQtQtQtQtQtQtQtQt",
"QtQtQtQtQtQtQtQtQtQtQtQtahaiajakalamanaoap#S#8#9a#aqararararararasasasatatauaua#a.avawaxayazaAaBaCaDaEQtQtQtQtQtQtQtQtQtQtQtQtQt",
"QtQtQtQtQtQtQtQtQtQtQtaFaGaHaIaJaKaLaMaNaAaOaPatarararararaQaQaQaQaQaQarararararasaRaSaTaUaVaWaXaYaZa0a1a2QtQtQta3a3Qta3QtQtQtQt",
"QtQtQtQtQtQtQtQtQtQta0a4a5a6a7a8a9b.b#babbbcbdaQaQaQaQaQaxaxaxaxaxaxaxaQaQaQaQarararasbebfbgbhbgbibjbkblbmbnQtboa3boboboboa3a3a3",
"QtQtQtQtQtQtQtQtQtbpbqbrbsbtbuaWbvbgbwbgbxbybzaQaQaxaQaxaxaxaxaxaxaxaxaxaxaxbAbBbCbDarbEbFbGbHbhbgbIbJbKbLbMboboboa3boboboboa3a3",
"QtQtQtQtQtQtQtQtaFbNbObPbQaUbRbhbhbSbTbUa9bVbWaQaxaxaxaxaxaxaxaxaxaxaxaxbAbXbYbZbZb0aqaraxb1b2bHbhbRb3b4b5b6b7boa3Qtboa3a3boa3Qt",
"QtQtQtQtQtQtQtb8b9#5c.#oc#cabhbhcbcccdcecfcgaQaxaxaxaxaxaxchbAaxaxaxaxbAcibZcjckclckbYaQararbebGbgaVcmcncocpcqcrcsctcua3a3cvcwcx",
"QtQtQtQtQtQtQtcycz#6cAcBcCbhcDbabTbccEcFaQaQaxaxaxaxaxaxbAcicicGaxaxaxaqbZcHcHckclckcIbDaQararcJcKcLcMalcNcOcPcQcRcScTQtQtcUcVcW",
"cXcYcva3QtQtcZc0c1#lc2bbbhcDbwc3byc4c5cgaQaQaxaxaxaxaxaxbDc6bZc7axaxaxc7cHcHcHcjc8ckc9axaQa#d.d#dadb#tdcdddedfdgdhboQtQtQtdidjdk",
"dldmcscua3dndodpdq#NdrdsdtduaWdvdwdxcgaQaQaxaxaxaxaxaxaxaxdyc9aqaxaxaxa#cIcHdzc9cid.a#axbCcIdzdAdBdC#UdDdEdFdGdHdIdJQtQtQtdKdLdM",
"dldldNdOdPdQdRdSdTdUdVdWdXdYdZd0aQaQaQbAaxaxaxaxaxaxaxaxaxaxaxaxaxaxaxaxa#c9c7bAaxbAaxaxbDd.d1d2d3d3d3d3d3d3d3d4d5d6QtQtd7d8dldl",
"dldlcWd8d9e.e#eadTebecedeeefegeheiejekc9aqaxaxaxaxaxaxcicIcIdychaxchd#d.c9bCaxaxaxaxaxaxaxbCeld3d3d3d3d3d3d3d3emeneoepeqerdldldl",
"dldldleseteuevewexeyexdTdTdTd3ezcjeAeBeBb0bDaxaxaxaxaqeCeDeDeEeFeGeHeIc7bXaxaxaxaxaxaxaxaqeJeKd3d3d3d3d3d3d3d3eLeMeNeOePeQdldldl",
"dldldleReSeTeUeVeWeXexdTdTd3d3eYeZclclclckc7bDbAbDchaqe0d3d3d3d3d3d3e1axaxaxaxaxbAaxaxbAe2e3d3d3d3d3d3d3d3d3e4e5e6e7e8e9dldldldl",
"dldldlf.f#fafbfcfdfeffdTdTd3d3fgfhclclclclcjbXa#c7aqfifjd3d3d3d3d3d3fkbDaxaxaqekd.cibAaxd#fld3d3d3d3d3d3d3d3fmfnfofpfqfrdldldldl",
"dldldlfsftfufvfwfxfyeydTd3d3d3d3fzclclclclclcIaqbCa#fAd3d3d3d3d3d3d3d3fBaxaqd.cHckcHaqaxfCdTd3d3d3d3d3d3d3d3fDfEfFfGfHfIdldldldl",
"dldldlfJfKfLfMfNfOfPffexdTd3d3d3fQclclclclcleBbYaqcifRd3d3d3d3d3d3d3d3fSbDdybZcHcjbZcGbCfTd3d3d3d3d3d3d3d3fUfVfWfXfYfZf0f1dldldl",
"dldlf2f3f4f5f6#rf7f8d3d3d3d3d3d3f9clclclclclcld.c7bZg.d3d3d3d3d3d3d3d3d3g#cGc9c9a#aqaxbXgad3d3d3d3d3d3d3d3gbgcgdgegfggghgidldldl",
"dldlgjgkglgmgngogpgqd3d3d3d3d3d3d3grclclclclcHd.bZgsgtd3d3d3d3d3d3d3d3d3guaxaxaxaxaxaxaxgvd3d3d3d3d3d3d3d3gwgxgygzgAgBgCgDdldldl",
"gEgFgGgHc.gIgngJgKgLd3d3d3d3d3d3d3gMclclclcHckckclgNd3d3d3d3d3d3d3d3d3d3gOgPaxaxaxaxaxaxgQd3d3d3d3d3d3d3d3gRgSgTgUgVgWgXgYdldleR",
"gZg0g1bkg2dDg3g4bbg5g6d3d3d3d3d3d3g7clclcIc7clclclg8d3d3d3d3d3d3d3d3d3d3d3g9bAaxaxaxaxaxh.d3d3d3d3d3d3d3h#hagShbhcgVhdhehfdldldl",
"dkhghhhihjdqhkhlbghmhnd3d3d3d3d3d3hohpbZa#c7clclhqhrd3d3d3d3d3d3d3d3d3d3d3hsbYbCaxaxaxaxhtd3d3d3d3d3d3d3huhvhwhxgUhyhzhAhBhCdldl",
"hDd7hEhFhGhHgKhIbahJhKd3d3d3d3d3d3d3hLciaqhMclclhNd3d3d3d3d3d3d3d3d3d3d3d3d3hOd.cGcGaqbChPd3d3d3d3d3d3d3hQhRhShThUhVhWhXhYhZdldk",
"h0h1h2h3h4h5h6h7h8h9i.d3d3d3d3d3d3d3i#bDc7ckclcliad3d3d3d3d3ibd3d3d3d3d3d3d3icckcIb0cIidd3d3d3d3d3d3d3d3ieifigihfEiihWijikilimin",
"iocwipiqirisitiuiviwixd3d3d3d3d3d3d3iyc7c8clcliziAd3d3d3d3d3iBiCd3d3d3d3d3d3f9clclckc8iDd3d3d3d3d3d3d3gtiEifiFiGiHiiiIiJiKiLh0iM",
"ioiNiOiPiQiRiSiTiUiViWiXd3d3d3d3d3d3gtiYclclcliZd3d3d3d3d3i0cjg7d3d3d3d3d3d3d3i1clclcli2d3d3d3d3d3d3d3i3i4i5aZi6i7i8i9j.j#jaeRgE",
"eQjbjcjdjejfjgjhgpjiclg8d3d3d3d3d3d3d3hNclclcljjd3d3d3d3d3jkckjld3d3d3d3d3d3d3jkclclcljmd3d3d3d3d3d3d3jnjoi5jpjqjrjsjtjujvjwdldl",
"jxjyjzjAjBjCjDiSjEc8ckjFd3d3d3d3d3d3d3jjclcljGjHd3d3d3d3fUjIcljJjKd3d3d3d3d3d3jLclclcljMd3d3d3d3d3d3d3jNjOjP.OjQjRjSjTjUjVdldldl",
"cxjWjXjYjZj0j1j2j3j4ekj5d3d3d3d3d3d3d3j6clclj7d3d3d3d3d3j8clclclj9d3d3d3d3d3d3h#k.clk#kad3d3d3d3d3d3kbkcjOkdkekfkgkhkikjkkdldlcW",
"kld7kmknkokpj1kqkrkscGbXktd3d3d3d3d3d3d3kuclkvd3d3d3d3d3kwclckclkxd3d3d3d3d3d3d3kyiVkzd3d3d3d3d3d3d3kAkBi4kCkDkEkFkGkHkIkJkKeQdk",
"kLdLkMkNkOkPkQkRkSkTasbBkUd3d3d3d3d3d3d3kVkWgtd3d3d3d3kakXcjcHcHkYkZd3d3d3d3d3d3k0k1hod3d3d3d3d3d3d3k2k3k4kdk5k6k7k8k9l.l#lahglb",
"dldllcldlekPlfislgkra#cilhd3d3d3d3d3d3d3liljd3d3d3d3d3lkb0bYa#aqdylld3d3d3d3d3d3lmlnd3d3d3d3d3d3d3kZlolplqlrlsltlulvlwlxlykLdMdl",
"dldldllzlAlBlClDlElFlGhklHd3d3d3d3d3d3d3gtd3d3d3d3d3d3lIbAaxaxaqcilJd3d3d3d3d3d3gtd3d3d3d3d3d3d3d3lKlplLlMlNlOlPlQlRlSlTjxlUlcdl",
"dldldllVlWlXlYlZl0.Ol1l2l3l4d3d3d3d3d3d3d3d3d3d3d3d3gOl5bDarara#l6l7l8d3d3d3d3d3d3d3d3d3d3d3d3d3d3l9m.m#mambmcmdmemfmgmhcWeRcWdl",
"dldleRgZmimjmkmlmmfvmnmompmqd3d3d3d3d3d3d3d3d3d3d3d3mrmscGbDbDcGmtcGmud3d3d3d3d3d3d3d3d3d3d3d3d3mvmwmxmymzmAmBmCmDmEmFmGcWeRdkeR",
"eQcWgZeQmHmImJmKmL.ImM.Pm#mNd3d3d3d3d3d3d3d3d3d3d3d3mOmPbXmtbXmPmQmQmRd3d3d3d3d3d3d3d3d3d3d3d3d3mSmTmUmVmWmXmYmZm0m1m2m3inesimjb",
"djiMcVeQm4m5m6m7m8m9n.n#nanbd3d3d3d3d3d3d3d3d3d3d3ncndnelLnfmPngnhngninjd3d3d3d3d3d3d3d3d3d3d3d3nknlmVnmnnnonpnqnrnsntkKd8eqnug0",
"cTnvnwcWdlnxnynznAnBnCnDnEnFnGd3d3d3d3d3d3d3d3d3d3nHifnInJnKnLnMnKnNnMnOd3d3d3d3d3d3d3d3d3d3d3nPnQnRnSnTnUnVnWnXnYnZn0iocSa3Qtbo",
"QtdKcsn1dln2n3n4n5n6n7ltn8n9o.d3d3d3d3d3d3d3d3d3d3o#oaobobocodoeofogohoid3d3d3d3d3d3d3d3d3d3d3ojokolomonooopoqorosotjbhDdiQtQtQt",
"Qta3oucskLjxovowoxoyozoAoBoCoDd3d3d3d3d3d3d3d3d3oEoFoGoHoIoJoKoKoLoMoNoOoPd3d3d3d3d3d3d3d3d3oQoRoSoToUoVoWoXoYoZo0dldlcWo1o2o3o4",
"QtQtQta3a3boboo5o6o7o8o9nUp.p#d3d3d3d3d3d3d3d3d3papbpcpdpepfpgpgpgphpipjpkd3d3d3d3d3d3d3d3d3plpmpnpopppqoXproZpsptdldldldldkdkcV",
"QtboboQtQtQtQtpupvpwpxpypzpApBpCd3d3d3d3d3d3d3d3pDpEpFpGpHpHpIpJpKpLpMpNpOd3d3d3d3d3d3d3d3d3pPpQpRpSpToXpUpVpWpXdldldldldlcWcWlc",
"cvcSpYdPboQtQtQtpZp0p1p2nqp3p4p5p6p7p8p8p9p9q.q#qaqbqcqdqeqfqgqeqhqgqiqjqkqlqmqmqnqoqpqqqrqsqtquqvqwqxoYqyqzqAdldldldldldkcWcWcW",
"cTqBcwdiQtQtQtQtQtqCqDqEqFqGqHqIqJqKqLqMqNqOqPqQqRqSqTqUqVqWqVqXqYqZq0q1q2q3q4q5q6q7q8q9r.qur#rarbrcrdrerfrgrhdmridMjxourjhDrkrl",
"QtQtrmrncvQtQtQtQtQtrorprqrrrsrtrurvrwrxryrzrArzrBrCrDqQrErFqQqUrGq5rHq6rIrJrKrLrMrNrOrPrQrRrbrSrTrUqyrVrWrXrYrYnwrmcTQtbooucYrZ",
"QtQtr0csdPQtQtQtQtQtQtr1r2r3r4r5r6r7r8r9s.s#sasbscsdsesfsgshrKsirLrLsjrMrNskslsmsnsospsqsrssstsusvswsxsysza3QtcUsAcXboQtQtQtQtQt",
"bocYo1nucvQtQtQtQtQtQtQtsBsCsDsEsFsGsHsIsJsKsLsMsNsOsPsQsnsnsRsSsSsSsTsUsVsWsXsYsZs0s1s2s3sus4s5s6s7s8s9QtQtt.t#nueqcvdKa3bodPa3",
"tadjeQkKnua3QtQtQtQtQtQtQttbtctdtetftgthtitjtktltmsKtntotptqtrtptqtqtstttutvtwr3txtytztAtBtCtDtEtFtGlaQtQtbonvcucvcTcvcTbodipYcv",
"cTkLgEtHcYQtQtQtQtQtQtQtQtcTtItJtKtLtMtNtOtPtgtQtgtRtStTtUtVtVtWtXtYtVtZt0t1tQtRt2t3tCt4t5t6t7t8t9cwQtQtQta3cTcTdKbot.t.bot.u.bo",
"QtcvcwrmboQtQtQtQtQtQtQtQtnvcxcYu#uaubucudueufuguhuitPujtPukulumuntMtfuoupuqururusutuuuvuwuxuyuzcXboQtQtQtQtboboa3QtQtQtQtQtQtQt",
"QtQta3QtQtQtQtQtQtQtQtQtQta3cvt.QtbouAuBuCuDuEuFuGuduHuIuduJuKuKuKuJuJuduLufuHuIuMuNuOuPuQuRcXdPboQtQtQtQtQtQtQtQtQtQtQtQtQtQtQt",
"QtQtQtQtQtQtQtQtQtQtQtQtQtQtQtQtt.o3o1pYuAuSuTuUuVuWuXuYuZuZuZu0u0u1u1u1u2u3u2u4uCu5tbu6cTboQtQtQtQtQtQtQtQtQtQtQtQtQtQtQtQtQtQt",
"QtQtQtQtQtQtQtQtQtQtQtQtQtQtQtQtr0o1u7u8rZQtu9v.v#vavbvcuCvdvduCuCvevfvgvhvivjvkv#QtQtQtQtQtQtQtQtQtQtQtQtQtQtQtQtQtQtQtQtQtQtQt",
"QtQtQtQtcvcuboQtQtQtQtQtQtQtQtdijyg0vlvmcvQtQtQtQtQtvnvov#vpvpvqvrvsvtvuvvcTcvdKQtQtQtQtQtQtQtQtQtQtQtQtQtQtQtQtQtQtQtQtQtQtQtQt",
"QtQtbocYvwvxcwboboboQtQtQtQtQttacshgoua3QtQtQtQtQtQtQtQtQtQtQtQtQta3a3Qta3bodKboQtQtQtQtQtQtQtQtQtQtQtQtQtQtQtQtQtQtQtQtQtQtQtQt",
"QtQta3o2iNdLjWbodKdKa3QtQtQtQtt.curZcTQtQtQtQtQtQtQtQtQtQtQtQtQtQtQtQtQtQtQta3QtQtQtQtQtQtQtQtQtQtQtQtQtQtQtQtQtQtQtQtQtQtQtQtQt"};
