/* XPM */
static char *dummy[]={
"64 64 106 2",
"#a c #000000",
"#o c #409357",
"#L c #4c4c4c",
"#K c #4f4f4f",
"#E c #515151",
"#G c #525252",
"#B c #535353",
"#M c #545454",
"#H c #565656",
"#x c #575757",
"#w c #585858",
"#N c #5a5a5a",
"#F c #5b5b5b",
"#J c #5c5c5c",
"#D c #5d5d5d",
"#I c #5e5e5e",
"#v c #5f5f5f",
"#C c #606060",
".T c #616161",
"#y c #626262",
".4 c #636363",
"#u c #646464",
"#A c #656565",
".1 c #666666",
"#z c #676767",
".L c #686868",
".7 c #696969",
".V c #6a6a6a",
".m c #6b6b6b",
".r c #6c6c6c",
".o c #6d6d6d",
".g c #6e6e6e",
".U c #6f6f6f",
".j c #707070",
".u c #717171",
".M c #727272",
".y c #737373",
".C c #747474",
".D c #757575",
".N c #767676",
".a c #777777",
".q c #787878",
".O c #797979",
".k c #7a7a7a",
".h c #7b7b7b",
".v c #7c7c7c",
".H c #7d7d7d",
".n c #7e7e7e",
".d c #7f7f7f",
".b c #808080",
".i c #818181",
".z c #828282",
".c c #838383",
".e c #848484",
"#s c #8c8c8c",
"#r c #8e8e8e",
"#t c #909090",
"#q c #919191",
"#m c #929292",
"#n c #949494",
"#l c #969696",
"#p c #979797",
".S c #989898",
"#k c #9c9c9c",
"#j c #aaaaaa",
"#h c #ababab",
"#i c #acacac",
"#g c #adadad",
"#. c #aeaeae",
".# c #b9b9b9",
"Qt c #bababa",
".f c #bbbbbb",
".l c #bcbcbc",
".p c #bdbdbd",
".s c #bebebe",
".t c #bfbfbf",
".w c #c0c0c0",
".x c #c1c1c1",
".B c #c2c2c2",
".A c #c3c3c3",
"#c c #c42d31",
".G c #c4c4c4",
".E c #c5c5c5",
".F c #c6c6c6",
".K c #c7c7c7",
".I c #c8c8c8",
".J c #c9c9c9",
".P c #cacaca",
".Q c #cbcbcb",
".R c #cccccc",
".W c #cdcdcd",
".X c #cecece",
".Y c #cfcfcf",
".Z c #d0d0d0",
".0 c #d1d1d1",
".2 c #d2d2d2",
".3 c #d3d3d3",
".5 c #d4d4d4",
"#f c #d5b45b",
".6 c #d5d5d5",
".8 c #d6d6d6",
".9 c #d7d7d7",
"## c #d8d8d8",
"#b c #d9d9d9",
"#d c #dadada",
"#e c #dbdbdb",
"QtQtQtQtQtQtQtQt.#.#.#.#.#.#.#.#.a.b.c.#.#.#.#.#.#.#.#.#.#.#.#.#.#.#.#.#.#.#.#.#.#QtQtQtQt.a.d.e.#.#.#.#.#.#.#.#.#.#.#.#.#.#.#.#",
"Qt.f.f.f.fQtQtQtQtQtQt.#.#.#.#.#.g.h.i.#.#.#.#.#.#.#.#.#.#.#.#.#.#.#.#.#.#.#QtQtQtQtQtQtQt.j.k.cQtQtQtQt.#.#.#.#.#.#.#.#.#.#.#.#",
".l.l.l.l.l.f.f.f.fQtQtQtQt.#.#.#.m.a.n.#.#.#Qt.#.#.#.#.#.#.#.#.#.#.#.#.#QtQtQtQtQtQtQtQtQt.o.k.cQtQtQtQtQtQt.#.#.#.#.#.#.#.#.#.#",
".p.p.p.p.p.p.p.l.l.l.l.f.fQtQtQt.o.q.nQtQtQtQt.#.#.#.#QtQtQtQt.#.#.#QtQtQt.#.#.f.f.f.f.l.l.r.h.e.f.f.fQtQtQtQtQtQtQtQtQtQtQtQtQt",
".s.t.t.t.t.t.s.s.s.s.p.p.l.l.l.f.u.v.i.#.#.#.#.#.#.#.#.#QtQtQtQtQtQtQtQt.#.#.#.#.#.#.#.#.#.r.k.c.p.l.l.l.l.l.l.f.l.l.f.f.f.f.f.f",
".w.x.x.x.x.x.x.w.w.w.t.s.s.s.p.p.y.n.z.#.#.#.#.#.#.#.#.#.#.l.l.l.l.l.l.#.#.#.#.#.#.#.#.#.#.g.k.c.s.s.s.s.s.s.p.p.p.p.p.p.p.p.p.l",
".A.A.A.A.A.A.A.A.A.B.B.x.w.w.t.t.C.d.c.#.#.#.#.#.#.#.#.#.#.p.p.p.p.s.s.#.#.#.#.#.#.#.#.#.#.D.n.e.x.x.w.w.w.w.w.w.w.t.t.t.t.s.s.s",
".E.F.F.F.F.F.F.F.F.E.E.G.A.B.B.x.y.v.b.z.e.e.e.c.c.e.z.e.#.t.t.t.t.w.w.#.e.e.e.c.c.z.z.d.H.d.z.e.A.A.A.B.A.B.B.B.B.B.x.x.x.x.w.w",
".I.I.J.J.J.J.J.J.I.K.K.K.F.E.E.G.L.M.a.d.n.d.b.b.n.i.d.c.c.x.B.B.B.B.B.e.e.i.H.q.D.D.N.O.H.b.c.e.F.F.E.E.E.E.E.E.E.E.G.G.G.A.A.B",
".P.Q.Q.R.R.R.R.R.Q.P.P.J.J.I.K.K.S.T.L.U.M.C.y.M.u.a.h.d.z.E.G.E.G.G.E.e.c.H.y.V.V.m.o.U.j.C.k.S.J.I.J.I.I.I.I.I.I.K.K.K.F.F.E.G",
".R.W.X.Y.X.Y.X.X.X.W.W.W.Q.Q.Q.P.J.S.S.S.S.S.S.S.S.S.g.O.i.K.K.K.K.I.I.e.c.a.S.S.S.S.S.S.S.S.S.Q.Q.Q.Q.R.Q.Q.Q.Q.P.P.P.J.J.I.I.K",
".X.Z.Z.Z.Z.0.Z.Z.Z.Z.Z.Y.Y.X.W.W.W.R.Q.Q.P.P.P.P.P.J.1.C.b.P.P.P.P.P.Q.c.n.U.R.W.R.W.W.W.W.W.X.X.X.X.X.X.X.X.X.X.W.W.R.R.Q.Q.P.J",
".0.2.2.2.3.3.2.2.2.2.2.2.0.0.Z.Y.Y.X.X.W.W.W.R.W.R.R.4.C.n.R.R.R.W.W.W.e.H.r.Y.Y.Y.Y.Y.Z.Z.Z.Z.Z.Z.Z.Z.Z.0.Z.Z.Z.Z.Y.Y.X.X.W.R.Q",
".3.3.3.3.3.5.5.5.5.6.5.5.3.3.2.2.0.0.Z.Z.Y.Y.Y.Y.Y.X.7.O.b.X.Y.Y.Y.Y.Z.c.k.r.0.0.0.0.0.0.2.2.2.2.2.2.3.2.3.2.2.2.2.0.0.Z.Z.Y.X.W",
".3.5.6.5.8.6.8.6.8.8.6.6.6.6.5.5.5.3.2.2.0.0.0.0.Z.Z.y.n.z.Z.0.0.0.2.2.c.v.u.3.3.3.3.3.3.3.3.5.5.5.5.5.5.5.5.5.5.5.3.3.2.0.0.Z.Y",
".6.6.8.8.8.9.9.9.9.9.8.8.9.9.6.8.6.5.5.3.5.3.3.3#.#.#.#.#.#.#.#.#.#.#.#.#.#.#.#..6.5.6.6.6.6.6.6.8.8.8.8.8.8.8.6.6.6.5.3.3.2.0.Z",
".8.8.8.9######.9####.9.9####.9.9.9.8.6.6.6.5.6.5#.#.#.#.#.#.#.#.#.#.#.#.#.#.#.#.#a#a.8.8.8.8.8.8.9.9.9.9.9.9.9.8.8.8.6.6.5.5.2.2",
".8.8.9.9###b#b###b###b#b#b######.9.8.8.8.8.8.6.8#.#.#.#.#.#.#.#.#.#.#.#.#.#.#.#..9#a.9.9.9.9.9################.9.9.9.8.6.6.5.3.2",
".9.9.9#b#b#b#b#b#b#b###b#b#b#b#b####.9.9.9.9#c#c#.#.#.#.#.#.#.#.#.#.#.#.#.#.#.#.###a#a#################b#b#b######.9.9.8.8.6.5.3",
".9.9###b#b#b#d#d#d#d#b#d#b#b#b#b#b#b.9##.9###c.9#.#.#.#.#.#.#.#.#.#.#.#.#.#.#.#.#####a#a#####b#b#b#b#b#b#b#b#b#b####.9.9.8.8.6.5",
".9#####b#b#d#d#d#d#d#b#d#d#d#b#b#b#b#b###b###c#c#c#.#.#.#.#.#.#.#.#.#..e.e.e#.#.#a#a#a#b#b#b#b#b#b#b#b#b#b#b#b#b#b####.9.9.8.6.5",
".9#b#b#b#d#e#d#e#e#d#d#d#d#d#d#d#b#b#b#b#b#b.9.9#c#c#.#.#.#.#.#.#.#.#..e#f.e#.#.#b#b#b#b#b#b#b#b#d#d#d#d#d#d#b#b#b####.9.9.8.6.6",
"###b#b#d#e#d#d#e#e#e#e#e#d#d#d#d#d#b#b#b#b#b###c#c#.#.#.#.#.#.#.#.#.#..e.e.e#.#.#b#b#b#b#b#b#b#d#d#d#d#d#d#d#b#b#b#b####.9.8.6.6",
".9#b#b#d#e#d#d#d#e#e#d#d#e#e#d#d#d#b#b#b#b#b#c#c#.#.#.#.#.#.#.#.#.#.#.#.#.#.#.#.#b#b#b#b#b#d#b#d#d#d#d#d#d#d#b#b#b######.9.8.8.6",
".9#####d#d#d#b#d#d#e#d#d#e#e#e#d#d#b#b#b#b#b#c###.#.#.#.#.#.#.#.#.#.#.#.#.#.#.#..c.e.c.i.b.z#b#b#d#d#d#d#d#b#b#b#b####.9.9.8.6.5",
".9#####b#b#b#b#d#d#d#b#d#d#e#e#d#d###b#b#####c#c#.#.#.#.#.#.#.#.#.#.#.#.#.#.#.#..b.H.v.v.v.v.i#b#b#b#b#b#b#b#b#b#b####.9.8.8.6.5",
".8.9#######b#d#d#b#b#d#b#d#d#d#b#b###b######.9.9#.#.#.#.#.#.#.#.#.#.#.#.#.#.#.#..u.o.g.U.D.k.b#b#b#b#b#b#b#b#b######.9.9.8.6.5.3",
".8.8.8#######b#d#d#d#d#b#b#d#b#b####.9.9##.9.8.9#.#.#.#.#.#.#.#.#.#.#.#.#.#.#.#.########.u.k.d#b#b#b#b#b##########.9.8.8.6.6.5.3",
".5.6.8.8.9#########b#b#b#######b##.9.9##.9.8.9.8#g#h#h#i#g#.#.#.#i#j#j#h#i#j#j#h########.g.n.c##########.9##.9.9.9.8.8.6.6.5.3.2",
".3.6.6.8.8.9.9.9##.9##.9.9####.9.8.8.8.8.8.6.6.8#k#l#m#m#n#o#o#p#q#r#o#s#r#t#m#l.9.9.9.9.o.n.z.9.9.9.9.9.9.9.8.8.8.6.6.5.5.3.2.0",
".0.3.5.5.8.8.8.6.8.9.9.9.8.8.9.9.8.5.6.6.6.5.5.5.5.6.y.y#o#o.u.M.M.M#o#o.D.a.8.8.8.8.8.8.7.H.e.8.8.8.8.8.6.6.6.6.6.5.5.3.2.0.Z.Y",
".0.2.2.3.5.5.5.6.8.8.6.8.8.6.6.6.5.3.3.3.6.3.3.2.3.3.2.5#o.3.3.3.5.5.5#o.5.5.5.6.6.6.6.6#u.d.z.6.6.5.5.5.5.5.5.3.3.3.2.0.0.Z.Y.X",
".X.Y.Z.0.2.2.3.5.3.5.5.5.5.5.3.3.2.2.2.2.2.0.0.0.0.0.0.0#o#o.2.2.2.2#o#o.3.3.3.3.3.3.5.3#v.O.e.3.3.3.2.3.2.2.2.2.0.0.Z.Z.Y.X.W.R",
".R.W.X.Y.Z.0.Z.2.2.2.2.2.2.0.0.0.Z.Z.Y.Z.Z.Y.Y.Y.Y.Y.Z.Z.Z#o#o#o#o#o#o.0.0.0.0.0.2.2.2.2#w.y.d.0.0.0.0.0.0.Z.Z.Z.Z.Y.Y.X.W.R.Q.P",
".P.Q.R.W.X.Y.Y.Y.Z.Z.Z.Z.Y.Z.Y.Y.X.W.X.X.W.W.W.W.W.W.X.W.X.X.Y.X.X.Y.Y.Y.Y.Y.Y.Z.Z.Z.Z.Z#x.M.b.Y.Y.Y.Y.Y.Y.X.X.X.X.W.W.R.Q.P.J.I",
".I.J.P.Q.Q.W.R.W.X.X.X.X.X.W.W.R.R.R.Q.Q.P.Q.Q.P.Q.Q.Q.Q.R.R.R.R.R.R.W.W.W.W.W.X.X.X.X.X#y.q.b.W.W.W.W.W.R.R.R.R.R.Q.P.P.J.I.K.E",
".F.K.I.J.J.P.Q.R.R.Q.R.Q.Q.Q.Q.P.J.J.J.I.I.I.J.I.I.I.J.J.J.P.P.P.P.P.Q.Q.Q.Q.Q.R.R.R.R.R.U.v.c.Q.Q.Q.Q.Q.P.P.P.P.J.J.I.I.K.F.E.G",
".G.E.F.K.K.I.I.J.J.J.J.J.J.J.I.I.K.K.K.F.F.F.E.E.F.F.F.K.K.I.I.I.I.I.I.J.J.J.J.P.P.P.P.P.O.d.z.J.J.J.J.I.I.I.I.I.I.K.F.F.E.G.A.B",
".B.A.G.E.E.F.F.F.K.K.K.K.K.K.F.F.E.E.G.G.G.A.A.A.G.G.G.G.E.E.E.F.F.F.F.K.K.K.K.I.I.I.I.I.b.c.c.I.K.K.K.K.K.F.F.F.F.E.E.G.A.B.x.w",
".c.c.e.c.c.c.c.c.c.c.c.E.E.E.G.G.A.A.B.B.x.x.x.x.i.i.z.z.i.i.i.i.i.i.i.i.i.z.z.n.n.v.n.z.z.c.c.c.z.c.z.c.c.e.c.c.e.c.c.e.c.c.e.e",
".O.N.a.N.D.C.C.N.O.H.b.z.A.A.B.B.x.w.w.t.t.t.t.d.i.i.n.k.C.y.M.M.y.y.y.C.D.N.O.q.q.a.q.q.q.a.C.M.C.a.q.D.C.M.D.a.k.k.q.O.h.v.v.v",
".y.M.M.M.u.j.j.j.U.C.h.b.x.x.x.w.t.t.s.s.s.p.s.C.n.d.D.m.7.7.7.7.7.V.V.L.V.m.o.o.o.m.m.o.o.r.r.g.o.g.U.j.u.j.j.u.y.y.y.C.D.C.D.C",
".S.S.S.S.S.S.S.S.S.j.q.b.w.w.t.t.s.p.p.p.l.l.l.V.N.H.S.S.S.S.S.S.S.S.S.S.S.S.S.S.S.S.S.S.S.S.S.S.S.S.S.S.S.S.S.S.S.S.S.S.S.S.S.S",
".S.S.S.S.S.S.S.S.S.M.h.i.s.s.s.s.p.l.l.l.l.l.f#z.U.v.S.S.S.S.S.S.S.S.S.S.S.S.S.S.S.S.S.S.S.S.S.S.S.S.S.S.S.S.S.S.S.S.S.S.S.S.S.S",
".l.p.p.p.s.s.s.s.S.C.i.i.p.p.p.l.l.l.f.f.fQtQt#u.7.d.f.f.l.l.l.p.p.p.p.s.s.s.s.s.s.t.t.t.t.t.t.w.w.w.w.w.w.w.t.t.t.s.s.p.p.l.f.f",
".l.l.l.l.p.p.p.p.S.j.b.b.l.l.l.l.f.fQtQtQtQtQt#u#A.dQt.f.f.f.l.l.l.l.p.p.p.p.p.p.p.s.s.s.s.s.s.s.t.t.t.t.t.s.s.s.s.p.p.l.l.l.fQt",
".f.f.l.l.l.l.l.l.S.o.b.z.l.f.f.fQtQtQtQt.#.#.#.4.r.nQtQtQt.f.f.f.l.l.l.l.l.l.l.l.l.l.p.p.p.p.p.s.s.s.s.s.s.s.p.p.p.p.l.l.f.fQtQt",
"Qt.f.f.f.f.f.f.f.S.r.b.i.fQtQtQtQtQt.#.#.#.#.#.1.a.HQtQtQtQtQt.f.f.f.f.f.f.f.f.f.l.l.l.l.l.l.l.l.p.p.p.p.p.p.p.l.l.l.l.f.fQtQtQt",
"QtQtQtQtQt.f.f.f.S.r.H.b.d.d.H.a.C.C.k.d.n.q.C.q.H.H.#QtQtQtQtQtQtQtQtQtQtQtQt.f.f.f.f.f.f.f.f.l.l.l.l.l.l.l.l.l.f.f.f.fQtQtQtQt",
"QtQtQtQtQtQtQtQt.S#B.o.r.m.m#z#A.4#u#u#A.7.o.C.k.H.H.#.#.#QtQtQtQtQtQtQtQtQtQtQtQtQtQtQtQtQt.f.f.f.f.f.f.f.f.f.f.f.fQtQtQtQtQt.#",
".#.#QtQtQtQtQtQt.S.S#u.4#y.4.T#C#v#v#v#D#B#E#F.M.h.v.#.#.#.#.#.#QtQtQtQtQtQtQt.#QtQtQtQtQtQtQtQtQtQtQt.f.fQtQtQtQtQtQtQtQt.#.#.#",
".#.#.#.#.#.#.#.#.#.S.S.S.S.S.S.S.S.S.S.S.S.S.S#v.k.h.#.#.#.#.#.#.#.#.#.#.#.#.#.#.#.#.#.#.#QtQtQtQtQtQtQtQtQtQtQtQtQtQt.#.#.#.#.#",
".#.#.#.#.#.#.#.#.#.#.S.S.S.S.S.S.S.S.S.S.S.S.S#G.u.k.#.#.#.#.#.#.#.#.#.#.#.#.#.#.#.#.#.#.#.#.#QtQtQtQtQtQtQtQtQt.#.#.#.#.#.#.#.#",
".#.#.#.#.#.#.#.#.#.#.#.#.#.#.#.#.#.#.#.#.#.#.##w.1.k.#.#.#.#.#.#.#.#.#.#.#.#.#.#.#.#.#.#.#.#.#.#.#.#.#.#.#.#.#.#.#.#.#.#.#.#.#.#",
".#.#.#.#.#.#.#.#.#.#.#.#.#.#.#.#.#.#.#.#.#.#.##H#u.O.#.#.#.#.#.#.#.#.#.#.#.#.#.#.#.#.#.#.#.#.#.#.#.#.#.#.#.#.#.#.#.#.#.#.#.#.#.#",
".#.#.#.#.#.#.#.#.#.#.#.#.#.#.#.#.#.#.#.#.#.#.##x.V.q.#.#.#.#.#.#.#.#.#.#.#.#.#.#.#.#.#.#.#.#.#.#.#.#.#.#.#.#.#.#.#.#.#.#.#.#.#.#",
".#.#.#.#.#.#.#.#.#.#.#.#.#.#.#.#.#.#.#.#.#.#.##A.C.q.#.#.#.#.#.#.#.#.#.#.#.#.#.#.#.#.#.#.#.#.#.#.#.#.#.#.#.#.#.#.#.#.#.#.#.#.#.#",
".i.i.i.d.d.d.n.d.n.H.v.h.h.h.h.k.k.O.O.q.N.M.u.C.q.q.#.#.#.#.#.#.#.#.#.#.#.#.#.#.#.#.#.#.#.#.#.#.#.#.#.k.n.n.n.d.b.i.i.i.i.i.i.z",
".C.U.r.7#z.L.L#A#A.1#z#A#A.L.m.V.m.m.r.V.7#z#u.1.g.N.#.#.#.#.#.#.#.#.#.#.#.#.#.#.#.#.#.#.#.#.#.#.#.##C.j.n.h.y.o.V.m.u.C.k.q.a.h",
".V#A#u.4#y#C#C#v#I#J#w#K#L#G#w#x#w#w#x#H#H#M#B#M#N.S.#.#.#.#.#.#.#.#.#.#.#.#.#.#.#.#.#.#.#.#.#.#.#.##D.m.k.g#A.4#u.1#z.L.r.m.r.U",
".S.S.S.S.S.S.S.S.S.S.S.S.S.S.S.S.S.S.S.S.S.S.S.S.S.S.#.#.#.#.#.#.#.#.#.#.#.#.#.#.#.#.#.#.#.#.#.#.#.##J#A.q.S.S.S.S.S.S.S.S.S.S.S",
".S.S.S.S.S.S.S.S.S.S.S.S.S.S.S.S.S.S.S.S.S.S.S.S.S.#.#.#.#.#.#.#.#.#.#.#.#.#.#.#.#.#.#.#.#.#.#.#.#.##F#A.k.S.S.S.S.S.S.S.S.S.S.S",
".#.#.#.#.#.#.#.#.#.#.#.#.#.#.#.#.#.#.#.#.#.#.#.#.#.#.#.#.#.#.#.#.#.#.#.#.#.#.#.#.#.#.#.#.#.#.#.#.#.##N#u.v.#.#.#.#.#.#.#.#.#.#.#",
".#.#.#.#.#.#.#.#.#.#.#.#.#.#.#.#.#.#.#.#.#.#.#.#.#.#.#.#.#.#.#.#.#.#.#.#.#.#.#.#.#.#.#.#.#.#.#.#.#.##N#A.h.#.#.#.#.#.#.#.#.#.#.#"};
