/* XPM */
static char *texture[] = {
"64 64 3 1",
"  c #AA22AA",
". c #FF88FF",
"X c #000000",
"XXXXXXXXXXXXXXXXXXXXXXXXXXXXXXXXXXXXXXXXXXXXXXXXXXXXXXXXXXXXXXXX",
"X       ........        ........        ........        .......X",
"X       ........        ........        ........        .......X",
"X       ........        ........        ........        .......X",
"X       ........        ........        ........        .......X",
"X       ........        ........        ........        .......X",
"X       ........        ........        ........        .......X",
"X       ........        ........        ........        .......X",
"X.......        ........        ........        ........       X",
"X.......        ........        ........        ........       X",
"X.......        ........        ........        ........       X",
"X.......        ........        ........        ........       X",
"X.......        ........        ........        ........       X",
"X.......        ........        ........        ........       X",
"X.......        ........        ........        ........       X",
"X.......        ........        ........        ........       X",
"X       ........        ........        ........        .......X",
"X       ........        ........        ........        .......X",
"X       ........        ........        ........        .......X",
"X       ........        ........        ........        .......X",
"X       ........        ........        ........        .......X",
"X       ........        ........        ........        .......X",
"X       ........        ........        ........        .......X",
"X       ........        ........        ........        .......X",
"X.......        ........        ........        ........       X",
"X.......        ........        ........        ........       X",
"X.......        ........        ........        ........       X",
"X.......        ........        ........        ........       X",
"X.......        ........        ........        ........       X",
"X.......        ........        ........        ........       X",
"X.......        ........        ........        ........       X",
"X.......        ........        ........        ........       X",
"X       ........        ........        ........        .......X",
"X       ........        ........        ........        .......X",
"X       ........        ........        ........        .......X",
"X       ........        ........        ........        .......X",
"X       ........        ........        ........        .......X",
"X       ........        ........        ........        .......X",
"X       ........        ........        ........        .......X",
"X       ........        ........        ........        .......X",
"X.......        ........        ........        ........       X",
"X.......        ........        ........        ........       X",
"X.......        ........        ........        ........       X",
"X.......        ........        ........        ........       X",
"X.......        ........        ........        ........       X",
"X.......        ........        ........        ........       X",
"X.......        ........        ........        ........       X",
"X.......        ........        ........        ........       X",
"X       ........        ........        ........        .......X",
"X       ........        ........        ........        .......X",
"X       ........        ........        ........        .......X",
"X       ........        ........        ........        .......X",
"X       ........        ........        ........        .......X",
"X       ........        ........        ........        .......X",
"X       ........        ........        ........        .......X",
"X       ........        ........        ........        .......X",
"X.......        ........        ........        ........       X",
"X.......        ........        ........        ........       X",
"X.......        ........        ........        ........       X",
"X.......        ........        ........        ........       X",
"X.......        ........        ........        ........       X",
"X.......        ........        ........        ........       X",
"X.......        ........        ........        ........       X",
"XXXXXXXXXXXXXXXXXXXXXXXXXXXXXXXXXXXXXXXXXXXXXXXXXXXXXXXXXXXXXXXX"
};
