/* XPM */
static char *texture[] = {
"64 64 3 1",
"  c #AA4422",
". c #FFAA88",
"X c #000000",
"XXXXXXXXXXXXXXXXXXXXXXXXXXXXXXXXXXXXXXXXXXXXXXXXXXXXXXXXXXXXXXXX",
"X       ........        ........        ........        .......X",
"X       ........        ........        ........        .......X",
"X       ........        ........        ........        .......X",
"X       ........        ........        ........        .......X",
"X       ........        ........        ........        .......X",
"X       ........        ........        ........        .......X",
"X       ........        ........        ........        .......X",
"X.......        ........        ........        ........       X",
"X.......        ........        ........        ........       X",
"X.......        ........        ........        ........       X",
"X.......        ........        ........        ........       X",
"X.......        ........        ........        ........       X",
"X.......        ........        ........        ........       X",
"X.......        ........        ........        ........       X",
"X.......        ........        ........        ........       X",
"X       ........        ........        ........        .......X",
"X       ........        ........        ........        .......X",
"X       ........        ........        ........        .......X",
"X       ........        ........        ........        .......X",
"X       ........        ........        ........        .......X",
"X       ........        ........        ........        .......X",
"X       ........        ........        ........        .......X",
"X       ........        ........        ........        .......X",
"X.......        ........        ........        ........       X",
"X.......        ........        ........        ........       X",
"X.......        ........        ........        ........       X",
"X.......        ........        ........        ........       X",
"X.......        ........        ........        ........       X",
"X.......        ........        ........        ........       X",
"X.......        ........        ........        ........       X",
"X.......        ........        ........        ........       X",
"X       ........        ........        ........        .......X",
"X       ........        ........        ........        .......X",
"X       ........        ........        ........        .......X",
"X       ........        ........        ........        .......X",
"X       ........        ........        ........        .......X",
"X       ........        ........        ........        .......X",
"X       ........        ........        ........        .......X",
"X       ........        ........        ........        .......X",
"X.......        ........        ........        ........       X",
"X.......        ........        ........        ........       X",
"X.......        ........        ........        ........       X",
"X.......        ........        ........        ........       X",
"X.......        ........        ........        ........       X",
"X.......        ........        ........        ........       X",
"X.......        ........        ........        ........       X",
"X.......        ........        ........        ........       X",
"X       ........        ........        ........        .......X",
"X       ........        ........        ........        .......X",
"X       ........        ........        ........        .......X",
"X       ........        ........        ........        .......X",
"X       ........        ........        ........        .......X",
"X       ........        ........        ........        .......X",
"X       ........        ........        ........        .......X",
"X       ........        ........        ........        .......X",
"X.......        ........        ........        ........       X",
"X.......        ........        ........        ........       X",
"X.......        ........        ........        ........       X",
"X.......        ........        ........        ........       X",
"X.......        ........        ........        ........       X",
"X.......        ........        ........        ........       X",
"X.......        ........        ........        ........       X",
"XXXXXXXXXXXXXXXXXXXXXXXXXXXXXXXXXXXXXXXXXXXXXXXXXXXXXXXXXXXXXXXX"
};
