/* XPM */
static char *texture[] = {
"64 64 3 1",
"  c #2244AA",
". c #88AAFF",
"X c #000000",
"XXXXXXXXXXXXXXXXXXXXXXXXXXXXXXXXXXXXXXXXXXXXXXXXXXXXXXXXXXXXXXXX",
"X       ........        ........        ........        .......X",
"X       ........        ........        ........        .......X",
"X       ........        ........        ........        .......X",
"X       ........        ........        ........        .......X",
"X       ........        ........        ........        .......X",
"X       ........        ........        ........        .......X",
"X       ........        ........        ........        .......X",
"X.......        ........        ........        ........       X",
"X.......        ........        ........        ........       X",
"X.......        ........        ........        ........       X",
"X.......        ........        ........        ........       X",
"X.......        ........        ........        ........       X",
"X.......        ........        ........        ........       X",
"X.......        ........        ........        ........       X",
"X.......        ........        ........        ........       X",
"X       ........        ........        ........        .......X",
"X       ........        ........        ........        .......X",
"X       ........        ........        ........        .......X",
"X       ........        ........        ........        .......X",
"X       ........        ........        ........        .......X",
"X       ........        ........        ........        .......X",
"X       ........        ........        ........        .......X",
"X       ........        ........        ........        .......X",
"X.......        ........        ........        ........       X",
"X.......        ........        ........        ........       X",
"X.......        ........        ........        ........       X",
"X.......        ........        ........        ........       X",
"X.......        ........        ........        ........       X",
"X.......        ........        ........        ........       X",
"X.......        ........        ........        ........       X",
"X.......        ........        ........        ........       X",
"X       ........        ........        ........        .......X",
"X       ........        ........        ........        .......X",
"X       ........        ........        ........        .......X",
"X       ........        ........        ........        .......X",
"X       ........        ........        ........        .......X",
"X       ........        ........        ........        .......X",
"X       ........        ........        ........        .......X",
"X       ........        ........        ........        .......X",
"X.......        ........        ........        ........       X",
"X.......        ........        ........        ........       X",
"X.......        ........        ........        ........       X",
"X.......        ........        ........        ........       X",
"X.......        ........        ........        ........       X",
"X.......        ........        ........        ........       X",
"X.......        ........        ........        ........       X",
"X.......        ........        ........        ........       X",
"X       ........        ........        ........        .......X",
"X       ........        ........        ........        .......X",
"X       ........        ........        ........        .......X",
"X       ........        ........        ........        .......X",
"X       ........        ........        ........        .......X",
"X       ........        ........        ........        .......X",
"X       ........        ........        ........        .......X",
"X       ........        ........        ........        .......X",
"X.......        ........        ........        ........       X",
"X.......        ........        ........        ........       X",
"X.......        ........        ........        ........       X",
"X.......        ........        ........        ........       X",
"X.......        ........        ........        ........       X",
"X.......        ........        ........        ........       X",
"X.......        ........        ........        ........       X",
"XXXXXXXXXXXXXXXXXXXXXXXXXXXXXXXXXXXXXXXXXXXXXXXXXXXXXXXXXXXXXXXX"
};
